; generated by Slic3r Prusa Edition 1.41.2+ on 2018-11-29 at 23:04:55

; Slow down perimeters to see if it will stop the hull bulging

; external perimeters extrusion width = 0.45mm
; perimeters extrusion width = 0.45mm
; infill extrusion width = 0.45mm
; solid infill extrusion width = 0.45mm
; top infill extrusion width = 0.40mm
; first layer extrusion width = 0.42mm

M73 P0 R106
M73 Q0 S106
M201 X1000 Y1000 Z1000 E5000 ; sets maximum accelerations, mm/sec^2
M203 X200 Y200 Z12 E120 ; sets maximum feedrates, mm/sec
M204 P1250 R1250 T1250 ; sets acceleration (P, T) and retract acceleration (R), mm/sec^2
M205 X8.00 Y8.00 Z0.40 E1.50 ; sets the jerk limits, mm/sec
M205 S0 T0 ; sets the minimum extruding and travel feed rate, mm/sec
M107
M115 U3.4.1 ; tell printer latest fw version
M83  ; extruder relative mode
M104 S240 ; set extruder temp
M140 S100 ; set bed temp
M190 S100 ; wait for bed temp
M109 S240 ; wait for extruder temp
G28 W ; home all without mesh bed level
G80 ; mesh bed leveling
G1 Y-3.0 F1000.0 ; go outside print area
G92 E0.0
G1 X60.0 E9.0  F1000.0 ; intro line
M73 Q0 S106
M73 P0 R105
G1 X100.0 E12.5  F1000.0 ; intro line
G92 E0.0
M221 S95
M900 K30; Filament gcode
G21 ; set units to millimeters
G90 ; use absolute coordinates
M83 ; use relative distances for extrusion
;BEFORE_LAYER_CHANGE
G92 E0.0
;0.2


G1 E-0.80000 F2100.00000
G1 Z0.600 F10800.000
;AFTER_LAYER_CHANGE
;0.2
G1 X149.272 Y102.973
G1 Z0.200
G1 E0.80000 F2100.00000
M204 S1000
G1 F1200
G1 X150.117 Y102.791 E0.02709
G1 X200.148 Y102.791 E1.56870
G1 X200.968 Y102.952 E0.02620
G1 X201.671 Y103.411 E0.02631
G1 X202.147 Y104.097 E0.02620
G1 X202.332 Y104.915 E0.02631
G1 X202.333 Y155.005 E1.57053
G1 X202.171 Y155.807 E0.02563
G1 X201.726 Y156.493 E0.02563
G1 X201.007 Y156.991 E0.02743
G1 X200.147 Y157.168 E0.02754
G1 X150.119 Y157.168 E1.56859
G1 X149.318 Y157.006 E0.02563
G1 X148.632 Y156.561 E0.02563
G1 X148.133 Y155.842 E0.02743
G1 X147.956 Y154.982 E0.02754
G1 X147.956 Y104.954 E1.56859
G1 X148.119 Y104.153 E0.02563
G1 X148.563 Y103.467 E0.02563
G1 X149.223 Y103.007 E0.02521
; PURGING FINISHED
G1 F8640
G1 X150.117 Y102.791 E-0.21237
G1 X152.489 Y102.791 E-0.54763
G1 E-0.04000 F2100.00000
G1 Z0.800 F10800.000
G1 X150.732 Y105.567
G1 Z0.200
G1 E0.80000 F2100.00000
G1 F1200
G1 X199.558 Y105.567 E1.53090
G1 X199.558 Y154.393 E1.53090
G1 X150.732 Y154.393 E1.53090
G1 X150.732 Y105.627 E1.52902
G1 X150.355 Y105.190 F10800.000
G1 F1200
G1 X199.935 Y105.190 E1.55455
G1 X199.935 Y154.770 E1.55455
G1 X150.355 Y154.770 E1.55455
G1 X150.355 Y105.250 E1.55266
G1 X150.741 Y105.293 F10800.000
G1 F8640
G1 X153.646 Y105.246 E-0.76000
G1 E-0.04000 F2100.00000
G1 Z0.800 F10800.000
G1 X151.609 Y154.280
G1 Z0.200
G1 E0.80000 F2100.00000
G1 F1200
G1 X151.015 Y153.685 E0.02642
G1 X151.015 Y153.151 E0.01680
G1 X151.974 Y154.110 E0.04263
G1 X152.508 Y154.110 E0.01680
G1 X151.015 Y152.616 E0.06638
G1 X151.015 Y152.082 E0.01680
G1 X153.043 Y154.110 E0.09014
G1 X153.577 Y154.110 E0.01680
G1 X151.015 Y151.547 E0.11389
G1 X151.015 Y151.013 E0.01680
G1 X154.112 Y154.110 E0.13764
G1 X154.646 Y154.110 E0.01680
G1 X151.015 Y150.478 E0.16140
G1 X151.015 Y149.944 E0.01680
G1 X155.181 Y154.110 E0.18515
G1 X155.715 Y154.110 E0.01680
G1 X151.015 Y149.409 E0.20890
G1 X151.015 Y148.875 E0.01680
G1 X156.250 Y154.110 E0.23266
G1 X156.784 Y154.110 E0.01680
G1 X151.015 Y148.340 E0.25641
G1 X151.015 Y147.806 E0.01680
G1 X157.319 Y154.110 E0.28016
G1 X157.853 Y154.110 E0.01680
G1 X151.015 Y147.271 E0.30391
G1 X151.015 Y146.737 E0.01680
G1 X158.388 Y154.110 E0.32767
G1 X158.922 Y154.110 E0.01680
G1 X151.015 Y146.202 E0.35142
G1 X151.015 Y145.668 E0.01680
G1 X159.457 Y154.110 E0.37517
G1 X159.991 Y154.110 E0.01680
G1 X151.015 Y145.133 E0.39893
G1 X151.015 Y144.599 E0.01680
G1 X160.526 Y154.110 E0.42268
G1 X161.060 Y154.110 E0.01680
G1 X151.015 Y144.065 E0.44643
G1 X151.015 Y143.530 E0.01680
G1 X161.595 Y154.110 E0.47019
G1 X162.129 Y154.110 E0.01680
G1 X151.015 Y142.996 E0.49394
G1 X151.015 Y142.461 E0.01680
G1 X162.663 Y154.110 E0.51769
G1 X163.198 Y154.110 E0.01680
G1 X151.015 Y141.927 E0.54144
G1 X151.015 Y141.392 E0.01680
G1 X163.732 Y154.110 E0.56520
G1 X164.267 Y154.110 E0.01680
G1 X151.015 Y140.858 E0.58895
G1 X151.015 Y140.323 E0.01680
G1 X164.801 Y154.110 E0.61270
G1 X165.336 Y154.110 E0.01680
G1 X151.015 Y139.789 E0.63646
G1 X151.015 Y139.254 E0.01680
G1 X165.870 Y154.110 E0.66021
G1 X166.405 Y154.110 E0.01680
G1 X151.015 Y138.720 E0.68396
G1 X151.015 Y138.185 E0.01680
G1 X166.939 Y154.110 E0.70772
G1 X167.474 Y154.110 E0.01680
G1 X151.015 Y137.651 E0.73147
G1 X151.015 Y137.116 E0.01680
G1 X168.008 Y154.110 E0.75522
G1 X168.543 Y154.110 E0.01680
G1 X151.015 Y136.582 E0.77897
G1 X151.015 Y136.047 E0.01680
G1 X169.077 Y154.110 E0.80273
G1 X169.612 Y154.110 E0.01680
G1 X151.015 Y135.513 E0.82648
M73 Q1 S105
G1 X151.015 Y134.978 E0.01680
G1 X170.146 Y154.110 E0.85023
M73 P1 R104
G1 X170.681 Y154.110 E0.01680
G1 X151.015 Y134.444 E0.87399
G1 X151.015 Y133.910 E0.01680
G1 X171.215 Y154.110 E0.89774
G1 X171.750 Y154.110 E0.01680
G1 X151.015 Y133.375 E0.92149
G1 X151.015 Y132.841 E0.01680
G1 X172.284 Y154.110 E0.94525
G1 X172.818 Y154.110 E0.01680
G1 X151.015 Y132.306 E0.96900
G1 X151.015 Y131.772 E0.01680
G1 X173.353 Y154.110 E0.99275
G1 X173.887 Y154.110 E0.01680
G1 X151.015 Y131.237 E1.01651
G1 X151.015 Y130.703 E0.01680
G1 X174.422 Y154.110 E1.04026
G1 X174.956 Y154.110 E0.01680
G1 X151.015 Y130.168 E1.06401
G1 X151.015 Y129.634 E0.01680
G1 X175.491 Y154.110 E1.08776
G1 X176.025 Y154.110 E0.01680
G1 X151.015 Y129.099 E1.11152
G1 X151.015 Y128.565 E0.01680
G1 X176.560 Y154.110 E1.13527
G1 X177.094 Y154.110 E0.01680
G1 X151.015 Y128.030 E1.15902
G1 X151.015 Y127.496 E0.01680
G1 X177.629 Y154.110 E1.18278
G1 X178.163 Y154.110 E0.01680
G1 X151.015 Y126.961 E1.20653
G1 X151.015 Y126.427 E0.01680
G1 X178.698 Y154.110 E1.23028
G1 X179.232 Y154.110 E0.01680
G1 X151.015 Y125.892 E1.25404
G1 X151.015 Y125.358 E0.01680
G1 X179.767 Y154.110 E1.27779
G1 X180.301 Y154.110 E0.01680
G1 X151.015 Y124.823 E1.30154
G1 X151.015 Y124.289 E0.01680
G1 X180.836 Y154.110 E1.32529
G1 X181.370 Y154.110 E0.01680
G1 X151.015 Y123.754 E1.34905
G1 X151.015 Y123.220 E0.01680
G1 X181.905 Y154.110 E1.37280
G1 X182.439 Y154.110 E0.01680
G1 X151.015 Y122.686 E1.39655
G1 X151.015 Y122.151 E0.01680
G1 X182.974 Y154.110 E1.42031
G1 X183.508 Y154.110 E0.01680
G1 X151.015 Y121.617 E1.44406
G1 X151.015 Y121.082 E0.01680
G1 X184.042 Y154.110 E1.46781
G1 X184.577 Y154.110 E0.01680
G1 X151.015 Y120.548 E1.49157
G1 X151.015 Y120.013 E0.01680
G1 X185.111 Y154.110 E1.51532
G1 X185.646 Y154.110 E0.01680
G1 X151.015 Y119.479 E1.53907
G1 X151.015 Y118.944 E0.01680
G1 X186.180 Y154.110 E1.56282
M73 Q1 S104
G1 X186.715 Y154.110 E0.01680
G1 X151.015 Y118.410 E1.58658
M73 P2 R103
G1 X151.015 Y117.875 E0.01680
G1 X187.249 Y154.110 E1.61033
G1 X187.784 Y154.110 E0.01680
G1 X151.015 Y117.341 E1.63408
G1 X151.015 Y116.806 E0.01680
G1 X188.318 Y154.110 E1.65784
G1 X188.853 Y154.110 E0.01680
G1 X151.015 Y116.272 E1.68159
G1 X151.015 Y115.737 E0.01680
G1 X189.387 Y154.110 E1.70534
G1 X189.922 Y154.110 E0.01680
G1 X151.015 Y115.203 E1.72910
G1 X151.015 Y114.668 E0.01680
G1 X190.456 Y154.110 E1.75285
G1 X190.991 Y154.110 E0.01680
G1 X151.015 Y114.134 E1.77660
G1 X151.015 Y113.599 E0.01680
G1 X191.525 Y154.110 E1.80036
G1 X192.060 Y154.110 E0.01680
G1 X151.015 Y113.065 E1.82411
G1 X151.015 Y112.531 E0.01680
G1 X192.594 Y154.110 E1.84786
G1 X193.129 Y154.110 E0.01680
G1 X151.015 Y111.996 E1.87161
G1 X151.015 Y111.462 E0.01680
G1 X193.663 Y154.110 E1.89537
G1 X194.197 Y154.110 E0.01680
G1 X151.015 Y110.927 E1.91912
G1 X151.015 Y110.393 E0.01680
G1 X194.732 Y154.110 E1.94287
G1 X195.266 Y154.110 E0.01680
G1 X151.015 Y109.858 E1.96663
G1 X151.015 Y109.324 E0.01680
G1 X195.801 Y154.110 E1.99038
G1 X196.335 Y154.110 E0.01680
G1 X151.015 Y108.789 E2.01413
G1 X151.015 Y108.255 E0.01680
G1 X196.870 Y154.110 E2.03789
G1 X197.404 Y154.110 E0.01680
G1 X151.015 Y107.720 E2.06164
M73 Q2 S103
G1 X151.015 Y107.186 E0.01680
G1 X197.939 Y154.110 E2.08539
M73 P2 R102
G1 X198.473 Y154.110 E0.01680
G1 X151.015 Y106.651 E2.10914
G1 X151.015 Y106.117 E0.01680
G1 X199.008 Y154.110 E2.13290
G1 X199.275 Y154.110 E0.00840
G1 X199.275 Y153.843 E0.00840
G1 X151.282 Y105.850 E2.13289
G1 X151.816 Y105.850 E0.01680
G1 X199.275 Y153.308 E2.10914
G1 X199.275 Y152.774 E0.01680
G1 X152.351 Y105.850 E2.08539
G1 X152.885 Y105.850 E0.01680
G1 X199.275 Y152.239 E2.06164
G1 X199.275 Y151.705 E0.01680
G1 X153.420 Y105.850 E2.03788
G1 X153.954 Y105.850 E0.01680
G1 X199.275 Y151.170 E2.01413
G1 X199.275 Y150.636 E0.01680
G1 X154.489 Y105.850 E1.99038
G1 X155.023 Y105.850 E0.01680
G1 X199.275 Y150.101 E1.96662
G1 X199.275 Y149.567 E0.01680
G1 X155.558 Y105.850 E1.94287
G1 X156.092 Y105.850 E0.01680
G1 X199.275 Y149.032 E1.91912
G1 X199.275 Y148.498 E0.01680
G1 X156.627 Y105.850 E1.89536
G1 X157.161 Y105.850 E0.01680
G1 X199.275 Y147.963 E1.87161
G1 X199.275 Y147.429 E0.01680
G1 X157.696 Y105.850 E1.84786
G1 X158.230 Y105.850 E0.01680
G1 X199.275 Y146.894 E1.82411
G1 X199.275 Y146.360 E0.01680
G1 X158.765 Y105.850 E1.80035
G1 X159.299 Y105.850 E0.01680
G1 X199.275 Y145.825 E1.77660
M73 Q3 S102
G1 X199.275 Y145.291 E0.01680
G1 X159.834 Y105.850 E1.75285
M73 P3 R101
G1 X160.368 Y105.850 E0.01680
G1 X199.275 Y144.757 E1.72909
G1 X199.275 Y144.222 E0.01680
G1 X160.903 Y105.850 E1.70534
G1 X161.437 Y105.850 E0.01680
G1 X199.275 Y143.688 E1.68159
G1 X199.275 Y143.153 E0.01680
G1 X161.971 Y105.850 E1.65783
G1 X162.506 Y105.850 E0.01680
G1 X199.275 Y142.619 E1.63408
G1 X199.275 Y142.084 E0.01680
G1 X163.040 Y105.850 E1.61033
G1 X163.575 Y105.850 E0.01680
G1 X199.275 Y141.550 E1.58657
G1 X199.275 Y141.015 E0.01680
G1 X164.109 Y105.850 E1.56282
G1 X164.644 Y105.850 E0.01680
G1 X199.275 Y140.481 E1.53907
G1 X199.275 Y139.946 E0.01680
G1 X165.178 Y105.850 E1.51532
G1 X165.713 Y105.850 E0.01680
G1 X199.275 Y139.412 E1.49156
G1 X199.275 Y138.877 E0.01680
G1 X166.247 Y105.850 E1.46781
G1 X166.782 Y105.850 E0.01680
G1 X199.275 Y138.343 E1.44406
G1 X199.275 Y137.808 E0.01680
G1 X167.316 Y105.850 E1.42030
G1 X167.851 Y105.850 E0.01680
G1 X199.275 Y137.274 E1.39655
G1 X199.275 Y136.739 E0.01680
G1 X168.385 Y105.850 E1.37280
G1 X168.920 Y105.850 E0.01680
G1 X199.275 Y136.205 E1.34904
G1 X199.275 Y135.670 E0.01680
G1 X169.454 Y105.850 E1.32529
G1 X169.989 Y105.850 E0.01680
G1 X199.275 Y135.136 E1.30154
G1 X199.275 Y134.601 E0.01680
G1 X170.523 Y105.850 E1.27779
G1 X171.058 Y105.850 E0.01680
G1 X199.275 Y134.067 E1.25403
G1 X199.275 Y133.533 E0.01680
G1 X171.592 Y105.850 E1.23028
G1 X172.127 Y105.850 E0.01680
G1 X199.275 Y132.998 E1.20653
G1 X199.275 Y132.464 E0.01680
G1 X172.661 Y105.850 E1.18277
G1 X173.195 Y105.850 E0.01680
G1 X199.275 Y131.929 E1.15902
M73 Q4 S101
G1 X199.275 Y131.395 E0.01680
G1 X173.730 Y105.850 E1.13527
M73 P4 R100
G1 X174.264 Y105.850 E0.01680
G1 X199.275 Y130.860 E1.11151
G1 X199.275 Y130.326 E0.01680
G1 X174.799 Y105.850 E1.08776
G1 X175.333 Y105.850 E0.01680
G1 X199.275 Y129.791 E1.06401
G1 X199.275 Y129.257 E0.01680
G1 X175.868 Y105.850 E1.04026
G1 X176.402 Y105.850 E0.01680
G1 X199.275 Y128.722 E1.01650
G1 X199.275 Y128.188 E0.01680
G1 X176.937 Y105.850 E0.99275
G1 X177.471 Y105.850 E0.01680
G1 X199.275 Y127.653 E0.96900
G1 X199.275 Y127.119 E0.01680
G1 X178.006 Y105.850 E0.94524
G1 X178.540 Y105.850 E0.01680
G1 X199.275 Y126.584 E0.92149
G1 X199.275 Y126.050 E0.01680
G1 X179.075 Y105.850 E0.89774
G1 X179.609 Y105.850 E0.01680
G1 X199.275 Y125.515 E0.87398
G1 X199.275 Y124.981 E0.01680
G1 X180.144 Y105.850 E0.85023
G1 X180.678 Y105.850 E0.01680
G1 X199.275 Y124.446 E0.82648
G1 X199.275 Y123.912 E0.01680
G1 X181.213 Y105.850 E0.80272
G1 X181.747 Y105.850 E0.01680
G1 X199.275 Y123.378 E0.77897
G1 X199.275 Y122.843 E0.01680
G1 X182.282 Y105.850 E0.75522
G1 X182.816 Y105.850 E0.01680
G1 X199.275 Y122.309 E0.73147
G1 X199.275 Y121.774 E0.01680
G1 X183.350 Y105.850 E0.70771
G1 X183.885 Y105.850 E0.01680
G1 X199.275 Y121.240 E0.68396
G1 X199.275 Y120.705 E0.01680
G1 X184.419 Y105.850 E0.66021
G1 X184.954 Y105.850 E0.01680
G1 X199.275 Y120.171 E0.63645
G1 X199.275 Y119.636 E0.01680
G1 X185.488 Y105.850 E0.61270
G1 X186.023 Y105.850 E0.01680
G1 X199.275 Y119.102 E0.58895
G1 X199.275 Y118.567 E0.01680
G1 X186.557 Y105.850 E0.56519
G1 X187.092 Y105.850 E0.01680
G1 X199.275 Y118.033 E0.54144
G1 X199.275 Y117.498 E0.01680
G1 X187.626 Y105.850 E0.51769
G1 X188.161 Y105.850 E0.01680
G1 X199.275 Y116.964 E0.49394
G1 X199.275 Y116.429 E0.01680
G1 X188.695 Y105.850 E0.47018
G1 X189.230 Y105.850 E0.01680
G1 X199.275 Y115.895 E0.44643
G1 X199.275 Y115.360 E0.01680
G1 X189.764 Y105.850 E0.42268
G1 X190.299 Y105.850 E0.01680
G1 X199.275 Y114.826 E0.39892
G1 X199.275 Y114.291 E0.01680
G1 X190.833 Y105.850 E0.37517
G1 X191.368 Y105.850 E0.01680
G1 X199.275 Y113.757 E0.35142
G1 X199.275 Y113.222 E0.01680
G1 X191.902 Y105.850 E0.32766
G1 X192.437 Y105.850 E0.01680
G1 X199.275 Y112.688 E0.30391
G1 X199.275 Y112.154 E0.01680
G1 X192.971 Y105.850 E0.28016
G1 X193.506 Y105.850 E0.01680
G1 X199.275 Y111.619 E0.25641
G1 X199.275 Y111.085 E0.01680
G1 X194.040 Y105.850 E0.23265
G1 X194.574 Y105.850 E0.01680
G1 X199.275 Y110.550 E0.20890
G1 X199.275 Y110.016 E0.01680
G1 X195.109 Y105.850 E0.18515
G1 X195.643 Y105.850 E0.01680
G1 X199.275 Y109.481 E0.16139
G1 X199.275 Y108.947 E0.01680
G1 X196.178 Y105.850 E0.13764
G1 X196.712 Y105.850 E0.01680
G1 X199.275 Y108.412 E0.11389
G1 X199.275 Y107.878 E0.01680
G1 X197.247 Y105.850 E0.09013
G1 X197.781 Y105.850 E0.01680
G1 X199.275 Y107.343 E0.06638
G1 X199.275 Y106.809 E0.01680
G1 X198.316 Y105.850 E0.04263
G1 X198.850 Y105.850 E0.01680
G1 X199.445 Y106.444 E0.02642
;BEFORE_LAYER_CHANGE
G92 E0.0
;0.4


G1 F8640
G1 X198.850 Y105.850 E-0.19410
G1 X198.316 Y105.850 E-0.12341
G1 X199.275 Y106.809 E-0.31322
G1 X199.275 Y107.343 E-0.12341
G1 X199.257 Y107.325 E-0.00586
G1 E-0.04000 F2100.00000
G1 Z0.800 F10800.000
;AFTER_LAYER_CHANGE
;0.4
M104 S230 ; set temperature
G1 X202.147 Y104.097
G1 Z0.400
G1 E0.80000 F2100.00000
G1 F3000
G1 X202.332 Y104.915 E0.02631
G1 X202.333 Y155.005 E1.57053
G1 X202.171 Y155.807 E0.02563
G1 X201.726 Y156.493 E0.02563
G1 X201.007 Y156.991 E0.02743
G1 X200.147 Y157.168 E0.02754
G1 X150.119 Y157.168 E1.56859
G1 X149.318 Y157.006 E0.02563
G1 X148.632 Y156.561 E0.02563
G1 X148.133 Y155.842 E0.02743
G1 X147.956 Y154.982 E0.02754
G1 X147.956 Y104.954 E1.56859
G1 X148.119 Y104.153 E0.02563
G1 X148.563 Y103.467 E0.02563
G1 X149.272 Y102.973 E0.02709
G1 X150.117 Y102.791 E0.02709
G1 X200.148 Y102.791 E1.56870
G1 X200.968 Y102.952 E0.02620
G1 X201.671 Y103.411 E0.02631
G1 X202.113 Y104.048 E0.02431
; PURGING FINISHED
G1 F8640
G1 X202.332 Y104.915 E-0.20664
G1 X202.332 Y107.312 E-0.55336
G1 E-0.04000 F2100.00000
G1 Z1.000 F10800.000
G1 X199.513 Y105.612
G1 Z0.400
G1 E0.80000 F2100.00000
M204 S800
G1 F1500
G1 X199.513 Y154.348 E1.64965
G1 X150.777 Y154.348 E1.64965
G1 X150.777 Y105.612 E1.64965
G1 X199.453 Y105.612 E1.64762
M204 S1000
G1 X199.920 Y105.205 F10800.000
M204 S800
G1 F1500
G1 X199.920 Y154.755 E1.67721
M73 Q5 S100
G1 X150.370 Y154.755 E1.67721
M73 P5 R99
G1 X150.370 Y105.205 E1.67721
G1 X199.860 Y105.205 E1.67518
M204 S1000
G1 X199.816 Y105.591 F10800.000
G1 F8640
G1 X199.864 Y108.496 E-0.76000
G1 E-0.04000 F2100.00000
G1 Z1.000 F10800.000
G1 X150.899 Y106.560
G1 Z0.400
G1 E0.80000 F2100.00000
M204 S1250
G1 F8077.5
G1 X151.542 Y105.917 E0.03088
G1 X152.120 Y105.917 E0.01963
G1 X151.082 Y106.954 E0.04983
G1 X151.082 Y107.532 E0.01963
G1 X152.697 Y105.917 E0.07759
G1 X153.275 Y105.917 E0.01963
G1 X151.082 Y108.110 E0.10535
G1 X151.082 Y108.688 E0.01963
G1 X153.853 Y105.917 E0.13310
G1 X154.431 Y105.917 E0.01963
G1 X151.082 Y109.265 E0.16086
G1 X151.082 Y109.843 E0.01963
G1 X155.008 Y105.917 E0.18862
G1 X155.586 Y105.917 E0.01963
G1 X151.082 Y110.421 E0.21637
G1 X151.082 Y110.999 E0.01963
G1 X156.164 Y105.917 E0.24413
G1 X156.742 Y105.917 E0.01963
G1 X151.082 Y111.577 E0.27189
G1 X151.082 Y112.154 E0.01963
G1 X157.319 Y105.917 E0.29964
