; generated by Slic3r Prusa Edition 1.41.2+ on 2018-11-30 at 00:58:48

; Slow down perimeters to see if it will stop the hull bulging

; external perimeters extrusion width = 0.45mm
; perimeters extrusion width = 0.45mm
; infill extrusion width = 0.45mm
; solid infill extrusion width = 0.45mm
; top infill extrusion width = 0.40mm
; first layer extrusion width = 0.42mm

M73 P0 R118
M73 Q0 S119
M201 X1000 Y1000 Z1000 E5000 ; sets maximum accelerations, mm/sec^2
M203 X200 Y200 Z12 E120 ; sets maximum feedrates, mm/sec
M204 P1250 R1250 T1250 ; sets acceleration (P, T) and retract acceleration (R), mm/sec^2
M205 X8.00 Y8.00 Z0.40 E1.50 ; sets the jerk limits, mm/sec
M205 S0 T0 ; sets the minimum extruding and travel feed rate, mm/sec
M107
M115 U3.4.1 ; tell printer latest fw version
M83  ; extruder relative mode
M104 S250 ; set extruder temp
M140 S100 ; set bed temp
M190 S100 ; wait for bed temp
M109 S250 ; wait for extruder temp
G28 W ; home all without mesh bed level
G80 ; mesh bed leveling
G1 Y-3.0 F1000.0 ; go outside print area
G92 E0.0
G1 X60.0 E9.0  F1000.0 ; intro line
M73 Q0 S118
M73 P0 R118
G1 X100.0 E12.5  F1000.0 ; intro line
G92 E0.0
M221 S95
M900 K30; Filament gcode
G21 ; set units to millimeters
G90 ; use absolute coordinates
M83 ; use relative distances for extrusion
layer 45, M104 S235
layer 81, M104 S230;
layer 116, M104 S225
layer 151, M104 S220
layer 186, M104 S215
layer 221, M104 S210
layer 256, M104 S205
layer 291, M104 S200
layer 326, M104 S195
layer 361, M104 S190
layer 396, M104 S185
layer 431, M104 S180

;BEFORE_LAYER_CHANGE
G92 E0.0
;0.2


G1 E-0.80000 F2100.00000
G1 Z0.600 F10800.000
;AFTER_LAYER_CHANGE
;0.2
G1 X157.903 Y84.743
G1 Z0.200
G1 E0.80000 F2100.00000
M204 S1000
G1 F1200
G1 X158.624 Y84.619 E0.02293
G1 X204.633 Y84.619 E1.44260
G1 X205.450 Y84.779 E0.02608
G1 X206.147 Y85.231 E0.02608
G1 X206.626 Y85.912 E0.02608
G1 X206.816 Y86.721 E0.02608
G1 X206.809 Y101.005 E0.44784
G1 X206.665 Y101.611 E0.01953
G1 X206.357 Y102.152 E0.01953
G1 X205.908 Y102.584 E0.01953
G1 X205.356 Y102.872 E0.01953
G1 X204.635 Y102.996 E0.02293
G1 X158.571 Y102.995 E1.44431
G1 X157.926 Y102.880 E0.02055
G1 X157.341 Y102.577 E0.02066
G1 X156.875 Y102.116 E0.02055
G1 X156.565 Y101.534 E0.02066
G1 X156.441 Y100.824 E0.02259
G1 X156.448 Y86.632 E0.44498
G1 X156.587 Y86.022 E0.01964
G1 X156.896 Y85.472 E0.01976
G1 X157.345 Y85.036 E0.01964
G1 X157.850 Y84.771 E0.01787
; PURGING FINISHED
G1 F8640
G1 X158.624 Y84.619 E-0.18206
G1 X161.127 Y84.619 E-0.57794
G1 E-0.04000 F2100.00000
G1 Z0.800 F10800.000
G1 X159.217 Y87.395
G1 Z0.200
G1 E0.80000 F2100.00000
G1 F1200
G1 X204.042 Y87.395 E1.40548
G1 X204.042 Y100.221 E0.40215
G1 X159.217 Y100.221 E1.40548
G1 X159.217 Y87.455 E0.40026
G1 X158.839 Y87.018 F10800.000
G1 F1200
G1 X204.419 Y87.018 E1.42913
G1 X204.419 Y100.598 E0.42579
G1 X158.839 Y100.598 E1.42913
G1 X158.839 Y87.078 E0.42391
G1 X159.238 Y87.056 F10800.000
G1 F8640
G1 X162.131 Y87.073 E-0.76000
G1 E-0.04000 F2100.00000
G1 Z0.800 F10800.000
G1 X159.330 Y99.342
G1 Z0.200
G1 E0.80000 F2100.00000
G1 F1200
G1 X159.925 Y99.938 E0.02651
G1 X160.460 Y99.938 E0.01685
G1 X159.499 Y98.977 E0.04278
G1 X159.499 Y98.441 E0.01685
G1 X160.996 Y99.938 E0.06660
G1 X161.531 Y99.938 E0.01685
G1 X159.499 Y97.906 E0.09043
G1 X159.499 Y97.371 E0.01685
G1 X162.066 Y99.938 E0.11425
G1 X162.601 Y99.938 E0.01685
G1 X159.499 Y96.836 E0.13807
G1 X159.499 Y96.300 E0.01685
G1 X163.137 Y99.938 E0.16190
G1 X163.672 Y99.938 E0.01685
G1 X159.499 Y95.765 E0.18572
G1 X159.499 Y95.230 E0.01685
G1 X164.207 Y99.938 E0.20955
G1 X164.743 Y99.938 E0.01685
G1 X159.499 Y94.694 E0.23337
G1 X159.499 Y94.159 E0.01685
G1 X165.278 Y99.938 E0.25720
G1 X165.813 Y99.938 E0.01685
G1 X159.499 Y93.624 E0.28102
G1 X159.499 Y93.089 E0.01685
G1 X166.348 Y99.938 E0.30484
G1 X166.884 Y99.938 E0.01685
G1 X159.499 Y92.553 E0.32867
G1 X159.499 Y92.018 E0.01685
G1 X167.419 Y99.938 E0.35249
G1 X167.954 Y99.938 E0.01685
G1 X159.499 Y91.483 E0.37632
G1 X159.499 Y90.948 E0.01685
G1 X168.490 Y99.938 E0.40014
G1 X169.025 Y99.938 E0.01685
G1 X159.499 Y90.412 E0.42397
G1 X159.499 Y89.877 E0.01685
G1 X169.560 Y99.938 E0.44779
G1 X170.095 Y99.938 E0.01685
G1 X159.499 Y89.342 E0.47162
G1 X159.499 Y88.806 E0.01685
G1 X170.631 Y99.938 E0.49544
G1 X171.166 Y99.938 E0.01685
G1 X159.499 Y88.271 E0.51926
G1 X159.499 Y87.736 E0.01685
G1 X171.701 Y99.938 E0.54309
G1 X172.236 Y99.938 E0.01685
G1 X159.976 Y87.677 E0.54569
G1 X160.511 Y87.677 E0.01685
G1 X172.772 Y99.938 E0.54569
G1 X173.307 Y99.938 E0.01685
G1 X161.047 Y87.677 E0.54569
G1 X161.582 Y87.677 E0.01685
G1 X173.842 Y99.938 E0.54569
G1 X174.378 Y99.938 E0.01685
G1 X162.117 Y87.677 E0.54569
G1 X162.653 Y87.677 E0.01685
G1 X174.913 Y99.938 E0.54569
G1 X175.448 Y99.938 E0.01685
G1 X163.188 Y87.677 E0.54569
G1 X163.723 Y87.677 E0.01685
G1 X175.983 Y99.938 E0.54569
G1 X176.519 Y99.938 E0.01685
G1 X164.258 Y87.677 E0.54569
G1 X164.794 Y87.677 E0.01685
G1 X177.054 Y99.938 E0.54569
G1 X177.589 Y99.938 E0.01685
G1 X165.329 Y87.677 E0.54569
G1 X165.864 Y87.677 E0.01685
G1 X178.125 Y99.938 E0.54569
G1 X178.660 Y99.938 E0.01685
G1 X166.400 Y87.677 E0.54569
G1 X166.935 Y87.677 E0.01685
G1 X179.195 Y99.938 E0.54569
G1 X179.730 Y99.938 E0.01685
G1 X167.470 Y87.677 E0.54569
G1 X168.005 Y87.677 E0.01685
G1 X180.266 Y99.938 E0.54569
G1 X180.801 Y99.938 E0.01685
G1 X168.541 Y87.677 E0.54569
G1 X169.076 Y87.677 E0.01685
G1 X181.336 Y99.938 E0.54569
G1 X181.871 Y99.938 E0.01685
G1 X169.611 Y87.677 E0.54569
G1 X170.146 Y87.677 E0.01685
G1 X182.407 Y99.938 E0.54569
G1 X182.942 Y99.938 E0.01685
G1 X170.682 Y87.677 E0.54569
G1 X171.217 Y87.677 E0.01685
G1 X183.477 Y99.938 E0.54569
G1 X184.013 Y99.938 E0.01685
G1 X171.752 Y87.677 E0.54569
G1 X172.288 Y87.677 E0.01685
G1 X184.548 Y99.938 E0.54569
G1 X185.083 Y99.938 E0.01685
G1 X172.823 Y87.677 E0.54569
G1 X173.358 Y87.677 E0.01685
G1 X185.618 Y99.938 E0.54569
G1 X186.154 Y99.938 E0.01685
G1 X173.893 Y87.677 E0.54569
G1 X174.429 Y87.677 E0.01685
G1 X186.689 Y99.938 E0.54569
G1 X187.224 Y99.938 E0.01685
G1 X174.964 Y87.677 E0.54569
M73 Q0 S117
M73 P0 R117
G1 X175.499 Y87.677 E0.01685
G1 X187.760 Y99.938 E0.54569
G1 X188.295 Y99.938 E0.01685
G1 X176.035 Y87.677 E0.54569
G1 X176.570 Y87.677 E0.01685
G1 X188.830 Y99.938 E0.54569
G1 X189.365 Y99.938 E0.01685
G1 X177.105 Y87.677 E0.54569
G1 X177.640 Y87.677 E0.01685
G1 X189.901 Y99.938 E0.54569
G1 X190.436 Y99.938 E0.01685
G1 X178.176 Y87.677 E0.54569
G1 X178.711 Y87.677 E0.01685
G1 X190.971 Y99.938 E0.54569
G1 X191.506 Y99.938 E0.01685
G1 X179.246 Y87.677 E0.54569
G1 X179.781 Y87.677 E0.01685
G1 X192.042 Y99.938 E0.54569
G1 X192.577 Y99.938 E0.01685
G1 X180.317 Y87.677 E0.54569
G1 X180.852 Y87.677 E0.01685
G1 X193.112 Y99.938 E0.54569
G1 X193.648 Y99.938 E0.01685
G1 X181.387 Y87.677 E0.54569
G1 X181.923 Y87.677 E0.01685
G1 X194.183 Y99.938 E0.54569
G1 X194.718 Y99.938 E0.01685
G1 X182.458 Y87.677 E0.54569
G1 X182.993 Y87.677 E0.01685
G1 X195.253 Y99.938 E0.54569
G1 X195.789 Y99.938 E0.01685
G1 X183.528 Y87.677 E0.54569
G1 X184.064 Y87.677 E0.01685
G1 X196.324 Y99.938 E0.54569
G1 X196.859 Y99.938 E0.01685
G1 X184.599 Y87.677 E0.54569
G1 X185.134 Y87.677 E0.01685
G1 X197.395 Y99.938 E0.54569
G1 X197.930 Y99.938 E0.01685
G1 X185.670 Y87.677 E0.54569
G1 X186.205 Y87.677 E0.01685
G1 X198.465 Y99.938 E0.54569
G1 X199.000 Y99.938 E0.01685
G1 X186.740 Y87.677 E0.54569
G1 X187.275 Y87.677 E0.01685
G1 X199.536 Y99.938 E0.54569
G1 X200.071 Y99.938 E0.01685
G1 X187.811 Y87.677 E0.54569
G1 X188.346 Y87.677 E0.01685
G1 X200.606 Y99.938 E0.54569
G1 X201.141 Y99.938 E0.01685
G1 X188.881 Y87.677 E0.54569
G1 X189.416 Y87.677 E0.01685
G1 X201.677 Y99.938 E0.54569
G1 X202.212 Y99.938 E0.01685
G1 X189.952 Y87.677 E0.54569
G1 X190.487 Y87.677 E0.01685
G1 X202.747 Y99.938 E0.54569
G1 X203.283 Y99.938 E0.01685
G1 X191.022 Y87.677 E0.54569
G1 X191.558 Y87.677 E0.01685
G1 X203.760 Y99.880 E0.54309
G1 X203.760 Y99.344 E0.01685
G1 X192.093 Y87.677 E0.51927
G1 X192.628 Y87.677 E0.01685
G1 X203.760 Y98.809 E0.49544
G1 X203.760 Y98.274 E0.01685
G1 X193.163 Y87.677 E0.47162
G1 X193.699 Y87.677 E0.01685
G1 X203.760 Y97.738 E0.44779
G1 X203.760 Y97.203 E0.01685
G1 X194.234 Y87.677 E0.42397
G1 X194.769 Y87.677 E0.01685
G1 X203.760 Y96.668 E0.40015
G1 X203.760 Y96.133 E0.01685
G1 X195.304 Y87.677 E0.37632
G1 X195.840 Y87.677 E0.01685
G1 X203.760 Y95.597 E0.35250
G1 X203.760 Y95.062 E0.01685
G1 X196.375 Y87.677 E0.32867
G1 X196.910 Y87.677 E0.01685
G1 X203.760 Y94.527 E0.30485
G1 X203.760 Y93.991 E0.01685
G1 X197.446 Y87.677 E0.28102
G1 X197.981 Y87.677 E0.01685
G1 X203.760 Y93.456 E0.25720
G1 X203.760 Y92.921 E0.01685
G1 X198.516 Y87.677 E0.23338
G1 X199.051 Y87.677 E0.01685
G1 X203.760 Y92.386 E0.20955
G1 X203.760 Y91.850 E0.01685
G1 X199.587 Y87.677 E0.18573
G1 X200.122 Y87.677 E0.01685
G1 X203.760 Y91.315 E0.16190
G1 X203.760 Y90.780 E0.01685
G1 X200.657 Y87.677 E0.13808
G1 X201.193 Y87.677 E0.01685
G1 X203.760 Y90.245 E0.11425
G1 X203.760 Y89.709 E0.01685
G1 X201.728 Y87.677 E0.09043
G1 X202.263 Y87.677 E0.01685
G1 X203.760 Y89.174 E0.06661
G1 X203.760 Y88.639 E0.01685
G1 X202.798 Y87.677 E0.04278
G1 X203.334 Y87.677 E0.01685
G1 X203.929 Y88.273 E0.02651
layer 45, M104 S235
layer 81, M104 S230;
layer 116, M104 S225
layer 151, M104 S220
layer 186, M104 S215
layer 221, M104 S210
layer 256, M104 S205
layer 291, M104 S200
layer 326, M104 S195
layer 361, M104 S190
layer 396, M104 S185
layer 431, M104 S180

;BEFORE_LAYER_CHANGE
G92 E0.0
;0.4


G1 F8640
G1 X203.334 Y87.677 E-0.19449
G1 X202.798 Y87.677 E-0.12360
G1 X203.760 Y88.639 E-0.31387
G1 X203.760 Y89.174 E-0.12360
G1 X203.746 Y89.160 E-0.00445
G1 E-0.04000 F2100.00000
G1 Z0.800 F10800.000
;AFTER_LAYER_CHANGE
;0.4
G1 X206.626 Y85.912
G1 Z0.400
G1 E0.80000 F2100.00000
G1 F3000
G1 X206.816 Y86.721 E0.02608
G1 X206.809 Y101.005 E0.44784
G1 X206.665 Y101.611 E0.01953
G1 X206.357 Y102.152 E0.01953
G1 X205.908 Y102.584 E0.01953
G1 X205.356 Y102.872 E0.01953
G1 X204.635 Y102.996 E0.02293
G1 X158.571 Y102.995 E1.44431
G1 X157.926 Y102.880 E0.02055
G1 X157.341 Y102.577 E0.02066
G1 X156.875 Y102.116 E0.02055
G1 X156.565 Y101.534 E0.02066
G1 X156.441 Y100.824 E0.02259
G1 X156.448 Y86.632 E0.44498
G1 X156.587 Y86.022 E0.01964
G1 X156.896 Y85.472 E0.01976
G1 X157.345 Y85.036 E0.01964
G1 X157.903 Y84.743 E0.01976
G1 X158.624 Y84.619 E0.02293
G1 X204.633 Y84.619 E1.44260
G1 X205.450 Y84.779 E0.02608
G1 X206.147 Y85.231 E0.02608
G1 X206.592 Y85.862 E0.02420
; PURGING FINISHED
G1 F8640
G1 X206.816 Y86.721 E-0.20500
G1 X206.815 Y89.125 E-0.55500
G1 E-0.04000 F2100.00000
G1 Z1.000 F10800.000
G1 X203.997 Y87.440
G1 Z0.400
G1 E0.80000 F2100.00000
M204 S800
G1 F1500
G1 X203.997 Y100.176 E0.43109
G1 X159.262 Y100.176 E1.51426
G1 X159.262 Y87.440 E0.43109
G1 X203.937 Y87.440 E1.51222
M204 S1000
G1 X204.404 Y87.033 F10800.000
M204 S800
G1 F1500
G1 X204.404 Y100.583 E0.45865
G1 X158.854 Y100.583 E1.54181
G1 X158.854 Y87.033 E0.45865
G1 X204.344 Y87.033 E1.53978
M204 S1000
G1 X204.239 Y87.397 F10800.000
G1 F8640
G1 X204.359 Y90.324 E-0.76000
G1 E-0.04000 F2100.00000
G1 Z1.000 F10800.000
G1 X203.051 Y100.053
G1 Z0.400
G1 E0.80000 F2100.00000
M204 S1250
G1 F8096.51
G1 X203.692 Y99.413 E0.03071
G1 X203.692 Y98.836 E0.01953
G1 X202.658 Y99.870 E0.04956
G1 X202.082 Y99.870 E0.01953
G1 X203.692 Y98.260 E0.07719
G1 X203.692 Y97.683 E0.01953
G1 X201.505 Y99.870 E0.10481
G1 X200.929 Y99.870 E0.01953
G1 X203.692 Y97.107 E0.13244
G1 X203.692 Y96.531 E0.01953
G1 X200.352 Y99.870 E0.16007
G1 X199.776 Y99.870 E0.01953
G1 X203.692 Y95.954 E0.18769
G1 X203.692 Y95.378 E0.01953
G1 X199.200 Y99.870 E0.21532
G1 X198.623 Y99.870 E0.01953
G1 X203.692 Y94.801 E0.24294
G1 X203.692 Y94.225 E0.01953
G1 X198.047 Y99.870 E0.27057
G1 X197.470 Y99.870 E0.01953
G1 X203.692 Y93.649 E0.29820
G1 X203.692 Y93.072 E0.01953
G1 X196.894 Y99.870 E0.32582
G1 X196.318 Y99.870 E0.01953
G1 X203.692 Y92.496 E0.35345
G1 X203.692 Y91.919 E0.01953
G1 X195.741 Y99.870 E0.38108
G1 X195.165 Y99.870 E0.01953
G1 X203.692 Y91.343 E0.40870
G1 X203.692 Y90.767 E0.01953
G1 X194.588 Y99.870 E0.43633
G1 X194.012 Y99.870 E0.01953
G1 X203.692 Y90.190 E0.46396
G1 X203.692 Y89.614 E0.01953
G1 X193.435 Y99.870 E0.49158
G1 X192.859 Y99.870 E0.01953
G1 X203.692 Y89.037 E0.51921
G1 X203.692 Y88.461 E0.01953
G1 X192.283 Y99.870 E0.54684
G1 X191.706 Y99.870 E0.01953
G1 X203.692 Y87.884 E0.57446
G1 X203.692 Y87.745 E0.00473
G1 X203.255 Y87.745 E0.01481
G1 X191.130 Y99.870 E0.58115
G1 X190.553 Y99.870 E0.01953
G1 X202.679 Y87.745 E0.58115
G1 X202.102 Y87.745 E0.01953
G1 X189.977 Y99.870 E0.58115
G1 X189.401 Y99.870 E0.01953
G1 X201.526 Y87.745 E0.58115
G1 X200.949 Y87.745 E0.01953
G1 X188.824 Y99.870 E0.58115
G1 X188.248 Y99.870 E0.01953
G1 X200.373 Y87.745 E0.58115
G1 X199.797 Y87.745 E0.01953
G1 X187.671 Y99.870 E0.58115
G1 X187.095 Y99.870 E0.01953
G1 X199.220 Y87.745 E0.58115
G1 X198.644 Y87.745 E0.01953
G1 X186.519 Y99.870 E0.58115
G1 X185.942 Y99.870 E0.01953
G1 X198.067 Y87.745 E0.58115
G1 X197.491 Y87.745 E0.01953
G1 X185.366 Y99.870 E0.58115
G1 X184.789 Y99.870 E0.01953
G1 X196.915 Y87.745 E0.58115
G1 X196.338 Y87.745 E0.01953
G1 X184.213 Y99.870 E0.58115
G1 X183.637 Y99.870 E0.01953
G1 X195.762 Y87.745 E0.58115
G1 X195.185 Y87.745 E0.01953
G1 X183.060 Y99.870 E0.58115
G1 X182.484 Y99.870 E0.01953
G1 X194.609 Y87.745 E0.58115
G1 X194.033 Y87.745 E0.01953
G1 X181.907 Y99.870 E0.58115
G1 X181.331 Y99.870 E0.01953
G1 X193.456 Y87.745 E0.58115
M73 Q1 S116
M73 P1 R116
G1 X192.880 Y87.745 E0.01953
G1 X180.754 Y99.870 E0.58115
G1 X180.178 Y99.870 E0.01953
G1 X192.303 Y87.745 E0.58115
G1 X191.727 Y87.745 E0.01953
G1 X179.602 Y99.870 E0.58115
G1 X179.025 Y99.870 E0.01953
G1 X191.150 Y87.745 E0.58115
G1 X190.574 Y87.745 E0.01953
G1 X178.449 Y99.870 E0.58115
G1 X177.872 Y99.870 E0.01953
G1 X189.998 Y87.745 E0.58115
G1 X189.421 Y87.745 E0.01953
G1 X177.296 Y99.870 E0.58115
G1 X176.720 Y99.870 E0.01953
G1 X188.845 Y87.745 E0.58115
G1 X188.268 Y87.745 E0.01953
G1 X176.143 Y99.870 E0.58115
G1 X175.567 Y99.870 E0.01953
G1 X187.692 Y87.745 E0.58115
G1 X187.116 Y87.745 E0.01953
G1 X174.990 Y99.870 E0.58115
G1 X174.414 Y99.870 E0.01953
G1 X186.539 Y87.745 E0.58115
G1 X185.963 Y87.745 E0.01953
G1 X173.838 Y99.870 E0.58115
G1 X173.261 Y99.870 E0.01953
G1 X185.386 Y87.745 E0.58115
G1 X184.810 Y87.745 E0.01953
G1 X172.685 Y99.870 E0.58115
G1 X172.108 Y99.870 E0.01953
G1 X184.234 Y87.745 E0.58115
G1 X183.657 Y87.745 E0.01953
G1 X171.532 Y99.870 E0.58115
G1 X170.956 Y99.870 E0.01953
G1 X183.081 Y87.745 E0.58115
G1 X182.504 Y87.745 E0.01953
G1 X170.379 Y99.870 E0.58115
G1 X169.803 Y99.870 E0.01953
G1 X181.928 Y87.745 E0.58115
G1 X181.352 Y87.745 E0.01953
G1 X169.226 Y99.870 E0.58115
G1 X168.650 Y99.870 E0.01953
G1 X180.775 Y87.745 E0.58115
G1 X180.199 Y87.745 E0.01953
G1 X168.073 Y99.870 E0.58115
G1 X167.497 Y99.870 E0.01953
G1 X179.622 Y87.745 E0.58115
G1 X179.046 Y87.745 E0.01953
G1 X166.921 Y99.870 E0.58115
G1 X166.344 Y99.870 E0.01953
G1 X178.469 Y87.745 E0.58115
G1 X177.893 Y87.745 E0.01953
G1 X165.768 Y99.870 E0.58115
G1 X165.191 Y99.870 E0.01953
G1 X177.317 Y87.745 E0.58115
G1 X176.740 Y87.745 E0.01953
G1 X164.615 Y99.870 E0.58115
G1 X164.039 Y99.870 E0.01953
G1 X176.164 Y87.745 E0.58115
G1 X175.587 Y87.745 E0.01953
G1 X163.462 Y99.870 E0.58115
G1 X162.886 Y99.870 E0.01953
G1 X175.011 Y87.745 E0.58115
G1 X174.435 Y87.745 E0.01953
G1 X162.309 Y99.870 E0.58115
G1 X161.733 Y99.870 E0.01953
G1 X173.858 Y87.745 E0.58115
G1 X173.282 Y87.745 E0.01953
G1 X161.157 Y99.870 E0.58115
G1 X160.580 Y99.870 E0.01953
G1 X172.705 Y87.745 E0.58115
G1 X172.129 Y87.745 E0.01953
G1 X160.004 Y99.870 E0.58115
G1 X159.567 Y99.870 E0.01481
G1 X159.567 Y99.731 E0.00473
G1 X171.553 Y87.745 E0.57446
G1 X170.976 Y87.745 E0.01953
G1 X159.567 Y99.154 E0.54684
G1 X159.567 Y98.578 E0.01953
G1 X170.400 Y87.745 E0.51921
G1 X169.823 Y87.745 E0.01953
G1 X159.567 Y98.002 E0.49158
G1 X159.567 Y97.425 E0.01953
G1 X169.247 Y87.745 E0.46396
G1 X168.671 Y87.745 E0.01953
G1 X159.567 Y96.849 E0.43633
G1 X159.567 Y96.272 E0.01953
G1 X168.094 Y87.745 E0.40870
