; generated by Slic3r Prusa Edition 1.41.2+ on 2018-11-30 at 00:42:15

; Slow down perimeters to see if it will stop the hull bulging

; external perimeters extrusion width = 0.45mm
; perimeters extrusion width = 0.45mm
; infill extrusion width = 0.45mm
; solid infill extrusion width = 0.45mm
; top infill extrusion width = 0.40mm
; first layer extrusion width = 0.42mm

M73 P0 R118
M73 Q0 S119
M201 X1000 Y1000 Z1000 E5000 ; sets maximum accelerations, mm/sec^2
M203 X200 Y200 Z12 E120 ; sets maximum feedrates, mm/sec
M204 P1250 R1250 T1250 ; sets acceleration (P, T) and retract acceleration (R), mm/sec^2
M205 X8.00 Y8.00 Z0.40 E1.50 ; sets the jerk limits, mm/sec
M205 S0 T0 ; sets the minimum extruding and travel feed rate, mm/sec
M107
M115 U3.4.1 ; tell printer latest fw version
M83  ; extruder relative mode
M104 S250 ; set extruder temp
M140 S100 ; set bed temp
M190 S100 ; wait for bed temp
M109 S250 ; wait for extruder temp
G28 W ; home all without mesh bed level
G80 ; mesh bed leveling
G1 Y-3.0 F1000.0 ; go outside print area
G92 E0.0
G1 X60.0 E9.0  F1000.0 ; intro line
M73 Q0 S118
M73 P0 R118
G1 X100.0 E12.5  F1000.0 ; intro line
G92 E0.0
M221 S95
M900 K30; Filament gcode
G21 ; set units to millimeters
G90 ; use absolute coordinates
M83 ; use relative distances for extrusion
;BEFORE_LAYER_CHANGE
G92 E0.0
;0.2


G1 E-0.80000 F2100.00000
G1 Z0.600 F10800.000
;AFTER_LAYER_CHANGE
;0.2
G1 X157.668 Y95.693
G1 Z0.200
G1 E0.80000 F2100.00000
M204 S1000
G1 F1200
G1 X158.388 Y95.569 E0.02293
G1 X204.398 Y95.569 E1.44260
G1 X205.214 Y95.728 E0.02608
G1 X205.912 Y96.181 E0.02608
G1 X206.391 Y96.861 E0.02608
G1 X206.581 Y97.671 E0.02608
G1 X206.574 Y111.954 E0.44784
G1 X206.430 Y112.560 E0.01953
G1 X206.121 Y113.101 E0.01953
G1 X205.673 Y113.533 E0.01953
G1 X205.121 Y113.822 E0.01953
G1 X204.400 Y113.946 E0.02293
G1 X158.336 Y113.945 E1.44431
G1 X157.691 Y113.829 E0.02055
G1 X157.106 Y113.526 E0.02066
G1 X156.640 Y113.065 E0.02055
G1 X156.330 Y112.484 E0.02066
G1 X156.206 Y111.774 E0.02259
G1 X156.213 Y97.582 E0.44498
G1 X156.352 Y96.971 E0.01964
G1 X156.660 Y96.422 E0.01976
G1 X157.110 Y95.985 E0.01964
G1 X157.615 Y95.721 E0.01787
; PURGING FINISHED
G1 F8640
G1 X158.388 Y95.569 E-0.18206
G1 X160.891 Y95.569 E-0.57794
G1 E-0.04000 F2100.00000
G1 Z0.800 F10800.000
G1 X158.981 Y98.344
G1 Z0.200
G1 E0.80000 F2100.00000
G1 F1200
G1 X203.807 Y98.344 E1.40548
G1 X203.807 Y111.170 E0.40215
G1 X158.981 Y111.170 E1.40548
G1 X158.981 Y98.404 E0.40026
G1 X158.604 Y97.967 F10800.000
G1 F1200
G1 X204.184 Y97.967 E1.42913
G1 X204.184 Y111.547 E0.42579
G1 X158.604 Y111.547 E1.42913
G1 X158.604 Y98.027 E0.42391
G1 X159.002 Y98.006 F10800.000
G1 F8640
G1 X161.896 Y98.023 E-0.76000
G1 E-0.04000 F2100.00000
G1 Z0.800 F10800.000
G1 X159.094 Y110.292
G1 Z0.200
G1 E0.80000 F2100.00000
G1 F1200
G1 X159.690 Y110.887 E0.02651
G1 X160.225 Y110.887 E0.01685
G1 X159.264 Y109.926 E0.04278
G1 X159.264 Y109.391 E0.01685
G1 X160.760 Y110.887 E0.06660
G1 X161.296 Y110.887 E0.01685
G1 X159.264 Y108.856 E0.09043
G1 X159.264 Y108.320 E0.01685
G1 X161.831 Y110.887 E0.11425
G1 X162.366 Y110.887 E0.01685
G1 X159.264 Y107.785 E0.13807
G1 X159.264 Y107.250 E0.01685
G1 X162.902 Y110.887 E0.16190
G1 X163.437 Y110.887 E0.01685
G1 X159.264 Y106.714 E0.18572
G1 X159.264 Y106.179 E0.01685
G1 X163.972 Y110.887 E0.20955
G1 X164.507 Y110.887 E0.01685
G1 X159.264 Y105.644 E0.23337
G1 X159.264 Y105.109 E0.01685
G1 X165.043 Y110.887 E0.25720
G1 X165.578 Y110.887 E0.01685
G1 X159.264 Y104.573 E0.28102
G1 X159.264 Y104.038 E0.01685
G1 X166.113 Y110.887 E0.30484
G1 X166.649 Y110.887 E0.01685
G1 X159.264 Y103.503 E0.32867
G1 X159.264 Y102.968 E0.01685
G1 X167.184 Y110.887 E0.35249
G1 X167.719 Y110.887 E0.01685
G1 X159.264 Y102.432 E0.37632
G1 X159.264 Y101.897 E0.01685
G1 X168.254 Y110.887 E0.40014
G1 X168.790 Y110.887 E0.01685
G1 X159.264 Y101.362 E0.42397
G1 X159.264 Y100.826 E0.01685
G1 X169.325 Y110.887 E0.44779
G1 X169.860 Y110.887 E0.01685
G1 X159.264 Y100.291 E0.47162
G1 X159.264 Y99.756 E0.01685
G1 X170.395 Y110.887 E0.49544
G1 X170.931 Y110.887 E0.01685
G1 X159.264 Y99.221 E0.51926
G1 X159.264 Y98.685 E0.01685
G1 X171.466 Y110.887 E0.54309
G1 X172.001 Y110.887 E0.01685
G1 X159.741 Y98.627 E0.54569
G1 X160.276 Y98.627 E0.01685
G1 X172.537 Y110.887 E0.54569
G1 X173.072 Y110.887 E0.01685
G1 X160.812 Y98.627 E0.54569
G1 X161.347 Y98.627 E0.01685
G1 X173.607 Y110.887 E0.54569
G1 X174.142 Y110.887 E0.01685
G1 X161.882 Y98.627 E0.54569
G1 X162.417 Y98.627 E0.01685
G1 X174.678 Y110.887 E0.54569
G1 X175.213 Y110.887 E0.01685
G1 X162.953 Y98.627 E0.54569
G1 X163.488 Y98.627 E0.01685
G1 X175.748 Y110.887 E0.54569
G1 X176.283 Y110.887 E0.01685
G1 X164.023 Y98.627 E0.54569
G1 X164.558 Y98.627 E0.01685
G1 X176.819 Y110.887 E0.54569
G1 X177.354 Y110.887 E0.01685
G1 X165.094 Y98.627 E0.54569
G1 X165.629 Y98.627 E0.01685
G1 X177.889 Y110.887 E0.54569
G1 X178.425 Y110.887 E0.01685
G1 X166.164 Y98.627 E0.54569
G1 X166.700 Y98.627 E0.01685
G1 X178.960 Y110.887 E0.54569
G1 X179.495 Y110.887 E0.01685
G1 X167.235 Y98.627 E0.54569
G1 X167.770 Y98.627 E0.01685
G1 X180.030 Y110.887 E0.54569
G1 X180.566 Y110.887 E0.01685
G1 X168.305 Y98.627 E0.54569
G1 X168.841 Y98.627 E0.01685
G1 X181.101 Y110.887 E0.54569
G1 X181.636 Y110.887 E0.01685
G1 X169.376 Y98.627 E0.54569
G1 X169.911 Y98.627 E0.01685
G1 X182.172 Y110.887 E0.54569
G1 X182.707 Y110.887 E0.01685
G1 X170.447 Y98.627 E0.54569
G1 X170.982 Y98.627 E0.01685
G1 X183.242 Y110.887 E0.54569
G1 X183.777 Y110.887 E0.01685
G1 X171.517 Y98.627 E0.54569
G1 X172.052 Y98.627 E0.01685
G1 X184.313 Y110.887 E0.54569
G1 X184.848 Y110.887 E0.01685
G1 X172.588 Y98.627 E0.54569
G1 X173.123 Y98.627 E0.01685
G1 X185.383 Y110.887 E0.54569
G1 X185.918 Y110.887 E0.01685
G1 X173.658 Y98.627 E0.54569
G1 X174.193 Y98.627 E0.01685
G1 X186.454 Y110.887 E0.54569
G1 X186.989 Y110.887 E0.01685
G1 X174.729 Y98.627 E0.54569
M73 Q0 S117
M73 P0 R117
G1 X175.264 Y98.627 E0.01685
G1 X187.524 Y110.887 E0.54569
G1 X188.060 Y110.887 E0.01685
G1 X175.799 Y98.627 E0.54569
G1 X176.335 Y98.627 E0.01685
G1 X188.595 Y110.887 E0.54569
G1 X189.130 Y110.887 E0.01685
G1 X176.870 Y98.627 E0.54569
G1 X177.405 Y98.627 E0.01685
G1 X189.665 Y110.887 E0.54569
G1 X190.201 Y110.887 E0.01685
G1 X177.940 Y98.627 E0.54569
G1 X178.476 Y98.627 E0.01685
G1 X190.736 Y110.887 E0.54569
G1 X191.271 Y110.887 E0.01685
G1 X179.011 Y98.627 E0.54569
G1 X179.546 Y98.627 E0.01685
G1 X191.807 Y110.887 E0.54569
G1 X192.342 Y110.887 E0.01685
G1 X180.082 Y98.627 E0.54569
G1 X180.617 Y98.627 E0.01685
G1 X192.877 Y110.887 E0.54569
G1 X193.412 Y110.887 E0.01685
G1 X181.152 Y98.627 E0.54569
G1 X181.687 Y98.627 E0.01685
G1 X193.948 Y110.887 E0.54569
G1 X194.483 Y110.887 E0.01685
G1 X182.223 Y98.627 E0.54569
G1 X182.758 Y98.627 E0.01685
G1 X195.018 Y110.887 E0.54569
G1 X195.553 Y110.887 E0.01685
G1 X183.293 Y98.627 E0.54569
G1 X183.828 Y98.627 E0.01685
G1 X196.089 Y110.887 E0.54569
G1 X196.624 Y110.887 E0.01685
G1 X184.364 Y98.627 E0.54569
G1 X184.899 Y98.627 E0.01685
G1 X197.159 Y110.887 E0.54569
G1 X197.695 Y110.887 E0.01685
G1 X185.434 Y98.627 E0.54569
G1 X185.970 Y98.627 E0.01685
G1 X198.230 Y110.887 E0.54569
G1 X198.765 Y110.887 E0.01685
G1 X186.505 Y98.627 E0.54569
G1 X187.040 Y98.627 E0.01685
G1 X199.300 Y110.887 E0.54569
G1 X199.836 Y110.887 E0.01685
G1 X187.575 Y98.627 E0.54569
G1 X188.111 Y98.627 E0.01685
G1 X200.371 Y110.887 E0.54569
G1 X200.906 Y110.887 E0.01685
G1 X188.646 Y98.627 E0.54569
G1 X189.181 Y98.627 E0.01685
G1 X201.442 Y110.887 E0.54569
G1 X201.977 Y110.887 E0.01685
G1 X189.717 Y98.627 E0.54569
G1 X190.252 Y98.627 E0.01685
G1 X202.512 Y110.887 E0.54569
G1 X203.047 Y110.887 E0.01685
G1 X190.787 Y98.627 E0.54569
G1 X191.322 Y98.627 E0.01685
G1 X203.524 Y110.829 E0.54309
G1 X203.524 Y110.294 E0.01685
G1 X191.858 Y98.627 E0.51927
G1 X192.393 Y98.627 E0.01685
G1 X203.524 Y109.758 E0.49544
G1 X203.524 Y109.223 E0.01685
G1 X192.928 Y98.627 E0.47162
G1 X193.463 Y98.627 E0.01685
G1 X203.524 Y108.688 E0.44779
G1 X203.524 Y108.153 E0.01685
G1 X193.999 Y98.627 E0.42397
G1 X194.534 Y98.627 E0.01685
G1 X203.524 Y107.617 E0.40015
G1 X203.524 Y107.082 E0.01685
G1 X195.069 Y98.627 E0.37632
G1 X195.605 Y98.627 E0.01685
G1 X203.524 Y106.547 E0.35250
G1 X203.524 Y106.011 E0.01685
G1 X196.140 Y98.627 E0.32867
G1 X196.675 Y98.627 E0.01685
G1 X203.524 Y105.476 E0.30485
G1 X203.524 Y104.941 E0.01685
G1 X197.210 Y98.627 E0.28102
G1 X197.746 Y98.627 E0.01685
G1 X203.524 Y104.406 E0.25720
G1 X203.524 Y103.870 E0.01685
G1 X198.281 Y98.627 E0.23338
G1 X198.816 Y98.627 E0.01685
G1 X203.524 Y103.335 E0.20955
G1 X203.524 Y102.800 E0.01685
G1 X199.351 Y98.627 E0.18573
G1 X199.887 Y98.627 E0.01685
G1 X203.524 Y102.265 E0.16190
G1 X203.524 Y101.729 E0.01685
G1 X200.422 Y98.627 E0.13808
G1 X200.957 Y98.627 E0.01685
G1 X203.524 Y101.194 E0.11425
G1 X203.524 Y100.659 E0.01685
G1 X201.493 Y98.627 E0.09043
G1 X202.028 Y98.627 E0.01685
G1 X203.524 Y100.123 E0.06661
G1 X203.524 Y99.588 E0.01685
G1 X202.563 Y98.627 E0.04278
G1 X203.098 Y98.627 E0.01685
G1 X203.694 Y99.223 E0.02651
;BEFORE_LAYER_CHANGE
G92 E0.0
;0.4


G1 F8640
G1 X203.098 Y98.627 E-0.19449
G1 X202.563 Y98.627 E-0.12360
G1 X203.524 Y99.588 E-0.31387
G1 X203.524 Y100.123 E-0.12360
G1 X203.511 Y100.110 E-0.00445
G1 E-0.04000 F2100.00000
G1 Z0.800 F10800.000
;AFTER_LAYER_CHANGE
;0.4
G1 X206.391 Y96.861
G1 Z0.400
G1 E0.80000 F2100.00000
G1 F3000
G1 X206.581 Y97.671 E0.02608
G1 X206.574 Y111.954 E0.44784
G1 X206.430 Y112.560 E0.01953
G1 X206.121 Y113.101 E0.01953
G1 X205.673 Y113.533 E0.01953
G1 X205.121 Y113.822 E0.01953
G1 X204.400 Y113.946 E0.02293
G1 X158.336 Y113.945 E1.44431
G1 X157.691 Y113.829 E0.02055
G1 X157.106 Y113.526 E0.02066
G1 X156.640 Y113.065 E0.02055
G1 X156.330 Y112.484 E0.02066
G1 X156.206 Y111.774 E0.02259
G1 X156.213 Y97.582 E0.44498
G1 X156.352 Y96.971 E0.01964
G1 X156.660 Y96.422 E0.01976
G1 X157.110 Y95.985 E0.01964
G1 X157.668 Y95.693 E0.01976
G1 X158.388 Y95.569 E0.02293
G1 X204.398 Y95.569 E1.44260
G1 X205.214 Y95.728 E0.02608
G1 X205.912 Y96.181 E0.02608
G1 X206.356 Y96.812 E0.02420
; PURGING FINISHED
G1 F8640
G1 X206.581 Y97.671 E-0.20500
G1 X206.580 Y100.074 E-0.55500
G1 E-0.04000 F2100.00000
G1 Z1.000 F10800.000
G1 X203.762 Y98.389
G1 Z0.400
G1 E0.80000 F2100.00000
M204 S800
G1 F1500
G1 X203.762 Y111.125 E0.43109
G1 X159.026 Y111.125 E1.51426
G1 X159.026 Y98.389 E0.43109
G1 X203.702 Y98.389 E1.51222
M204 S1000
G1 X204.169 Y97.982 F10800.000
M204 S800
G1 F1500
G1 X204.169 Y111.532 E0.45865
G1 X158.619 Y111.532 E1.54181
G1 X158.619 Y97.982 E0.45865
G1 X204.109 Y97.982 E1.53978
M204 S1000
G1 X204.003 Y98.346 F10800.000
G1 F8640
G1 X204.124 Y101.274 E-0.76000
G1 E-0.04000 F2100.00000
G1 Z1.000 F10800.000
G1 X202.816 Y111.003
G1 Z0.400
G1 E0.80000 F2100.00000
M204 S1250
G1 F8096.51
G1 X203.457 Y110.362 E0.03071
G1 X203.457 Y109.786 E0.01953
G1 X202.423 Y110.820 E0.04956
G1 X201.846 Y110.820 E0.01953
G1 X203.457 Y109.209 E0.07719
G1 X203.457 Y108.633 E0.01953
G1 X201.270 Y110.820 E0.10481
G1 X200.694 Y110.820 E0.01953
G1 X203.457 Y108.057 E0.13244
G1 X203.457 Y107.480 E0.01953
G1 X200.117 Y110.820 E0.16007
G1 X199.541 Y110.820 E0.01953
G1 X203.457 Y106.904 E0.18769
G1 X203.457 Y106.327 E0.01953
G1 X198.964 Y110.820 E0.21532
G1 X198.388 Y110.820 E0.01953
G1 X203.457 Y105.751 E0.24294
G1 X203.457 Y105.174 E0.01953
G1 X197.812 Y110.820 E0.27057
G1 X197.235 Y110.820 E0.01953
G1 X203.457 Y104.598 E0.29820
G1 X203.457 Y104.022 E0.01953
G1 X196.659 Y110.820 E0.32582
G1 X196.082 Y110.820 E0.01953
G1 X203.457 Y103.445 E0.35345
G1 X203.457 Y102.869 E0.01953
G1 X195.506 Y110.820 E0.38108
G1 X194.929 Y110.820 E0.01953
G1 X203.457 Y102.292 E0.40870
G1 X203.457 Y101.716 E0.01953
G1 X194.353 Y110.820 E0.43633
G1 X193.777 Y110.820 E0.01953
G1 X203.457 Y101.140 E0.46396
G1 X203.457 Y100.563 E0.01953
G1 X193.200 Y110.820 E0.49158
G1 X192.624 Y110.820 E0.01953
G1 X203.457 Y99.987 E0.51921
G1 X203.457 Y99.410 E0.01953
G1 X192.047 Y110.820 E0.54684
G1 X191.471 Y110.820 E0.01953
G1 X203.457 Y98.834 E0.57446
G1 X203.457 Y98.694 E0.00473
G1 X203.020 Y98.694 E0.01481
G1 X190.895 Y110.820 E0.58115
G1 X190.318 Y110.820 E0.01953
G1 X202.443 Y98.694 E0.58115
G1 X201.867 Y98.694 E0.01953
G1 X189.742 Y110.820 E0.58115
G1 X189.165 Y110.820 E0.01953
G1 X201.291 Y98.694 E0.58115
G1 X200.714 Y98.694 E0.01953
G1 X188.589 Y110.820 E0.58115
G1 X188.013 Y110.820 E0.01953
G1 X200.138 Y98.694 E0.58115
G1 X199.561 Y98.694 E0.01953
G1 X187.436 Y110.820 E0.58115
G1 X186.860 Y110.820 E0.01953
G1 X198.985 Y98.694 E0.58115
G1 X198.409 Y98.694 E0.01953
G1 X186.283 Y110.820 E0.58115
G1 X185.707 Y110.820 E0.01953
G1 X197.832 Y98.694 E0.58115
G1 X197.256 Y98.694 E0.01953
G1 X185.131 Y110.820 E0.58115
G1 X184.554 Y110.820 E0.01953
G1 X196.679 Y98.694 E0.58115
G1 X196.103 Y98.694 E0.01953
G1 X183.978 Y110.820 E0.58115
G1 X183.401 Y110.820 E0.01953
G1 X195.527 Y98.694 E0.58115
G1 X194.950 Y98.694 E0.01953
G1 X182.825 Y110.820 E0.58115
G1 X182.248 Y110.820 E0.01953
G1 X194.374 Y98.694 E0.58115
G1 X193.797 Y98.694 E0.01953
G1 X181.672 Y110.820 E0.58115
G1 X181.096 Y110.820 E0.01953
G1 X193.221 Y98.694 E0.58115
M73 Q1 S116
M73 P1 R116
G1 X192.645 Y98.694 E0.01953
G1 X180.519 Y110.820 E0.58115
G1 X179.943 Y110.820 E0.01953
G1 X192.068 Y98.694 E0.58115
G1 X191.492 Y98.694 E0.01953
G1 X179.366 Y110.820 E0.58115
G1 X178.790 Y110.820 E0.01953
G1 X190.915 Y98.694 E0.58115
G1 X190.339 Y98.694 E0.01953
G1 X178.214 Y110.820 E0.58115
G1 X177.637 Y110.820 E0.01953
G1 X189.762 Y98.694 E0.58115
G1 X189.186 Y98.694 E0.01953
G1 X177.061 Y110.820 E0.58115
G1 X176.484 Y110.820 E0.01953
G1 X188.610 Y98.694 E0.58115
G1 X188.033 Y98.694 E0.01953
G1 X175.908 Y110.820 E0.58115
G1 X175.332 Y110.820 E0.01953
G1 X187.457 Y98.694 E0.58115
G1 X186.880 Y98.694 E0.01953
G1 X174.755 Y110.820 E0.58115
G1 X174.179 Y110.820 E0.01953
G1 X186.304 Y98.694 E0.58115
G1 X185.728 Y98.694 E0.01953
G1 X173.602 Y110.820 E0.58115
G1 X173.026 Y110.820 E0.01953
G1 X185.151 Y98.694 E0.58115
G1 X184.575 Y98.694 E0.01953
G1 X172.450 Y110.820 E0.58115
G1 X171.873 Y110.820 E0.01953
G1 X183.998 Y98.694 E0.58115
G1 X183.422 Y98.694 E0.01953
G1 X171.297 Y110.820 E0.58115
G1 X170.720 Y110.820 E0.01953
G1 X182.846 Y98.694 E0.58115
G1 X182.269 Y98.694 E0.01953
G1 X170.144 Y110.820 E0.58115
G1 X169.567 Y110.820 E0.01953
G1 X181.693 Y98.694 E0.58115
G1 X181.116 Y98.694 E0.01953
G1 X168.991 Y110.820 E0.58115
G1 X168.415 Y110.820 E0.01953
G1 X180.540 Y98.694 E0.58115
G1 X179.964 Y98.694 E0.01953
G1 X167.838 Y110.820 E0.58115
G1 X167.262 Y110.820 E0.01953
G1 X179.387 Y98.694 E0.58115
G1 X178.811 Y98.694 E0.01953
G1 X166.685 Y110.820 E0.58115
G1 X166.109 Y110.820 E0.01953
G1 X178.234 Y98.694 E0.58115
G1 X177.658 Y98.694 E0.01953
G1 X165.533 Y110.820 E0.58115
G1 X164.956 Y110.820 E0.01953
G1 X177.081 Y98.694 E0.58115
G1 X176.505 Y98.694 E0.01953
G1 X164.380 Y110.820 E0.58115
G1 X163.803 Y110.820 E0.01953
G1 X175.929 Y98.694 E0.58115
G1 X175.352 Y98.694 E0.01953
G1 X163.227 Y110.820 E0.58115
G1 X162.651 Y110.820 E0.01953
G1 X174.776 Y98.694 E0.58115
G1 X174.199 Y98.694 E0.01953
G1 X162.074 Y110.820 E0.58115
G1 X161.498 Y110.820 E0.01953
G1 X173.623 Y98.694 E0.58115
G1 X173.047 Y98.694 E0.01953
G1 X160.921 Y110.820 E0.58115
G1 X160.345 Y110.820 E0.01953
G1 X172.470 Y98.694 E0.58115
G1 X171.894 Y98.694 E0.01953
G1 X159.769 Y110.820 E0.58115
G1 X159.332 Y110.820 E0.01481
G1 X159.332 Y110.680 E0.00473
G1 X171.317 Y98.694 E0.57446
G1 X170.741 Y98.694 E0.01953
G1 X159.332 Y110.104 E0.54684
G1 X159.332 Y109.527 E0.01953
G1 X170.165 Y98.694 E0.51921
G1 X169.588 Y98.694 E0.01953
G1 X159.332 Y108.951 E0.49158
G1 X159.332 Y108.375 E0.01953
G1 X169.012 Y98.694 E0.46396
G1 X168.435 Y98.694 E0.01953
G1 X159.332 Y107.798 E0.43633
G1 X159.332 Y107.222 E0.01953
G1 X167.859 Y98.694 E0.40870
G1 X167.282 Y98.694 E0.01953
G1 X159.332 Y106.645 E0.38108
G1 X159.332 Y106.069 E0.01953
G1 X166.706 Y98.694 E0.35345
G1 X166.130 Y98.694 E0.01953
G1 X159.332 Y105.493 E0.32582
G1 X159.332 Y104.916 E0.01953
G1 X165.553 Y98.694 E0.29820
G1 X164.977 Y98.694 E0.01953
