; generated by Slic3r Prusa Edition 1.41.2+ on 2018-11-30 at 00:43:23

; Slow down perimeters to see if it will stop the hull bulging

; external perimeters extrusion width = 0.45mm
; perimeters extrusion width = 0.45mm
; infill extrusion width = 0.45mm
; solid infill extrusion width = 0.45mm
; top infill extrusion width = 0.40mm
; first layer extrusion width = 0.42mm

M73 P0 R118
M73 Q0 S119
M201 X1000 Y1000 Z1000 E5000 ; sets maximum accelerations, mm/sec^2
M203 X200 Y200 Z12 E120 ; sets maximum feedrates, mm/sec
M204 P1250 R1250 T1250 ; sets acceleration (P, T) and retract acceleration (R), mm/sec^2
M205 X8.00 Y8.00 Z0.40 E1.50 ; sets the jerk limits, mm/sec
M205 S0 T0 ; sets the minimum extruding and travel feed rate, mm/sec
M107
M115 U3.4.1 ; tell printer latest fw version
M83  ; extruder relative mode
M104 S250 ; set extruder temp
M140 S100 ; set bed temp
M190 S100 ; wait for bed temp
M109 S250 ; wait for extruder temp
G28 W ; home all without mesh bed level
G80 ; mesh bed leveling
G1 Y-3.0 F1000.0 ; go outside print area
G92 E0.0
G1 X60.0 E9.0  F1000.0 ; intro line
M73 Q0 S118
M73 P0 R118
G1 X100.0 E12.5  F1000.0 ; intro line
G92 E0.0
M221 S95
M900 K30; Filament gcode
G21 ; set units to millimeters
G90 ; use absolute coordinates
M83 ; use relative distances for extrusion
;BEFORE_LAYER_CHANGE
G92 E0.0
;0.2


G1 E-0.80000 F2100.00000
G1 Z0.600 F10800.000
;AFTER_LAYER_CHANGE
;0.2
G1 X157.536 Y101.093
G1 Z0.200
G1 E0.80000 F2100.00000
M204 S1000
G1 F1200
G1 X158.256 Y100.969 E0.02293
G1 X204.266 Y100.969 E1.44260
G1 X205.082 Y101.129 E0.02608
G1 X205.780 Y101.581 E0.02608
G1 X206.259 Y102.262 E0.02608
G1 X206.449 Y103.072 E0.02608
G1 X206.442 Y117.355 E0.44784
G1 X206.298 Y117.961 E0.01953
G1 X205.989 Y118.502 E0.01953
G1 X205.541 Y118.934 E0.01953
G1 X204.989 Y119.222 E0.01953
G1 X204.268 Y119.346 E0.02293
G1 X158.204 Y119.346 E1.44431
G1 X157.559 Y119.230 E0.02055
G1 X156.974 Y118.927 E0.02066
G1 X156.508 Y118.466 E0.02055
G1 X156.198 Y117.884 E0.02066
G1 X156.074 Y117.175 E0.02259
G1 X156.081 Y102.983 E0.44498
G1 X156.220 Y102.372 E0.01964
G1 X156.528 Y101.822 E0.01976
G1 X156.978 Y101.386 E0.01964
G1 X157.483 Y101.121 E0.01787
; PURGING FINISHED
G1 F8640
G1 X158.256 Y100.969 E-0.18206
G1 X160.759 Y100.969 E-0.57794
G1 E-0.04000 F2100.00000
G1 Z0.800 F10800.000
G1 X158.849 Y103.745
G1 Z0.200
G1 E0.80000 F2100.00000
G1 F1200
G1 X203.675 Y103.745 E1.40548
G1 X203.675 Y116.571 E0.40215
G1 X158.849 Y116.571 E1.40548
G1 X158.849 Y103.805 E0.40026
G1 X158.472 Y103.368 F10800.000
G1 F1200
G1 X204.052 Y103.368 E1.42913
G1 X204.052 Y116.948 E0.42579
G1 X158.472 Y116.948 E1.42913
G1 X158.472 Y103.428 E0.42391
G1 X158.870 Y103.406 F10800.000
G1 F8640
G1 X161.764 Y103.423 E-0.76000
G1 E-0.04000 F2100.00000
G1 Z0.800 F10800.000
G1 X158.962 Y115.692
G1 Z0.200
G1 E0.80000 F2100.00000
G1 F1200
G1 X159.558 Y116.288 E0.02651
G1 X160.093 Y116.288 E0.01685
G1 X159.132 Y115.327 E0.04278
G1 X159.132 Y114.792 E0.01685
G1 X160.628 Y116.288 E0.06660
G1 X161.164 Y116.288 E0.01685
G1 X159.132 Y114.256 E0.09043
G1 X159.132 Y113.721 E0.01685
G1 X161.699 Y116.288 E0.11425
G1 X162.234 Y116.288 E0.01685
G1 X159.132 Y113.186 E0.13807
G1 X159.132 Y112.650 E0.01685
G1 X162.770 Y116.288 E0.16190
G1 X163.305 Y116.288 E0.01685
G1 X159.132 Y112.115 E0.18572
G1 X159.132 Y111.580 E0.01685
G1 X163.840 Y116.288 E0.20955
G1 X164.375 Y116.288 E0.01685
G1 X159.132 Y111.045 E0.23337
G1 X159.132 Y110.509 E0.01685
G1 X164.911 Y116.288 E0.25720
G1 X165.446 Y116.288 E0.01685
G1 X159.132 Y109.974 E0.28102
G1 X159.132 Y109.439 E0.01685
G1 X165.981 Y116.288 E0.30484
G1 X166.517 Y116.288 E0.01685
G1 X159.132 Y108.903 E0.32867
G1 X159.132 Y108.368 E0.01685
G1 X167.052 Y116.288 E0.35249
G1 X167.587 Y116.288 E0.01685
G1 X159.132 Y107.833 E0.37632
G1 X159.132 Y107.298 E0.01685
G1 X168.122 Y116.288 E0.40014
G1 X168.658 Y116.288 E0.01685
G1 X159.132 Y106.762 E0.42397
G1 X159.132 Y106.227 E0.01685
G1 X169.193 Y116.288 E0.44779
G1 X169.728 Y116.288 E0.01685
G1 X159.132 Y105.692 E0.47162
G1 X159.132 Y105.157 E0.01685
G1 X170.263 Y116.288 E0.49544
G1 X170.799 Y116.288 E0.01685
G1 X159.132 Y104.621 E0.51926
G1 X159.132 Y104.086 E0.01685
G1 X171.334 Y116.288 E0.54309
G1 X171.869 Y116.288 E0.01685
G1 X159.609 Y104.028 E0.54569
G1 X160.144 Y104.028 E0.01685
G1 X172.405 Y116.288 E0.54569
G1 X172.940 Y116.288 E0.01685
G1 X160.680 Y104.028 E0.54569
G1 X161.215 Y104.028 E0.01685
G1 X173.475 Y116.288 E0.54569
G1 X174.010 Y116.288 E0.01685
G1 X161.750 Y104.028 E0.54569
G1 X162.285 Y104.028 E0.01685
G1 X174.546 Y116.288 E0.54569
G1 X175.081 Y116.288 E0.01685
G1 X162.821 Y104.028 E0.54569
G1 X163.356 Y104.028 E0.01685
G1 X175.616 Y116.288 E0.54569
G1 X176.151 Y116.288 E0.01685
G1 X163.891 Y104.028 E0.54569
G1 X164.427 Y104.028 E0.01685
G1 X176.687 Y116.288 E0.54569
G1 X177.222 Y116.288 E0.01685
G1 X164.962 Y104.028 E0.54569
G1 X165.497 Y104.028 E0.01685
G1 X177.757 Y116.288 E0.54569
G1 X178.293 Y116.288 E0.01685
G1 X166.032 Y104.028 E0.54569
G1 X166.568 Y104.028 E0.01685
G1 X178.828 Y116.288 E0.54569
G1 X179.363 Y116.288 E0.01685
G1 X167.103 Y104.028 E0.54569
G1 X167.638 Y104.028 E0.01685
G1 X179.898 Y116.288 E0.54569
G1 X180.434 Y116.288 E0.01685
G1 X168.173 Y104.028 E0.54569
G1 X168.709 Y104.028 E0.01685
G1 X180.969 Y116.288 E0.54569
G1 X181.504 Y116.288 E0.01685
G1 X169.244 Y104.028 E0.54569
G1 X169.779 Y104.028 E0.01685
G1 X182.040 Y116.288 E0.54569
G1 X182.575 Y116.288 E0.01685
G1 X170.315 Y104.028 E0.54569
G1 X170.850 Y104.028 E0.01685
G1 X183.110 Y116.288 E0.54569
G1 X183.645 Y116.288 E0.01685
G1 X171.385 Y104.028 E0.54569
G1 X171.920 Y104.028 E0.01685
G1 X184.181 Y116.288 E0.54569
G1 X184.716 Y116.288 E0.01685
G1 X172.456 Y104.028 E0.54569
G1 X172.991 Y104.028 E0.01685
G1 X185.251 Y116.288 E0.54569
G1 X185.786 Y116.288 E0.01685
G1 X173.526 Y104.028 E0.54569
G1 X174.061 Y104.028 E0.01685
G1 X186.322 Y116.288 E0.54569
G1 X186.857 Y116.288 E0.01685
G1 X174.597 Y104.028 E0.54569
M73 Q0 S117
M73 P0 R117
G1 X175.132 Y104.028 E0.01685
G1 X187.392 Y116.288 E0.54569
G1 X187.928 Y116.288 E0.01685
G1 X175.667 Y104.028 E0.54569
G1 X176.203 Y104.028 E0.01685
G1 X188.463 Y116.288 E0.54569
G1 X188.998 Y116.288 E0.01685
G1 X176.738 Y104.028 E0.54569
G1 X177.273 Y104.028 E0.01685
G1 X189.533 Y116.288 E0.54569
G1 X190.069 Y116.288 E0.01685
G1 X177.808 Y104.028 E0.54569
G1 X178.344 Y104.028 E0.01685
G1 X190.604 Y116.288 E0.54569
G1 X191.139 Y116.288 E0.01685
G1 X178.879 Y104.028 E0.54569
G1 X179.414 Y104.028 E0.01685
G1 X191.675 Y116.288 E0.54569
G1 X192.210 Y116.288 E0.01685
G1 X179.950 Y104.028 E0.54569
G1 X180.485 Y104.028 E0.01685
G1 X192.745 Y116.288 E0.54569
G1 X193.280 Y116.288 E0.01685
G1 X181.020 Y104.028 E0.54569
G1 X181.555 Y104.028 E0.01685
G1 X193.816 Y116.288 E0.54569
G1 X194.351 Y116.288 E0.01685
G1 X182.091 Y104.028 E0.54569
G1 X182.626 Y104.028 E0.01685
G1 X194.886 Y116.288 E0.54569
G1 X195.421 Y116.288 E0.01685
G1 X183.161 Y104.028 E0.54569
G1 X183.696 Y104.028 E0.01685
G1 X195.957 Y116.288 E0.54569
G1 X196.492 Y116.288 E0.01685
G1 X184.232 Y104.028 E0.54569
G1 X184.767 Y104.028 E0.01685
G1 X197.027 Y116.288 E0.54569
G1 X197.563 Y116.288 E0.01685
G1 X185.302 Y104.028 E0.54569
G1 X185.838 Y104.028 E0.01685
G1 X198.098 Y116.288 E0.54569
G1 X198.633 Y116.288 E0.01685
G1 X186.373 Y104.028 E0.54569
G1 X186.908 Y104.028 E0.01685
G1 X199.168 Y116.288 E0.54569
G1 X199.704 Y116.288 E0.01685
G1 X187.443 Y104.028 E0.54569
G1 X187.979 Y104.028 E0.01685
G1 X200.239 Y116.288 E0.54569
G1 X200.774 Y116.288 E0.01685
G1 X188.514 Y104.028 E0.54569
G1 X189.049 Y104.028 E0.01685
G1 X201.310 Y116.288 E0.54569
G1 X201.845 Y116.288 E0.01685
G1 X189.585 Y104.028 E0.54569
G1 X190.120 Y104.028 E0.01685
G1 X202.380 Y116.288 E0.54569
G1 X202.915 Y116.288 E0.01685
G1 X190.655 Y104.028 E0.54569
G1 X191.190 Y104.028 E0.01685
G1 X203.392 Y116.230 E0.54309
G1 X203.392 Y115.694 E0.01685
G1 X191.726 Y104.028 E0.51927
G1 X192.261 Y104.028 E0.01685
G1 X203.392 Y115.159 E0.49544
G1 X203.392 Y114.624 E0.01685
G1 X192.796 Y104.028 E0.47162
G1 X193.331 Y104.028 E0.01685
G1 X203.392 Y114.089 E0.44779
G1 X203.392 Y113.553 E0.01685
G1 X193.867 Y104.028 E0.42397
G1 X194.402 Y104.028 E0.01685
G1 X203.392 Y113.018 E0.40015
G1 X203.392 Y112.483 E0.01685
G1 X194.937 Y104.028 E0.37632
G1 X195.473 Y104.028 E0.01685
G1 X203.392 Y111.947 E0.35250
G1 X203.392 Y111.412 E0.01685
G1 X196.008 Y104.028 E0.32867
G1 X196.543 Y104.028 E0.01685
G1 X203.392 Y110.877 E0.30485
G1 X203.392 Y110.342 E0.01685
G1 X197.078 Y104.028 E0.28102
G1 X197.614 Y104.028 E0.01685
G1 X203.392 Y109.806 E0.25720
G1 X203.392 Y109.271 E0.01685
G1 X198.149 Y104.028 E0.23338
G1 X198.684 Y104.028 E0.01685
G1 X203.392 Y108.736 E0.20955
G1 X203.392 Y108.200 E0.01685
G1 X199.220 Y104.028 E0.18573
G1 X199.755 Y104.028 E0.01685
G1 X203.392 Y107.665 E0.16190
G1 X203.392 Y107.130 E0.01685
G1 X200.290 Y104.028 E0.13808
G1 X200.825 Y104.028 E0.01685
G1 X203.392 Y106.595 E0.11425
G1 X203.392 Y106.059 E0.01685
G1 X201.361 Y104.028 E0.09043
G1 X201.896 Y104.028 E0.01685
G1 X203.392 Y105.524 E0.06661
G1 X203.392 Y104.989 E0.01685
G1 X202.431 Y104.028 E0.04278
G1 X202.966 Y104.028 E0.01685
G1 X203.562 Y104.623 E0.02651
;BEFORE_LAYER_CHANGE
G92 E0.0
;0.4


G1 F8640
G1 X202.966 Y104.028 E-0.19449
G1 X202.431 Y104.028 E-0.12360
G1 X203.392 Y104.989 E-0.31387
G1 X203.392 Y105.524 E-0.12360
G1 X203.379 Y105.510 E-0.00445
G1 E-0.04000 F2100.00000
G1 Z0.800 F10800.000
;AFTER_LAYER_CHANGE
;0.4
G1 X206.259 Y102.262
G1 Z0.400
G1 E0.80000 F2100.00000
G1 F3000
G1 X206.449 Y103.072 E0.02608
G1 X206.442 Y117.355 E0.44784
G1 X206.298 Y117.961 E0.01953
G1 X205.989 Y118.502 E0.01953
G1 X205.541 Y118.934 E0.01953
G1 X204.989 Y119.222 E0.01953
G1 X204.268 Y119.346 E0.02293
G1 X158.204 Y119.346 E1.44431
G1 X157.559 Y119.230 E0.02055
G1 X156.974 Y118.927 E0.02066
G1 X156.508 Y118.466 E0.02055
G1 X156.198 Y117.884 E0.02066
G1 X156.074 Y117.175 E0.02259
G1 X156.081 Y102.983 E0.44498
G1 X156.220 Y102.372 E0.01964
G1 X156.528 Y101.822 E0.01976
G1 X156.978 Y101.386 E0.01964
G1 X157.536 Y101.093 E0.01976
G1 X158.256 Y100.969 E0.02293
G1 X204.266 Y100.969 E1.44260
G1 X205.082 Y101.129 E0.02608
G1 X205.780 Y101.581 E0.02608
G1 X206.224 Y102.213 E0.02420
; PURGING FINISHED
G1 F8640
G1 X206.449 Y103.072 E-0.20500
G1 X206.448 Y105.475 E-0.55500
G1 E-0.04000 F2100.00000
G1 Z1.000 F10800.000
G1 X203.630 Y103.790
G1 Z0.400
G1 E0.80000 F2100.00000
M204 S800
G1 F1500
G1 X203.630 Y116.526 E0.43109
G1 X158.894 Y116.526 E1.51426
G1 X158.894 Y103.790 E0.43109
G1 X203.570 Y103.790 E1.51222
M204 S1000
G1 X204.037 Y103.383 F10800.000
M204 S800
G1 F1500
G1 X204.037 Y116.933 E0.45865
G1 X158.487 Y116.933 E1.54181
G1 X158.487 Y103.383 E0.45865
G1 X203.977 Y103.383 E1.53978
M204 S1000
G1 X203.871 Y103.747 F10800.000
G1 F8640
G1 X203.992 Y106.674 E-0.76000
G1 E-0.04000 F2100.00000
G1 Z1.000 F10800.000
G1 X202.684 Y116.404
G1 Z0.400
G1 E0.80000 F2100.00000
M204 S1250
G1 F8096.51
G1 X203.325 Y115.763 E0.03071
G1 X203.325 Y115.186 E0.01953
G1 X202.291 Y116.220 E0.04956
G1 X201.714 Y116.220 E0.01953
G1 X203.325 Y114.610 E0.07719
G1 X203.325 Y114.034 E0.01953
G1 X201.138 Y116.220 E0.10481
G1 X200.562 Y116.220 E0.01953
G1 X203.325 Y113.457 E0.13244
G1 X203.325 Y112.881 E0.01953
G1 X199.985 Y116.220 E0.16007
G1 X199.409 Y116.220 E0.01953
G1 X203.325 Y112.304 E0.18769
G1 X203.325 Y111.728 E0.01953
G1 X198.832 Y116.220 E0.21532
G1 X198.256 Y116.220 E0.01953
G1 X203.325 Y111.152 E0.24294
G1 X203.325 Y110.575 E0.01953
G1 X197.680 Y116.220 E0.27057
G1 X197.103 Y116.220 E0.01953
G1 X203.325 Y109.999 E0.29820
G1 X203.325 Y109.422 E0.01953
G1 X196.527 Y116.220 E0.32582
G1 X195.950 Y116.220 E0.01953
G1 X203.325 Y108.846 E0.35345
G1 X203.325 Y108.269 E0.01953
G1 X195.374 Y116.220 E0.38108
G1 X194.798 Y116.220 E0.01953
G1 X203.325 Y107.693 E0.40870
G1 X203.325 Y107.117 E0.01953
G1 X194.221 Y116.220 E0.43633
G1 X193.645 Y116.220 E0.01953
G1 X203.325 Y106.540 E0.46396
G1 X203.325 Y105.964 E0.01953
G1 X193.068 Y116.220 E0.49158
G1 X192.492 Y116.220 E0.01953
G1 X203.325 Y105.387 E0.51921
G1 X203.325 Y104.811 E0.01953
G1 X191.915 Y116.220 E0.54684
G1 X191.339 Y116.220 E0.01953
G1 X203.325 Y104.235 E0.57446
G1 X203.325 Y104.095 E0.00473
G1 X202.888 Y104.095 E0.01481
G1 X190.763 Y116.220 E0.58115
G1 X190.186 Y116.220 E0.01953
G1 X202.311 Y104.095 E0.58115
G1 X201.735 Y104.095 E0.01953
G1 X189.610 Y116.220 E0.58115
G1 X189.033 Y116.220 E0.01953
G1 X201.159 Y104.095 E0.58115
G1 X200.582 Y104.095 E0.01953
G1 X188.457 Y116.220 E0.58115
G1 X187.881 Y116.220 E0.01953
G1 X200.006 Y104.095 E0.58115
G1 X199.429 Y104.095 E0.01953
G1 X187.304 Y116.220 E0.58115
G1 X186.728 Y116.220 E0.01953
G1 X198.853 Y104.095 E0.58115
G1 X198.277 Y104.095 E0.01953
G1 X186.151 Y116.220 E0.58115
G1 X185.575 Y116.220 E0.01953
G1 X197.700 Y104.095 E0.58115
G1 X197.124 Y104.095 E0.01953
G1 X184.999 Y116.220 E0.58115
G1 X184.422 Y116.220 E0.01953
G1 X196.547 Y104.095 E0.58115
G1 X195.971 Y104.095 E0.01953
G1 X183.846 Y116.220 E0.58115
G1 X183.269 Y116.220 E0.01953
G1 X195.395 Y104.095 E0.58115
G1 X194.818 Y104.095 E0.01953
G1 X182.693 Y116.220 E0.58115
G1 X182.116 Y116.220 E0.01953
G1 X194.242 Y104.095 E0.58115
G1 X193.665 Y104.095 E0.01953
G1 X181.540 Y116.220 E0.58115
G1 X180.964 Y116.220 E0.01953
G1 X193.089 Y104.095 E0.58115
M73 Q1 S116
M73 P1 R116
G1 X192.513 Y104.095 E0.01953
G1 X180.387 Y116.220 E0.58115
G1 X179.811 Y116.220 E0.01953
G1 X191.936 Y104.095 E0.58115
G1 X191.360 Y104.095 E0.01953
G1 X179.234 Y116.220 E0.58115
G1 X178.658 Y116.220 E0.01953
G1 X190.783 Y104.095 E0.58115
G1 X190.207 Y104.095 E0.01953
G1 X178.082 Y116.220 E0.58115
G1 X177.505 Y116.220 E0.01953
G1 X189.630 Y104.095 E0.58115
G1 X189.054 Y104.095 E0.01953
G1 X176.929 Y116.220 E0.58115
G1 X176.352 Y116.220 E0.01953
G1 X188.478 Y104.095 E0.58115
G1 X187.901 Y104.095 E0.01953
G1 X175.776 Y116.220 E0.58115
G1 X175.200 Y116.220 E0.01953
G1 X187.325 Y104.095 E0.58115
G1 X186.748 Y104.095 E0.01953
G1 X174.623 Y116.220 E0.58115
G1 X174.047 Y116.220 E0.01953
G1 X186.172 Y104.095 E0.58115
G1 X185.596 Y104.095 E0.01953
G1 X173.470 Y116.220 E0.58115
G1 X172.894 Y116.220 E0.01953
G1 X185.019 Y104.095 E0.58115
G1 X184.443 Y104.095 E0.01953
G1 X172.318 Y116.220 E0.58115
G1 X171.741 Y116.220 E0.01953
G1 X183.866 Y104.095 E0.58115
G1 X183.290 Y104.095 E0.01953
G1 X171.165 Y116.220 E0.58115
G1 X170.588 Y116.220 E0.01953
G1 X182.714 Y104.095 E0.58115
G1 X182.137 Y104.095 E0.01953
G1 X170.012 Y116.220 E0.58115
G1 X169.435 Y116.220 E0.01953
G1 X181.561 Y104.095 E0.58115
G1 X180.984 Y104.095 E0.01953
G1 X168.859 Y116.220 E0.58115
G1 X168.283 Y116.220 E0.01953
G1 X180.408 Y104.095 E0.58115
G1 X179.832 Y104.095 E0.01953
G1 X167.706 Y116.220 E0.58115
G1 X167.130 Y116.220 E0.01953
G1 X179.255 Y104.095 E0.58115
G1 X178.679 Y104.095 E0.01953
G1 X166.553 Y116.220 E0.58115
G1 X165.977 Y116.220 E0.01953
G1 X178.102 Y104.095 E0.58115
G1 X177.526 Y104.095 E0.01953
G1 X165.401 Y116.220 E0.58115
G1 X164.824 Y116.220 E0.01953
G1 X176.949 Y104.095 E0.58115
G1 X176.373 Y104.095 E0.01953
G1 X164.248 Y116.220 E0.58115
G1 X163.671 Y116.220 E0.01953
G1 X175.797 Y104.095 E0.58115
G1 X175.220 Y104.095 E0.01953
G1 X163.095 Y116.220 E0.58115
G1 X162.519 Y116.220 E0.01953
G1 X174.644 Y104.095 E0.58115
G1 X174.067 Y104.095 E0.01953
G1 X161.942 Y116.220 E0.58115
G1 X161.366 Y116.220 E0.01953
G1 X173.491 Y104.095 E0.58115
G1 X172.915 Y104.095 E0.01953
G1 X160.789 Y116.220 E0.58115
G1 X160.213 Y116.220 E0.01953
G1 X172.338 Y104.095 E0.58115
G1 X171.762 Y104.095 E0.01953
G1 X159.637 Y116.220 E0.58115
G1 X159.200 Y116.220 E0.01481
G1 X159.200 Y116.081 E0.00473
G1 X171.185 Y104.095 E0.57446
G1 X170.609 Y104.095 E0.01953
G1 X159.200 Y115.505 E0.54684
G1 X159.200 Y114.928 E0.01953
G1 X170.033 Y104.095 E0.51921
G1 X169.456 Y104.095 E0.01953
G1 X159.200 Y114.352 E0.49158
G1 X159.200 Y113.775 E0.01953
G1 X168.880 Y104.095 E0.46396
G1 X168.303 Y104.095 E0.01953
G1 X159.200 Y113.199 E0.43633
G1 X159.200 Y112.622 E0.01953
G1 X167.727 Y104.095 E0.40870
G1 X167.151 Y104.095 E0.01953
G1 X159.200 Y112.046 E0.38108
G1 X159.200 Y111.470 E0.01953
