; generated by Slic3r Prusa Edition 1.41.2+ on 2018-11-30 at 02:49:40

; Slow down perimeters to see if it will stop the hull bulging

; external perimeters extrusion width = 0.45mm
; perimeters extrusion width = 0.45mm
; infill extrusion width = 0.45mm
; solid infill extrusion width = 0.45mm
; top infill extrusion width = 0.40mm
; first layer extrusion width = 0.42mm

M73 P0 R131
M73 Q0 S132
M201 X1000 Y1000 Z1000 E5000 ; sets maximum accelerations, mm/sec^2
M203 X200 Y200 Z12 E120 ; sets maximum feedrates, mm/sec
M204 P1250 R1250 T1250 ; sets acceleration (P, T) and retract acceleration (R), mm/sec^2
M205 X8.00 Y8.00 Z0.40 E1.50 ; sets the jerk limits, mm/sec
M205 S0 T0 ; sets the minimum extruding and travel feed rate, mm/sec
M107
M115 U3.4.1 ; tell printer latest fw version
M83  ; extruder relative mode
M104 S235 ; set extruder temp
M140 S100 ; set bed temp
M190 S100 ; wait for bed temp
M109 S235 ; wait for extruder temp
G28 W ; home all without mesh bed level
G80 ; mesh bed leveling
G1 Y-3.0 F1000.0 ; go outside print area
G92 E0.0
G1 X60.0 E9.0  F1000.0 ; intro line
M73 Q0 S131
M73 P0 R131
G1 X100.0 E12.5  F1000.0 ; intro line
G92 E0.0
M221 S95
M900 K30; Filament gcode
G21 ; set units to millimeters
G90 ; use absolute coordinates
M83 ; use relative distances for extrusion
;BEFORE_LAYER_CHANGE
G92 E0.0
;0.2


G1 E-0.80000 F2100.00000
G1 Z0.600 F10800.000
;AFTER_LAYER_CHANGE
;0.2
G1 X101.946 Y65.590
G1 Z0.200
G1 E0.80000 F2100.00000
M204 S1000
G1 F1200
G1 X102.666 Y65.466 E0.02293
G1 X148.676 Y65.466 E1.44260
G1 X149.492 Y65.625 E0.02608
G1 X150.190 Y66.078 E0.02608
G1 X150.669 Y66.758 E0.02608
G1 X150.859 Y67.568 E0.02608
G1 X150.852 Y81.851 E0.44784
G1 X150.708 Y82.457 E0.01953
G1 X150.399 Y82.998 E0.01953
G1 X149.951 Y83.430 E0.01953
G1 X149.398 Y83.719 E0.01953
G1 X148.678 Y83.843 E0.02293
G1 X102.613 Y83.842 E1.44431
G1 X101.968 Y83.727 E0.02055
G1 X101.383 Y83.423 E0.02066
G1 X100.917 Y82.962 E0.02055
G1 X100.607 Y82.381 E0.02066
G1 X100.483 Y81.671 E0.02259
G1 X100.490 Y67.479 E0.44498
G1 X100.629 Y66.868 E0.01964
G1 X100.938 Y66.319 E0.01976
G1 X101.387 Y65.882 E0.01964
G1 X101.892 Y65.618 E0.01787
; PURGING FINISHED
G1 F8640
G1 X102.666 Y65.466 E-0.18206
G1 X105.169 Y65.466 E-0.57794
G1 E-0.04000 F2100.00000
G1 Z0.800 F10800.000
G1 X103.259 Y68.241
G1 Z0.200
G1 E0.80000 F2100.00000
G1 F1200
G1 X148.085 Y68.241 E1.40548
G1 X148.085 Y81.067 E0.40215
G1 X103.259 Y81.067 E1.40548
G1 X103.259 Y68.301 E0.40026
G1 X102.882 Y67.864 F10800.000
G1 F1200
G1 X148.462 Y67.864 E1.42913
G1 X148.462 Y81.444 E0.42579
G1 X102.882 Y81.444 E1.42913
G1 X102.882 Y67.924 E0.42391
G1 X103.280 Y67.903 F10800.000
G1 F8640
G1 X106.173 Y67.920 E-0.76000
G1 E-0.04000 F2100.00000
G1 Z0.800 F10800.000
G1 X103.372 Y80.189
G1 Z0.200
G1 E0.80000 F2100.00000
G1 F1200
G1 X103.968 Y80.784 E0.02651
G1 X104.503 Y80.784 E0.01685
G1 X103.542 Y79.823 E0.04278
G1 X103.542 Y79.288 E0.01685
G1 X105.038 Y80.784 E0.06660
G1 X105.573 Y80.784 E0.01685
G1 X103.542 Y78.753 E0.09043
G1 X103.542 Y78.217 E0.01685
G1 X106.109 Y80.784 E0.11425
G1 X106.644 Y80.784 E0.01685
G1 X103.542 Y77.682 E0.13807
G1 X103.542 Y77.147 E0.01685
G1 X107.179 Y80.784 E0.16190
G1 X107.715 Y80.784 E0.01685
G1 X103.542 Y76.612 E0.18572
G1 X103.542 Y76.076 E0.01685
G1 X108.250 Y80.784 E0.20955
G1 X108.785 Y80.784 E0.01685
G1 X103.542 Y75.541 E0.23337
G1 X103.542 Y75.006 E0.01685
G1 X109.320 Y80.784 E0.25720
G1 X109.856 Y80.784 E0.01685
G1 X103.542 Y74.470 E0.28102
G1 X103.542 Y73.935 E0.01685
G1 X110.391 Y80.784 E0.30484
G1 X110.926 Y80.784 E0.01685
G1 X103.542 Y73.400 E0.32867
G1 X103.542 Y72.865 E0.01685
G1 X111.462 Y80.784 E0.35249
G1 X111.997 Y80.784 E0.01685
G1 X103.542 Y72.329 E0.37632
G1 X103.542 Y71.794 E0.01685
G1 X112.532 Y80.784 E0.40014
G1 X113.067 Y80.784 E0.01685
G1 X103.542 Y71.259 E0.42397
G1 X103.542 Y70.724 E0.01685
G1 X113.603 Y80.784 E0.44779
G1 X114.138 Y80.784 E0.01685
G1 X103.542 Y70.188 E0.47162
G1 X103.542 Y69.653 E0.01685
G1 X114.673 Y80.784 E0.49544
G1 X115.208 Y80.784 E0.01685
G1 X103.542 Y69.118 E0.51926
G1 X103.542 Y68.582 E0.01685
G1 X115.744 Y80.784 E0.54309
G1 X116.279 Y80.784 E0.01685
G1 X104.019 Y68.524 E0.54569
G1 X104.554 Y68.524 E0.01685
G1 X116.814 Y80.784 E0.54569
G1 X117.350 Y80.784 E0.01685
G1 X105.089 Y68.524 E0.54569
G1 X105.625 Y68.524 E0.01685
G1 X117.885 Y80.784 E0.54569
G1 X118.420 Y80.784 E0.01685
G1 X106.160 Y68.524 E0.54569
G1 X106.695 Y68.524 E0.01685
G1 X118.955 Y80.784 E0.54569
G1 X119.491 Y80.784 E0.01685
G1 X107.230 Y68.524 E0.54569
G1 X107.766 Y68.524 E0.01685
G1 X120.026 Y80.784 E0.54569
G1 X120.561 Y80.784 E0.01685
G1 X108.301 Y68.524 E0.54569
G1 X108.836 Y68.524 E0.01685
G1 X121.096 Y80.784 E0.54569
G1 X121.632 Y80.784 E0.01685
G1 X109.371 Y68.524 E0.54569
G1 X109.907 Y68.524 E0.01685
G1 X122.167 Y80.784 E0.54569
G1 X122.702 Y80.784 E0.01685
G1 X110.442 Y68.524 E0.54569
G1 X110.977 Y68.524 E0.01685
G1 X123.238 Y80.784 E0.54569
G1 X123.773 Y80.784 E0.01685
G1 X111.513 Y68.524 E0.54569
G1 X112.048 Y68.524 E0.01685
G1 X124.308 Y80.784 E0.54569
G1 X124.843 Y80.784 E0.01685
G1 X112.583 Y68.524 E0.54569
G1 X113.118 Y68.524 E0.01685
G1 X125.379 Y80.784 E0.54569
G1 X125.914 Y80.784 E0.01685
G1 X113.654 Y68.524 E0.54569
G1 X114.189 Y68.524 E0.01685
G1 X126.449 Y80.784 E0.54569
G1 X126.985 Y80.784 E0.01685
G1 X114.724 Y68.524 E0.54569
G1 X115.260 Y68.524 E0.01685
G1 X127.520 Y80.784 E0.54569
G1 X128.055 Y80.784 E0.01685
G1 X115.795 Y68.524 E0.54569
G1 X116.330 Y68.524 E0.01685
G1 X128.590 Y80.784 E0.54569
G1 X129.126 Y80.784 E0.01685
G1 X116.865 Y68.524 E0.54569
G1 X117.401 Y68.524 E0.01685
G1 X129.661 Y80.784 E0.54569
G1 X130.196 Y80.784 E0.01685
G1 X117.936 Y68.524 E0.54569
G1 X118.471 Y68.524 E0.01685
G1 X130.731 Y80.784 E0.54569
G1 X131.267 Y80.784 E0.01685
G1 X119.006 Y68.524 E0.54569
M73 Q0 S130
G1 X119.542 Y68.524 E0.01685
G1 X131.802 Y80.784 E0.54569
M73 P0 R130
G1 X132.337 Y80.784 E0.01685
G1 X120.077 Y68.524 E0.54569
G1 X120.612 Y68.524 E0.01685
G1 X132.873 Y80.784 E0.54569
G1 X133.408 Y80.784 E0.01685
G1 X121.148 Y68.524 E0.54569
G1 X121.683 Y68.524 E0.01685
G1 X133.943 Y80.784 E0.54569
G1 X134.478 Y80.784 E0.01685
G1 X122.218 Y68.524 E0.54569
G1 X122.753 Y68.524 E0.01685
G1 X135.014 Y80.784 E0.54569
G1 X135.549 Y80.784 E0.01685
G1 X123.289 Y68.524 E0.54569
G1 X123.824 Y68.524 E0.01685
G1 X136.084 Y80.784 E0.54569
G1 X136.620 Y80.784 E0.01685
G1 X124.359 Y68.524 E0.54569
G1 X124.895 Y68.524 E0.01685
G1 X137.155 Y80.784 E0.54569
G1 X137.690 Y80.784 E0.01685
G1 X125.430 Y68.524 E0.54569
G1 X125.965 Y68.524 E0.01685
G1 X138.225 Y80.784 E0.54569
G1 X138.761 Y80.784 E0.01685
G1 X126.500 Y68.524 E0.54569
G1 X127.036 Y68.524 E0.01685
G1 X139.296 Y80.784 E0.54569
G1 X139.831 Y80.784 E0.01685
G1 X127.571 Y68.524 E0.54569
G1 X128.106 Y68.524 E0.01685
G1 X140.366 Y80.784 E0.54569
G1 X140.902 Y80.784 E0.01685
G1 X128.641 Y68.524 E0.54569
G1 X129.177 Y68.524 E0.01685
G1 X141.437 Y80.784 E0.54569
G1 X141.972 Y80.784 E0.01685
G1 X129.712 Y68.524 E0.54569
G1 X130.247 Y68.524 E0.01685
G1 X142.508 Y80.784 E0.54569
G1 X143.043 Y80.784 E0.01685
G1 X130.783 Y68.524 E0.54569
G1 X131.318 Y68.524 E0.01685
G1 X143.578 Y80.784 E0.54569
G1 X144.113 Y80.784 E0.01685
G1 X131.853 Y68.524 E0.54569
G1 X132.388 Y68.524 E0.01685
G1 X144.649 Y80.784 E0.54569
G1 X145.184 Y80.784 E0.01685
G1 X132.924 Y68.524 E0.54569
G1 X133.459 Y68.524 E0.01685
G1 X145.719 Y80.784 E0.54569
G1 X146.255 Y80.784 E0.01685
G1 X133.994 Y68.524 E0.54569
G1 X134.530 Y68.524 E0.01685
G1 X146.790 Y80.784 E0.54569
G1 X147.325 Y80.784 E0.01685
G1 X135.065 Y68.524 E0.54569
G1 X135.600 Y68.524 E0.01685
G1 X147.802 Y80.726 E0.54309
G1 X147.802 Y80.191 E0.01685
G1 X136.135 Y68.524 E0.51927
G1 X136.671 Y68.524 E0.01685
G1 X147.802 Y79.655 E0.49544
G1 X147.802 Y79.120 E0.01685
G1 X137.206 Y68.524 E0.47162
G1 X137.741 Y68.524 E0.01685
G1 X147.802 Y78.585 E0.44779
G1 X147.802 Y78.050 E0.01685
G1 X138.276 Y68.524 E0.42397
G1 X138.812 Y68.524 E0.01685
G1 X147.802 Y77.514 E0.40015
G1 X147.802 Y76.979 E0.01685
G1 X139.347 Y68.524 E0.37632
G1 X139.882 Y68.524 E0.01685
G1 X147.802 Y76.444 E0.35250
G1 X147.802 Y75.909 E0.01685
G1 X140.418 Y68.524 E0.32867
G1 X140.953 Y68.524 E0.01685
G1 X147.802 Y75.373 E0.30485
G1 X147.802 Y74.838 E0.01685
G1 X141.488 Y68.524 E0.28102
G1 X142.023 Y68.524 E0.01685
G1 X147.802 Y74.303 E0.25720
G1 X147.802 Y73.767 E0.01685
G1 X142.559 Y68.524 E0.23338
G1 X143.094 Y68.524 E0.01685
G1 X147.802 Y73.232 E0.20955
G1 X147.802 Y72.697 E0.01685
G1 X143.629 Y68.524 E0.18573
G1 X144.165 Y68.524 E0.01685
G1 X147.802 Y72.162 E0.16190
G1 X147.802 Y71.626 E0.01685
G1 X144.700 Y68.524 E0.13808
G1 X145.235 Y68.524 E0.01685
G1 X147.802 Y71.091 E0.11425
G1 X147.802 Y70.556 E0.01685
G1 X145.770 Y68.524 E0.09043
G1 X146.306 Y68.524 E0.01685
G1 X147.802 Y70.021 E0.06661
G1 X147.802 Y69.485 E0.01685
G1 X146.841 Y68.524 E0.04278
G1 X147.376 Y68.524 E0.01685
G1 X147.972 Y69.120 E0.02651
;BEFORE_LAYER_CHANGE
G92 E0.0
;0.4


G1 F8640
G1 X147.376 Y68.524 E-0.19449
G1 X146.841 Y68.524 E-0.12360
G1 X147.802 Y69.485 E-0.31387
G1 X147.802 Y70.021 E-0.12360
G1 X147.788 Y70.007 E-0.00445
G1 E-0.04000 F2100.00000
G1 Z0.800 F10800.000
;AFTER_LAYER_CHANGE
;0.4
G1 X150.669 Y66.758
G1 Z0.400
G1 E0.80000 F2100.00000
G1 F3000
G1 X150.859 Y67.568 E0.02608
G1 X150.852 Y81.851 E0.44784
G1 X150.708 Y82.457 E0.01953
G1 X150.399 Y82.998 E0.01953
G1 X149.951 Y83.430 E0.01953
G1 X149.398 Y83.719 E0.01953
G1 X148.678 Y83.843 E0.02293
G1 X102.613 Y83.842 E1.44431
G1 X101.968 Y83.727 E0.02055
G1 X101.383 Y83.423 E0.02066
G1 X100.917 Y82.962 E0.02055
G1 X100.607 Y82.381 E0.02066
G1 X100.483 Y81.671 E0.02259
G1 X100.490 Y67.479 E0.44498
G1 X100.629 Y66.868 E0.01964
G1 X100.938 Y66.319 E0.01976
G1 X101.387 Y65.882 E0.01964
G1 X101.946 Y65.590 E0.01976
G1 X102.666 Y65.466 E0.02293
G1 X148.676 Y65.466 E1.44260
G1 X149.492 Y65.625 E0.02608
G1 X150.190 Y66.078 E0.02608
G1 X150.634 Y66.709 E0.02420
; PURGING FINISHED
G1 F8640
G1 X150.859 Y67.568 E-0.20500
G1 X150.858 Y69.972 E-0.55500
G1 E-0.04000 F2100.00000
G1 Z1.000 F10800.000
G1 X148.040 Y68.286
G1 Z0.400
G1 E0.80000 F2100.00000
M204 S800
G1 F1500
G1 X148.040 Y81.022 E0.43109
G1 X103.304 Y81.022 E1.51426
G1 X103.304 Y68.286 E0.43109
G1 X147.980 Y68.286 E1.51222
M204 S1000
G1 X148.447 Y67.879 F10800.000
M204 S800
G1 F1500
G1 X148.447 Y81.429 E0.45865
G1 X102.897 Y81.429 E1.54181
G1 X102.897 Y67.879 E0.45865
G1 X148.387 Y67.879 E1.53978
M204 S1000
G1 X148.281 Y68.243 F10800.000
G1 F8640
G1 X148.402 Y71.171 E-0.76000
G1 E-0.04000 F2100.00000
G1 Z1.000 F10800.000
G1 X147.094 Y80.900
G1 Z0.400
G1 E0.80000 F2100.00000
M204 S1250
G1 F8096.51
G1 X147.735 Y80.259 E0.03071
G1 X147.735 Y79.683 E0.01953
G1 X146.701 Y80.717 E0.04956
G1 X146.124 Y80.717 E0.01953
G1 X147.735 Y79.106 E0.07719
G1 X147.735 Y78.530 E0.01953
G1 X145.548 Y80.717 E0.10481
G1 X144.971 Y80.717 E0.01953
G1 X147.735 Y77.954 E0.13244
G1 X147.735 Y77.377 E0.01953
G1 X144.395 Y80.717 E0.16007
G1 X143.818 Y80.717 E0.01953
G1 X147.735 Y76.801 E0.18769
G1 X147.735 Y76.224 E0.01953
G1 X143.242 Y80.717 E0.21532
G1 X142.666 Y80.717 E0.01953
G1 X147.735 Y75.648 E0.24294
G1 X147.735 Y75.072 E0.01953
G1 X142.089 Y80.717 E0.27057
G1 X141.513 Y80.717 E0.01953
G1 X147.735 Y74.495 E0.29820
G1 X147.735 Y73.919 E0.01953
G1 X140.936 Y80.717 E0.32582
G1 X140.360 Y80.717 E0.01953
G1 X147.735 Y73.342 E0.35345
G1 X147.735 Y72.766 E0.01953
G1 X139.784 Y80.717 E0.38108
G1 X139.207 Y80.717 E0.01953
G1 X147.735 Y72.189 E0.40870
G1 X147.735 Y71.613 E0.01953
G1 X138.631 Y80.717 E0.43633
G1 X138.054 Y80.717 E0.01953
G1 X147.735 Y71.037 E0.46396
G1 X147.735 Y70.460 E0.01953
G1 X137.478 Y80.717 E0.49158
G1 X136.902 Y80.717 E0.01953
G1 X147.735 Y69.884 E0.51921
G1 X147.735 Y69.307 E0.01953
G1 X136.325 Y80.717 E0.54684
G1 X135.749 Y80.717 E0.01953
G1 X147.735 Y68.731 E0.57446
G1 X147.735 Y68.592 E0.00473
G1 X147.298 Y68.592 E0.01481
G1 X135.172 Y80.717 E0.58115
G1 X134.596 Y80.717 E0.01953
G1 X146.721 Y68.592 E0.58115
G1 X146.145 Y68.592 E0.01953
G1 X134.020 Y80.717 E0.58115
G1 X133.443 Y80.717 E0.01953
G1 X145.568 Y68.592 E0.58115
G1 X144.992 Y68.592 E0.01953
G1 X132.867 Y80.717 E0.58115
G1 X132.290 Y80.717 E0.01953
G1 X144.416 Y68.592 E0.58115
G1 X143.839 Y68.592 E0.01953
G1 X131.714 Y80.717 E0.58115
G1 X131.137 Y80.717 E0.01953
G1 X143.263 Y68.592 E0.58115
G1 X142.686 Y68.592 E0.01953
G1 X130.561 Y80.717 E0.58115
G1 X129.985 Y80.717 E0.01953
G1 X142.110 Y68.592 E0.58115
G1 X141.534 Y68.592 E0.01953
G1 X129.408 Y80.717 E0.58115
G1 X128.832 Y80.717 E0.01953
G1 X140.957 Y68.592 E0.58115
G1 X140.381 Y68.592 E0.01953
G1 X128.255 Y80.717 E0.58115
G1 X127.679 Y80.717 E0.01953
G1 X139.804 Y68.592 E0.58115
G1 X139.228 Y68.592 E0.01953
G1 X127.103 Y80.717 E0.58115
G1 X126.526 Y80.717 E0.01953
G1 X138.651 Y68.592 E0.58115
G1 X138.075 Y68.592 E0.01953
G1 X125.950 Y80.717 E0.58115
G1 X125.373 Y80.717 E0.01953
G1 X137.499 Y68.592 E0.58115
M73 Q1 S129
G1 X136.922 Y68.592 E0.01953
G1 X124.797 Y80.717 E0.58115
G1 X124.221 Y80.717 E0.01953
G1 X136.346 Y68.592 E0.58115
G1 X135.769 Y68.592 E0.01953
G1 X123.644 Y80.717 E0.58115
M73 P1 R129
G1 X123.068 Y80.717 E0.01953
G1 X135.193 Y68.592 E0.58115
G1 X134.617 Y68.592 E0.01953
G1 X122.491 Y80.717 E0.58115
G1 X121.915 Y80.717 E0.01953
G1 X134.040 Y68.592 E0.58115
G1 X133.464 Y68.592 E0.01953
G1 X121.339 Y80.717 E0.58115
G1 X120.762 Y80.717 E0.01953
G1 X132.887 Y68.592 E0.58115
G1 X132.311 Y68.592 E0.01953
G1 X120.186 Y80.717 E0.58115
G1 X119.609 Y80.717 E0.01953
G1 X131.735 Y68.592 E0.58115
G1 X131.158 Y68.592 E0.01953
G1 X119.033 Y80.717 E0.58115
G1 X118.456 Y80.717 E0.01953
G1 X130.582 Y68.592 E0.58115
G1 X130.005 Y68.592 E0.01953
G1 X117.880 Y80.717 E0.58115
G1 X117.304 Y80.717 E0.01953
G1 X129.429 Y68.592 E0.58115
G1 X128.853 Y68.592 E0.01953
G1 X116.727 Y80.717 E0.58115
G1 X116.151 Y80.717 E0.01953
G1 X128.276 Y68.592 E0.58115
G1 X127.700 Y68.592 E0.01953
G1 X115.574 Y80.717 E0.58115
G1 X114.998 Y80.717 E0.01953
G1 X127.123 Y68.592 E0.58115
G1 X126.547 Y68.592 E0.01953
G1 X114.422 Y80.717 E0.58115
G1 X113.845 Y80.717 E0.01953
G1 X125.970 Y68.592 E0.58115
G1 X125.394 Y68.592 E0.01953
G1 X113.269 Y80.717 E0.58115
G1 X112.692 Y80.717 E0.01953
G1 X124.818 Y68.592 E0.58115
G1 X124.241 Y68.592 E0.01953
G1 X112.116 Y80.717 E0.58115
G1 X111.540 Y80.717 E0.01953
G1 X123.665 Y68.592 E0.58115
G1 X123.088 Y68.592 E0.01953
G1 X110.963 Y80.717 E0.58115
G1 X110.387 Y80.717 E0.01953
G1 X122.512 Y68.592 E0.58115
G1 X121.936 Y68.592 E0.01953
G1 X109.810 Y80.717 E0.58115
G1 X109.234 Y80.717 E0.01953
G1 X121.359 Y68.592 E0.58115
G1 X120.783 Y68.592 E0.01953
G1 X108.658 Y80.717 E0.58115
G1 X108.081 Y80.717 E0.01953
G1 X120.206 Y68.592 E0.58115
G1 X119.630 Y68.592 E0.01953
G1 X107.505 Y80.717 E0.58115
G1 X106.928 Y80.717 E0.01953
G1 X119.054 Y68.592 E0.58115
G1 X118.477 Y68.592 E0.01953
G1 X106.352 Y80.717 E0.58115
G1 X105.775 Y80.717 E0.01953
G1 X117.901 Y68.592 E0.58115
G1 X117.324 Y68.592 E0.01953
G1 X105.199 Y80.717 E0.58115
G1 X104.623 Y80.717 E0.01953
G1 X116.748 Y68.592 E0.58115
G1 X116.171 Y68.592 E0.01953
G1 X104.046 Y80.717 E0.58115
G1 X103.609 Y80.717 E0.01481
G1 X103.609 Y80.577 E0.00473
G1 X115.595 Y68.592 E0.57446
G1 X115.019 Y68.592 E0.01953
G1 X103.609 Y80.001 E0.54684
G1 X103.609 Y79.425 E0.01953
G1 X114.442 Y68.592 E0.51921
G1 X113.866 Y68.592 E0.01953
G1 X103.609 Y78.848 E0.49158
G1 X103.609 Y78.272 E0.01953
G1 X113.289 Y68.592 E0.46396
G1 X112.713 Y68.592 E0.01953
G1 X103.609 Y77.695 E0.43633
G1 X103.609 Y77.119 E0.01953
G1 X112.137 Y68.592 E0.40870
G1 X111.560 Y68.592 E0.01953
G1 X103.609 Y76.542 E0.38108
G1 X103.609 Y75.966 E0.01953
G1 X110.984 Y68.592 E0.35345
G1 X110.407 Y68.592 E0.01953
G1 X103.609 Y75.390 E0.32582
G1 X103.609 Y74.813 E0.01953
G1 X109.831 Y68.592 E0.29820
G1 X109.255 Y68.592 E0.01953
G1 X103.609 Y74.237 E0.27057
G1 X103.609 Y73.660 E0.01953
G1 X108.678 Y68.592 E0.24294
G1 X108.102 Y68.592 E0.01953
G1 X103.609 Y73.084 E0.21532
G1 X103.609 Y72.508 E0.01953
G1 X107.525 Y68.592 E0.18769
G1 X106.949 Y68.592 E0.01953
G1 X103.609 Y71.931 E0.16006
G1 X103.609 Y71.355 E0.01953
