; generated by Slic3r Prusa Edition 1.41.2+ on 2018-11-30 at 09:36:23

; Slow down perimeters to see if it will stop the hull bulging

; external perimeters extrusion width = 0.45mm
; perimeters extrusion width = 0.45mm
; infill extrusion width = 0.45mm
; solid infill extrusion width = 0.45mm
; top infill extrusion width = 0.40mm
; first layer extrusion width = 0.42mm

M73 P0 R43
M73 Q0 S43
M201 X1000 Y1000 Z1000 E5000 ; sets maximum accelerations, mm/sec^2
M203 X200 Y200 Z12 E120 ; sets maximum feedrates, mm/sec
M204 P1250 R1250 T1250 ; sets acceleration (P, T) and retract acceleration (R), mm/sec^2
M205 X8.00 Y8.00 Z0.40 E1.50 ; sets the jerk limits, mm/sec
M205 S0 T0 ; sets the minimum extruding and travel feed rate, mm/sec
M107
M115 U3.4.1 ; tell printer latest fw version
M83  ; extruder relative mode
M104 S235 ; set extruder temp
M140 S100 ; set bed temp
M190 S100 ; wait for bed temp
M109 S235 ; wait for extruder temp
G28 W ; home all without mesh bed level
G80 ; mesh bed leveling
G1 Y-3.0 F1000.0 ; go outside print area
G92 E0.0
G1 X60.0 E9.0  F1000.0 ; intro line
M73 Q0 S43
M73 P0 R43
G1 X100.0 E12.5  F1000.0 ; intro line
G92 E0.0
M221 S95
M900 K30; Filament gcode
G21 ; set units to millimeters
G90 ; use absolute coordinates
M83 ; use relative distances for extrusion
;BEFORE_LAYER_CHANGE
G92 E0.0
;0.2


G1 E-0.80000 F2100.00000
G1 Z0.600 F10800.000
;AFTER_LAYER_CHANGE
;0.2
G1 X122.947 Y74.436
G1 Z0.200
G1 E0.80000 F2100.00000
M204 S1000
G1 F1200
G1 X156.249 Y74.420 E1.04416
G1 X156.781 Y74.486 E0.01680
G1 X157.284 Y74.682 E0.01692
G1 X164.699 Y78.968 E0.26856
G1 X165.096 Y79.311 E0.01646
G1 X165.402 Y79.743 E0.01658
G1 X165.596 Y80.235 E0.01658
G1 X165.666 Y80.759 E0.01658
G1 X160.482 Y106.154 E0.81269
G1 X157.057 Y114.646 E0.28707
G1 X156.721 Y115.276 E0.02241
G1 X156.231 Y115.866 E0.02403
G1 X155.573 Y116.354 E0.02569
G1 X154.887 Y116.638 E0.02330
G1 X154.195 Y116.742 E0.02193
G1 X128.239 Y116.741 E0.81383
G1 X127.599 Y116.636 E0.02032
G1 X127.019 Y116.347 E0.02032
G1 X126.544 Y115.896 E0.02055
G1 X126.224 Y115.324 E0.02055
G1 X113.913 Y81.505 E1.12844
G1 X113.802 Y81.003 E0.01612
G1 X113.811 Y80.489 E0.01612
G1 X113.940 Y79.991 E0.01612
G1 X114.183 Y79.534 E0.01623
G1 X114.500 Y79.172 E0.01510
G1 X114.889 Y78.886 E0.01514
G1 X122.152 Y74.693 E0.26296
G1 X122.890 Y74.454 E0.02431
; PURGING FINISHED
G1 F8640
G1 X126.181 Y74.451 E-0.76000
G1 E-0.04000 F2100.00000
G1 Z0.800 F10800.000
G1 X152.519 Y77.614
G1 Z0.200
G1 E0.80000 F2100.00000
G1 F1200
G1 X159.146 Y81.441 E0.23992
G1 X154.492 Y89.502 E0.29186
G1 X152.519 Y88.363 E0.07142
G1 X152.519 Y77.674 E0.33515
G1 X152.635 Y77.232 F10800.000
G1 X152.838 Y77.363
G1 F1200
G1 X152.883 Y77.195 E0.00544
G1 X156.088 Y77.195 E0.10050
G1 X162.757 Y81.046 E0.24147
G1 X157.778 Y94.727 E0.45649
G1 X157.776 Y105.491 E0.33750
G1 X154.639 Y113.225 E0.26166
G1 X154.541 Y113.408 E0.00652
G1 X154.368 Y113.586 E0.00778
G1 X154.218 Y113.631 E0.00490
G1 X128.561 Y113.631 E0.80446
G1 X116.700 Y81.046 E1.08725
G1 X123.369 Y77.195 E0.24146
G1 X126.576 Y77.195 E0.10056
G1 X126.621 Y77.363 E0.00544
G1 X119.796 Y81.303 E0.24710
G1 X124.827 Y90.017 E0.31550
G1 X127.225 Y88.634 E0.08680
G1 X129.142 Y90.551 E0.08502
G1 X129.142 Y97.856 E0.22902
G1 X150.316 Y97.856 E0.66390
G1 X150.316 Y90.551 E0.22902
G1 X152.234 Y88.634 E0.08502
G1 X154.630 Y90.017 E0.08675
G1 X159.661 Y81.303 E0.31550
G1 X152.890 Y77.393 E0.24516
G1 F8640
G1 X152.883 Y77.195 E-0.04567
G1 X155.976 Y77.195 E-0.71433
G1 E-0.04000 F2100.00000
G1 Z0.800 F10800.000
G1 X126.939 Y77.614
G1 Z0.200
G1 E0.80000 F2100.00000
G1 F1200
G1 X126.939 Y88.363 E0.33703
G1 X124.965 Y89.502 E0.07147
G1 X120.311 Y81.441 E0.29186
G1 X126.887 Y77.644 E0.23810
G1 X127.296 Y77.434 F10800.000
G1 F8640
G1 X126.903 Y80.936 E-0.76000
G1 E-0.04000 F2100.00000
G1 Z0.800 F10800.000
G1 X127.519 Y88.395
G1 Z0.200
G1 E0.80000 F2100.00000
G1 F1200
G1 X129.519 Y90.395 E0.08868
G1 X129.519 Y97.478 E0.22210
G1 X149.939 Y97.478 E0.64025
G1 X149.939 Y90.395 E0.22210
G1 X151.939 Y88.395 E0.08868
G1 X151.939 Y76.818 E0.36299
G1 X156.189 Y76.818 E0.13325
G1 X163.220 Y80.878 E0.25455
G1 X158.155 Y94.794 E0.46433
G1 X158.153 Y105.565 E0.33772
G1 X154.981 Y113.385 E0.26460
G1 X154.856 Y113.619 E0.00832
G1 X154.716 Y113.789 E0.00691
G1 X154.488 Y113.951 E0.00877
G1 X154.369 Y113.993 E0.00393
G1 X154.241 Y114.008 E0.00407
G1 X128.297 Y114.008 E0.81345
G1 X116.237 Y80.878 E1.10545
G1 X123.268 Y76.818 E0.25455
G1 X127.519 Y76.818 E0.13331
G1 X127.519 Y88.335 E0.36111
G1 X127.361 Y88.762 F10800.000
G1 X127.229 Y88.300
G1 F1200
G1 X127.229 Y77.288 E0.18582
G1 X127.185 Y77.153 E0.00240
G1 X126.763 Y77.167 E0.01055
G1 F8640
G1 X127.185 Y77.153 E-0.09729
G1 E-0.70271 F2100.00000
G1 Z0.800 F10800.000
G1 X125.775 Y77.721
G1 Z0.200
G1 E0.80000 F2100.00000
G1 F1200
G1 X125.532 Y77.478 E0.01082
G1 X124.996 Y77.478 E0.01689
G1 X125.311 Y77.793 E0.01403
G1 X124.971 Y77.989 E0.01237
G1 X124.460 Y77.478 E0.02277
G1 X123.924 Y77.478 E0.01689
G1 X124.631 Y78.185 E0.03151
G1 X124.291 Y78.381 E0.01237
G1 X123.409 Y77.499 E0.03933
G1 X123.069 Y77.695 E0.01237
G1 X123.951 Y78.577 E0.03933
G1 X123.611 Y78.773 E0.01237
G1 X122.729 Y77.891 E0.03933
G1 X122.389 Y78.087 E0.01237
G1 X123.272 Y78.970 E0.03933
G1 X122.932 Y79.166 E0.01237
G1 X122.049 Y78.283 E0.03932
G1 X121.710 Y78.480 E0.01237
G1 X122.592 Y79.362 E0.03932
G1 X122.252 Y79.558 E0.01237
G1 X121.370 Y78.676 E0.03932
G1 X121.030 Y78.872 E0.01237
G1 X121.912 Y79.754 E0.03932
G1 X121.572 Y79.950 E0.01237
G1 X120.690 Y79.068 E0.03932
G1 X120.350 Y79.265 E0.01237
G1 X121.233 Y80.147 E0.03932
G1 X120.893 Y80.343 E0.01237
G1 X120.011 Y79.461 E0.03931
G1 X119.671 Y79.657 E0.01237
G1 X120.553 Y80.539 E0.03931
G1 X120.213 Y80.735 E0.01237
G1 X119.331 Y79.853 E0.03931
G1 X118.991 Y80.049 E0.01237
G1 X119.873 Y80.931 E0.03931
G1 X119.534 Y81.127 E0.01237
G1 X118.652 Y80.246 E0.03931
G1 X118.312 Y80.442 E0.01237
G1 X120.337 Y82.467 E0.09028
G1 F8640
G1 X118.312 Y80.442 E-0.66145
G1 X118.652 Y80.246 E-0.09060
G1 X118.676 Y80.270 E-0.00795
G1 E-0.04000 F2100.00000
G1 Z0.800 F10800.000
G1 X121.070 Y83.736
G1 Z0.200
G1 E0.80000 F2100.00000
G1 F1200
G1 X117.972 Y80.638 E0.13805
G1 X117.632 Y80.834 E0.01237
G1 X121.802 Y85.004 E0.18583
G1 F8640
G1 X119.474 Y82.676 E-0.76000
G1 E-0.04000 F2100.00000
G1 Z0.800 F10800.000
G1 X122.534 Y86.272
G1 Z0.200
G1 E0.80000 F2100.00000
G1 F1200
G1 X117.292 Y81.030 E0.23360
G1 X117.046 Y81.172 E0.00895
G1 X117.131 Y81.405 E0.00780
G1 X123.266 Y87.540 E0.27342
G1 F8640
G1 X120.939 Y85.213 E-0.76000
G1 E-0.04000 F2100.00000
G1 Z0.800 F10800.000
G1 X123.998 Y88.808
G1 Z0.200
G1 E0.80000 F2100.00000
G1 F1200
G1 X117.154 Y81.964 E0.30503
G1 F8640
G1 X119.481 Y84.291 E-0.76000
G1 E-0.04000 F2100.00000
G1 Z0.800 F10800.000
G1 X124.267 Y89.613
G1 Z0.200
G1 E0.80000 F2100.00000
G1 F1200
G1 X117.745 Y83.091 E0.29068
G1 X118.052 Y83.933 E0.02826
G1 X128.860 Y94.741 E0.48169
G1 X128.860 Y95.277 E0.01689
G1 X118.358 Y84.776 E0.46802
G1 X118.665 Y85.619 E0.02826
G1 X128.860 Y95.813 E0.45434
G1 X128.860 Y96.349 E0.01689
G1 X118.972 Y86.462 E0.44067
G1 X119.279 Y87.305 E0.02826
G1 X128.860 Y96.885 E0.42700
G1 X128.860 Y97.421 E0.01689
G1 X119.585 Y88.147 E0.41333
G1 X119.892 Y88.990 E0.02826
G1 X144.250 Y113.348 E1.08559
G1 X143.714 Y113.348 E0.01689
G1 X120.199 Y89.833 E1.04803
G1 X120.506 Y90.676 E0.02826
G1 X143.178 Y113.348 E1.01047
G1 X142.642 Y113.348 E0.01689
G1 X120.813 Y91.518 E0.97291
G1 X121.119 Y92.361 E0.02826
G1 X142.106 Y113.348 E0.93534
G1 X141.570 Y113.348 E0.01689
G1 X121.426 Y93.204 E0.89778
G1 X121.733 Y94.047 E0.02826
G1 X141.034 Y113.348 E0.86022
G1 X140.498 Y113.348 E0.01689
G1 X122.040 Y94.890 E0.82266
G1 X122.347 Y95.732 E0.02826
G1 X139.962 Y113.348 E0.78510
M73 Q2 S42
M73 P2 R42
G1 X139.426 Y113.348 E0.01689
G1 X122.653 Y96.575 E0.74754
G1 X122.960 Y97.418 E0.02826
G1 X138.890 Y113.348 E0.70998
G1 X138.354 Y113.348 E0.01689
G1 X123.267 Y98.261 E0.67242
G1 X123.574 Y99.103 E0.02826
G1 X137.818 Y113.348 E0.63486
G1 X137.282 Y113.348 E0.01689
G1 X123.880 Y99.946 E0.59729
G1 X124.187 Y100.789 E0.02826
G1 X136.746 Y113.348 E0.55973
G1 X136.210 Y113.348 E0.01689
G1 X124.494 Y101.632 E0.52217
G1 X124.801 Y102.475 E0.02826
G1 X135.674 Y113.348 E0.48461
G1 X135.138 Y113.348 E0.01689
G1 X125.108 Y103.317 E0.44705
G1 X125.414 Y104.160 E0.02826
G1 X134.602 Y113.348 E0.40949
G1 X134.066 Y113.348 E0.01689
G1 X125.721 Y105.003 E0.37193
G1 X126.028 Y105.846 E0.02826
G1 X133.530 Y113.348 E0.33437
G1 X132.994 Y113.348 E0.01689
G1 X126.335 Y106.688 E0.29681
G1 X126.642 Y107.531 E0.02826
G1 X132.458 Y113.348 E0.25925
G1 X131.922 Y113.348 E0.01689
G1 X126.948 Y108.374 E0.22168
G1 X127.255 Y109.217 E0.02826
G1 X131.386 Y113.348 E0.18412
G1 X130.850 Y113.348 E0.01689
G1 X127.562 Y110.060 E0.14656
G1 X127.869 Y110.902 E0.02826
G1 X130.314 Y113.348 E0.10900
G1 X129.778 Y113.348 E0.01689
G1 X128.175 Y111.745 E0.07144
G1 X128.482 Y112.588 E0.02826
G1 X129.412 Y113.518 E0.04144
G1 F8640
G1 X128.482 Y112.588 E-0.30364
G1 X128.175 Y111.745 E-0.20709
G1 X128.939 Y112.508 E-0.24927
G1 E-0.04000 F2100.00000
G1 Z0.800 F10800.000
G1 X129.407 Y97.969
G1 Z0.200
G1 E0.80000 F2100.00000
G1 F1200
G1 X144.786 Y113.348 E0.68543
G1 X145.322 Y113.348 E0.01689
G1 X130.112 Y98.138 E0.67787
G1 X130.648 Y98.138 E0.01689
G1 X145.858 Y113.348 E0.67787
G1 X146.394 Y113.348 E0.01689
G1 X131.184 Y98.138 E0.67787
G1 X131.720 Y98.138 E0.01689
G1 X146.930 Y113.348 E0.67787
G1 X147.466 Y113.348 E0.01689
G1 X132.256 Y98.138 E0.67787
G1 X132.792 Y98.138 E0.01689
G1 X148.002 Y113.348 E0.67787
G1 X148.538 Y113.348 E0.01689
G1 X133.328 Y98.138 E0.67787
G1 X133.864 Y98.138 E0.01689
G1 X149.074 Y113.348 E0.67787
G1 X149.610 Y113.348 E0.01689
G1 X134.400 Y98.138 E0.67787
G1 X134.936 Y98.138 E0.01689
G1 X150.146 Y113.348 E0.67787
G1 X150.682 Y113.348 E0.01689
G1 X135.472 Y98.138 E0.67787
G1 X136.008 Y98.138 E0.01689
G1 X151.218 Y113.348 E0.67787
G1 X151.754 Y113.348 E0.01689
G1 X136.544 Y98.138 E0.67787
G1 X137.080 Y98.138 E0.01689
G1 X152.290 Y113.348 E0.67787
G1 X152.826 Y113.348 E0.01689
G1 X137.616 Y98.138 E0.67787
G1 X138.152 Y98.138 E0.01689
G1 X153.362 Y113.348 E0.67787
G1 X153.898 Y113.348 E0.01689
G1 X138.688 Y98.138 E0.67787
G1 X139.224 Y98.138 E0.01689
G1 X154.315 Y113.230 E0.67258
G1 X154.482 Y112.860 E0.01278
G1 X139.760 Y98.138 E0.65610
G1 X140.296 Y98.138 E0.01689
G1 X154.636 Y112.478 E0.63911
G1 X154.791 Y112.097 E0.01297
G1 X140.832 Y98.138 E0.62211
G1 X141.368 Y98.138 E0.01689
G1 X154.946 Y111.716 E0.60512
G1 X155.101 Y111.335 E0.01297
G1 X141.904 Y98.138 E0.58813
G1 X142.440 Y98.138 E0.01689
G1 X155.255 Y110.953 E0.57113
G1 X155.410 Y110.572 E0.01297
G1 X142.976 Y98.138 E0.55414
G1 X143.512 Y98.138 E0.01689
G1 X155.565 Y110.191 E0.53715
G1 X155.719 Y109.809 E0.01297
G1 X144.048 Y98.138 E0.52015
G1 X144.584 Y98.138 E0.01689
G1 X155.874 Y109.428 E0.50316
G1 X156.029 Y109.047 E0.01297
G1 X145.120 Y98.138 E0.48617
G1 X145.656 Y98.138 E0.01689
G1 X156.183 Y108.666 E0.46917
G1 X156.338 Y108.284 E0.01297
G1 X146.192 Y98.138 E0.45218
G1 X146.728 Y98.138 E0.01689
G1 X156.493 Y107.903 E0.43519
G1 X156.647 Y107.522 E0.01297
G1 X147.264 Y98.138 E0.41819
G1 X147.800 Y98.138 E0.01689
G1 X156.802 Y107.140 E0.40120
G1 X156.957 Y106.759 E0.01297
G1 X148.336 Y98.138 E0.38421
G1 X148.872 Y98.138 E0.01689
G1 X157.112 Y106.378 E0.36721
G1 X157.266 Y105.996 E0.01297
G1 X149.408 Y98.138 E0.35022
G1 X149.944 Y98.138 E0.01689
G1 X157.421 Y105.615 E0.33323
G1 X157.494 Y105.436 E0.00608
G1 X157.494 Y105.152 E0.00896
G1 X150.480 Y98.138 E0.31258
G1 X150.599 Y98.138 E0.00375
G1 X150.599 Y97.721 E0.01314
G1 X157.494 Y104.616 E0.30727
G1 X157.494 Y104.080 E0.01689
G1 X150.599 Y97.185 E0.30728
G1 X150.599 Y96.649 E0.01689
G1 X157.494 Y103.544 E0.30728
G1 X157.494 Y103.008 E0.01689
G1 X150.599 Y96.113 E0.30728
G1 X150.599 Y95.577 E0.01689
G1 X157.494 Y102.472 E0.30729
G1 X157.494 Y101.936 E0.01689
G1 X150.599 Y95.041 E0.30729
G1 X150.599 Y94.506 E0.01689
G1 X157.494 Y101.401 E0.30730
G1 X157.494 Y100.865 E0.01689
G1 X150.599 Y93.970 E0.30730
G1 X150.599 Y93.434 E0.01689
G1 X157.494 Y100.329 E0.30731
G1 X157.495 Y99.793 E0.01689
G1 X150.599 Y92.898 E0.30731
G1 X150.599 Y92.362 E0.01689
G1 X157.495 Y99.257 E0.30732
G1 X157.495 Y98.721 E0.01689
G1 X150.599 Y91.826 E0.30732
G1 X150.599 Y91.290 E0.01689
G1 X157.495 Y98.185 E0.30732
G1 X157.495 Y97.649 E0.01689
G1 X150.599 Y90.754 E0.30733
G1 X150.599 Y90.668 E0.00268
G1 X150.825 Y90.443 E0.01005
G1 X157.495 Y97.113 E0.29729
G1 X157.495 Y96.578 E0.01689
G1 X151.093 Y90.175 E0.28535
M73 Q4 S41
M73 P4 R41
G1 X151.361 Y89.907 E0.01194
G1 X157.495 Y96.042 E0.27341
G1 X157.495 Y95.506 E0.01689
G1 X151.629 Y89.639 E0.26147
G1 X151.897 Y89.371 E0.01194
G1 X157.495 Y94.970 E0.24953
G1 X157.496 Y94.678 E0.00921
G1 X157.561 Y94.499 E0.00599
G1 X152.165 Y89.103 E0.24048
G1 X152.280 Y88.987 E0.00516
G1 X153.001 Y89.403 E0.02622
G1 X157.836 Y94.238 E0.21549
G1 F8640
G1 X155.509 Y91.911 E-0.76000
G1 E-0.04000 F2100.00000
G1 Z0.800 F10800.000
G1 X153.805 Y89.672
G1 Z0.200
G1 E0.80000 F2100.00000
G1 F1200
G1 X157.847 Y93.713 E0.18010
G1 X157.990 Y93.320 E0.01318
G1 X154.858 Y90.188 E0.13957
G1 X155.054 Y89.848 E0.01237
G1 X158.133 Y92.927 E0.13720
G1 X158.276 Y92.534 E0.01318
G1 X155.250 Y89.509 E0.13483
G1 X155.446 Y89.169 E0.01237
G1 X158.419 Y92.141 E0.13247
G1 X158.562 Y91.748 E0.01318
G1 X155.643 Y88.829 E0.13010
G1 X155.839 Y88.489 E0.01237
G1 X158.705 Y91.355 E0.12773
G1 X158.848 Y90.962 E0.01318
G1 X156.035 Y88.149 E0.12536
G1 X156.231 Y87.810 E0.01237
G1 X158.991 Y90.569 E0.12299
G1 X159.134 Y90.176 E0.01318
G1 X156.427 Y87.470 E0.12062
G1 X156.623 Y87.130 E0.01237
G1 X159.277 Y89.783 E0.11825
G1 X159.420 Y89.390 E0.01318
G1 X156.820 Y86.790 E0.11588
G1 X157.016 Y86.450 E0.01237
G1 X159.563 Y88.997 E0.11351
G1 X159.706 Y88.604 E0.01318
G1 X157.212 Y86.111 E0.11114
G1 X157.408 Y85.771 E0.01237
G1 X159.849 Y88.211 E0.10877
G1 X159.992 Y87.818 E0.01318
G1 X157.604 Y85.431 E0.10640
G1 X157.801 Y85.091 E0.01237
G1 X160.135 Y87.425 E0.10403
G1 X160.278 Y87.032 E0.01318
G1 X157.997 Y84.751 E0.10166
G1 X158.193 Y84.411 E0.01237
G1 X160.421 Y86.639 E0.09929
G1 X160.564 Y86.246 E0.01318
G1 X158.389 Y84.072 E0.09693
G1 X158.585 Y83.732 E0.01237
G1 X160.707 Y85.853 E0.09456
G1 X160.850 Y85.460 E0.01318
G1 X158.781 Y83.392 E0.09219
G1 X158.978 Y83.052 E0.01237
G1 X160.993 Y85.067 E0.08982
G1 X161.136 Y84.674 E0.01318
G1 X159.174 Y82.712 E0.08745
G1 X159.370 Y82.373 E0.01237
G1 X161.279 Y84.282 E0.08508
G1 X161.422 Y83.889 E0.01318
G1 X159.566 Y82.033 E0.08271
G1 X159.762 Y81.693 E0.01237
G1 X161.697 Y83.628 E0.08624
G1 X161.840 Y83.235 F10800.000
G1 F1200
G1 X156.180 Y77.575 E0.25225
G1 X156.012 Y77.478 E0.00612
G1 X155.547 Y77.478 E0.01465
G1 X158.668 Y80.599 E0.13909
G1 F8640
G1 X156.341 Y78.271 E-0.76000
G1 E-0.04000 F2100.00000
G1 Z0.800 F10800.000
G1 X157.400 Y79.866
G1 Z0.200
G1 E0.80000 F2100.00000
G1 F1200
G1 X155.011 Y77.478 E0.10645
G1 X154.475 Y77.478 E0.01689
G1 X156.131 Y79.134 E0.07381
G1 F8640
G1 X154.475 Y77.478 E-0.54078
G1 X155.011 Y77.478 E-0.12376
G1 X155.304 Y77.770 E-0.09546
G1 E-0.04000 F2100.00000
G1 Z0.800 F10800.000
G1 X154.863 Y78.402
G1 Z0.200
G1 E0.80000 F2100.00000
G1 F1200
G1 X153.770 Y77.308 E0.04873
G1 F8640
G1 X154.863 Y78.402 E-0.35702
G1 E-0.44298 F2100.00000
G1 Z0.800 F10800.000
G1 X152.695 Y77.167
G1 Z0.200
G1 E0.80000 F2100.00000
G1 F1200
G1 X152.274 Y77.153 E0.01055
G1 X152.252 Y77.220 E0.00173
G1 X152.229 Y77.288 E0.00146
G1 X152.229 Y88.300 E0.18582
G1 F8640
G1 X152.229 Y85.009 E-0.76000
G1 E-0.04000 F2100.00000
G1 Z0.800 F10800.000
G1 X161.983 Y82.842
G1 Z0.200
G1 E0.80000 F2100.00000
G1 F1200
G1 X156.985 Y77.844 E0.22276
G1 F8640
G1 X159.312 Y80.171 E-0.76000
G1 E-0.04000 F2100.00000
G1 Z0.800 F10800.000
G1 X158.254 Y78.576
G1 Z0.200
G1 E0.80000 F2100.00000
G1 F1200
G1 X162.126 Y82.449 E0.17260
G1 X162.269 Y82.056 F10800.000
G1 F1200
G1 X159.522 Y79.309 E0.12245
G1 F8640
G1 X161.849 Y81.636 E-0.76000
G1 E-0.04000 F2100.00000
G1 Z0.800 F10800.000
G1 X160.790 Y80.041
G1 Z0.200
