; generated by Slic3r Prusa Edition 1.41.2+ on 2018-11-30 at 14:19:20

; Slow down perimeters to see if it will stop the hull bulging

; external perimeters extrusion width = 0.45mm
; perimeters extrusion width = 0.45mm
; infill extrusion width = 0.45mm
; solid infill extrusion width = 0.45mm
; top infill extrusion width = 0.40mm
; first layer extrusion width = 0.42mm

M73 P0 R87
M73 Q0 S87
M201 X1000 Y1000 Z1000 E5000 ; sets maximum accelerations, mm/sec^2
M203 X200 Y200 Z12 E120 ; sets maximum feedrates, mm/sec
M204 P1250 R1250 T1250 ; sets acceleration (P, T) and retract acceleration (R), mm/sec^2
M205 X8.00 Y8.00 Z0.40 E1.50 ; sets the jerk limits, mm/sec
M205 S0 T0 ; sets the minimum extruding and travel feed rate, mm/sec
M107
M115 U3.4.1 ; tell printer latest fw version
M83  ; extruder relative mode
M104 S240 ; set extruder temp
M140 S100 ; set bed temp
M190 S100 ; wait for bed temp
M109 S240 ; wait for extruder temp
G28 W ; home all without mesh bed level
G80 ; mesh bed leveling
G1 Y-3.0 F1000.0 ; go outside print area
G92 E0.0
G1 X60.0 E9.0  F1000.0 ; intro line
M73 Q0 S87
M73 P0 R87
G1 X100.0 E12.5  F1000.0 ; intro line
G92 E0.0
M221 S95
M900 K30; Filament gcode
G21 ; set units to millimeters
G90 ; use absolute coordinates
M83 ; use relative distances for extrusion
;BEFORE_LAYER_CHANGE
G92 E0.0
;0.2


G1 E-0.80000 F2100.00000
G1 Z0.600 F10800.000
;AFTER_LAYER_CHANGE
;0.2
G1 X102.065 Y87.418
G1 Z0.200
G1 E0.80000 F2100.00000
M204 S1000
G1 F1200
G1 X102.413 Y86.792 E0.02113
G1 X102.746 Y86.455 E0.01398
G1 X103.148 Y86.196 E0.01408
G1 X103.596 Y86.030 E0.01408
G1 X104.066 Y85.965 E0.01398
G1 X132.676 Y85.965 E0.84323
G1 X133.489 Y86.123 E0.02441
G1 X134.185 Y86.572 E0.02441
G1 X134.665 Y87.247 E0.02441
G1 X134.859 Y88.052 E0.02441
G1 X134.861 Y121.876 E0.99689
G1 X134.734 Y122.581 E0.02113
G1 X134.386 Y123.208 E0.02113
G1 X134.044 Y123.552 E0.01430
G1 X133.635 Y123.812 E0.01430
G1 X133.178 Y123.976 E0.01430
G1 X132.697 Y124.035 E0.01430
G1 X104.094 Y124.035 E0.84302
G1 X103.392 Y123.908 E0.02102
G1 X102.765 Y123.560 E0.02113
G1 X102.421 Y123.218 E0.01430
G1 X102.161 Y122.809 E0.01430
G1 X101.997 Y122.352 E0.01430
G1 X101.938 Y121.867 E0.01440
G1 X101.938 Y88.124 E0.99452
G1 X102.054 Y87.477 E0.01936
; PURGING FINISHED
G1 F8640
G1 X102.413 Y86.792 E-0.17867
G1 X102.746 Y86.455 E-0.10949
G1 X103.148 Y86.196 E-0.11033
G1 X103.596 Y86.030 E-0.11033
G1 X104.066 Y85.965 E-0.10949
G1 X104.680 Y85.965 E-0.14168
G1 E-0.04000 F2100.00000
G1 Z0.800 F10800.000
G1 X104.714 Y88.740
G1 Z0.200
G1 E0.80000 F2100.00000
G1 F1200
G1 X132.086 Y88.740 E0.80673
G1 X132.086 Y90.936 E0.06472
G1 X130.913 Y92.286 E0.05271
G1 X131.354 Y93.085 E0.02689
G1 X130.937 Y93.787 E0.02409
G1 X131.547 Y94.712 E0.03267
G1 X115.076 Y94.712 E0.48546
G1 X114.753 Y95.202 E0.01730
G1 X114.753 Y97.872 E0.07871
G1 X114.753 Y115.096 E0.50764
G1 X115.213 Y115.414 E0.01648
G1 X116.589 Y115.537 E0.04072
G1 X131.339 Y115.537 E0.43471
G1 X131.391 Y115.692 E0.00481
G1 X130.867 Y116.085 E0.01930
G1 X131.484 Y117.031 E0.03330
G1 X131.026 Y117.665 E0.02303
G1 X131.615 Y118.363 E0.02691
G1 X131.048 Y119.042 E0.02608
G1 X132.086 Y120.268 E0.04734
G1 X132.086 Y121.260 E0.02922
G1 X104.714 Y121.260 E0.80673
G1 X104.714 Y88.800 E0.95668
G1 F8640
G1 X108.005 Y88.793 E-0.76000
G1 E-0.04000 F2100.00000
G1 Z0.800 F10800.000
G1 X131.370 Y92.335
G1 Z0.200
G1 E0.80000 F2100.00000
G1 F1200
G1 X131.789 Y93.091 E0.02550
G1 X131.382 Y93.777 E0.02350
G1 X131.848 Y94.482 E0.02492
G1 X131.858 Y94.559 E0.00228
G1 X131.946 Y94.733 E0.00575
G1 X131.740 Y95.089 E0.01213
G1 X115.279 Y95.089 E0.48515
G1 X115.130 Y95.315 E0.00798
G1 X115.130 Y114.899 E0.57718
G1 X115.346 Y115.047 E0.00772
G1 X116.606 Y115.160 E0.03730
G1 X131.936 Y115.160 E0.45181
G1 X132.020 Y115.594 E0.01303
G1 X131.999 Y115.707 E0.00337
G1 X131.376 Y116.175 E0.02298
G1 X131.886 Y116.957 E0.02752
G1 X131.916 Y117.077 E0.00366
G1 X131.504 Y117.647 E0.02071
G1 X132.012 Y118.249 E0.02322
G1 X132.025 Y118.460 E0.00623
G1 X131.540 Y119.040 E0.02229
G1 X132.463 Y120.130 E0.04207
G1 X132.463 Y121.637 E0.04441
G1 X104.337 Y121.637 E0.82896
G1 X104.337 Y88.363 E0.98068
G1 X132.463 Y88.363 E0.82896
G1 X132.463 Y91.077 E0.07999
G1 X131.410 Y92.289 E0.04732
G1 X131.083 Y92.613 F10800.000
G1 F8640
G1 X131.789 Y93.091 E-0.20492
G1 X131.382 Y93.777 E-0.18408
G1 X131.848 Y94.482 E-0.19525
G1 X131.858 Y94.559 E-0.01786
G1 X131.946 Y94.733 E-0.04508
G1 X131.740 Y95.089 E-0.09499
G1 X131.663 Y95.089 E-0.01781
G1 E-0.04000 F2100.00000
G1 Z0.800 F10800.000
G1 X131.972 Y89.620
G1 Z0.200
G1 E0.80000 F2100.00000
G1 F1200
G1 X131.376 Y89.023 E0.02502
G1 X130.839 Y89.023 E0.01589
G1 X131.803 Y89.986 E0.04037
G1 X131.803 Y90.523 E0.01589
G1 X130.303 Y89.023 E0.06284
G1 X129.767 Y89.023 E0.01589
G1 X131.697 Y90.953 E0.08087
G1 X131.447 Y91.240 E0.01126
G1 X129.231 Y89.023 E0.09289
G1 X128.695 Y89.023 E0.01589
G1 X131.198 Y91.526 E0.10491
G1 X130.949 Y91.813 E0.01126
G1 X128.159 Y89.023 E0.11694
G1 X127.622 Y89.023 E0.01589
G1 X130.700 Y92.100 E0.12896
G1 X130.569 Y92.250 E0.00589
G1 X130.887 Y92.823 E0.01941
G1 X127.086 Y89.023 E0.15927
G1 X126.550 Y89.023 E0.01589
G1 X130.871 Y93.344 E0.18108
G1 X130.671 Y93.680 E0.01159
G1 X126.014 Y89.023 E0.19517
G1 X125.478 Y89.023 E0.01589
G1 X130.884 Y94.429 E0.22656
G1 X130.348 Y94.429 E0.01589
G1 X124.942 Y89.023 E0.22656
G1 X124.405 Y89.023 E0.01589
G1 X129.812 Y94.429 E0.22656
G1 X129.275 Y94.429 E0.01589
G1 X123.869 Y89.023 E0.22656
G1 X123.333 Y89.023 E0.01589
G1 X128.739 Y94.429 E0.22656
G1 X128.203 Y94.429 E0.01589
G1 X122.797 Y89.023 E0.22656
G1 X122.261 Y89.023 E0.01589
G1 X127.667 Y94.429 E0.22656
G1 X127.131 Y94.429 E0.01589
G1 X121.725 Y89.023 E0.22656
G1 X121.188 Y89.023 E0.01589
G1 X126.595 Y94.429 E0.22656
G1 X126.058 Y94.429 E0.01589
G1 X120.652 Y89.023 E0.22656
G1 X120.116 Y89.023 E0.01589
G1 X125.522 Y94.429 E0.22656
G1 X124.986 Y94.429 E0.01589
G1 X119.580 Y89.023 E0.22656
G1 X119.044 Y89.023 E0.01589
G1 X124.450 Y94.429 E0.22656
G1 X123.914 Y94.429 E0.01589
G1 X118.508 Y89.023 E0.22656
G1 X117.971 Y89.023 E0.01589
G1 X123.378 Y94.429 E0.22656
G1 X122.841 Y94.429 E0.01589
G1 X117.435 Y89.023 E0.22656
G1 X116.899 Y89.023 E0.01589
G1 X122.305 Y94.429 E0.22656
G1 X121.769 Y94.429 E0.01589
G1 X116.363 Y89.023 E0.22656
G1 X115.827 Y89.023 E0.01589
G1 X121.233 Y94.429 E0.22656
G1 X120.697 Y94.429 E0.01589
G1 X115.291 Y89.023 E0.22656
G1 X114.754 Y89.023 E0.01589
G1 X120.161 Y94.429 E0.22656
G1 X119.624 Y94.429 E0.01589
G1 X114.218 Y89.023 E0.22656
G1 X113.682 Y89.023 E0.01589
G1 X119.088 Y94.429 E0.22656
G1 X118.552 Y94.429 E0.01589
G1 X113.146 Y89.023 E0.22656
G1 X112.610 Y89.023 E0.01589
G1 X118.016 Y94.429 E0.22656
G1 X117.480 Y94.429 E0.01589
G1 X112.074 Y89.023 E0.22656
G1 X111.537 Y89.023 E0.01589
G1 X116.944 Y94.429 E0.22656
G1 X116.407 Y94.429 E0.01589
G1 X111.001 Y89.023 E0.22656
G1 X110.465 Y89.023 E0.01589
G1 X115.871 Y94.429 E0.22656
G1 X115.335 Y94.429 E0.01589
G1 X109.929 Y89.023 E0.22656
G1 X109.393 Y89.023 E0.01589
G1 X114.874 Y94.505 E0.22972
G1 X114.661 Y94.827 E0.01147
G1 X108.857 Y89.023 E0.24325
G1 X108.320 Y89.023 E0.01589
G1 X114.470 Y95.173 E0.25771
G1 X114.470 Y95.709 E0.01589
G1 X107.784 Y89.023 E0.28018
G1 X107.248 Y89.023 E0.01589
G1 X114.470 Y96.245 E0.30265
G1 X114.470 Y96.781 E0.01589
G1 X106.712 Y89.023 E0.32512
G1 X106.176 Y89.023 E0.01589
G1 X114.470 Y97.317 E0.34759
G1 X114.470 Y97.853 E0.01589
G1 X105.640 Y89.023 E0.37006
G1 X105.103 Y89.023 E0.01589
G1 X114.470 Y98.390 E0.39253
G1 X114.470 Y98.926 E0.01589
G1 X104.997 Y89.452 E0.39701
G1 X104.997 Y89.988 E0.01589
G1 X114.470 Y99.462 E0.39701
G1 X114.470 Y99.998 E0.01589
G1 X104.997 Y90.525 E0.39701
G1 X104.997 Y91.061 E0.01589
G1 X114.470 Y100.534 E0.39701
G1 X114.470 Y101.070 E0.01589
G1 X104.997 Y91.597 E0.39701
G1 X104.997 Y92.133 E0.01589
G1 X114.470 Y101.607 E0.39701
G1 X114.470 Y102.143 E0.01589
G1 X104.997 Y92.669 E0.39701
G1 X104.997 Y93.205 E0.01589
G1 X114.470 Y102.679 E0.39701
G1 X114.470 Y103.215 E0.01589
G1 X104.997 Y93.742 E0.39701
G1 X104.997 Y94.278 E0.01589
G1 X114.470 Y103.751 E0.39701
G1 X114.470 Y104.287 E0.01589
G1 X104.997 Y94.814 E0.39701
G1 X104.997 Y95.350 E0.01589
G1 X114.470 Y104.824 E0.39701
G1 X114.470 Y105.360 E0.01589
G1 X104.997 Y95.886 E0.39702
G1 X104.997 Y96.422 E0.01589
G1 X114.470 Y105.896 E0.39702
G1 X114.470 Y106.432 E0.01589
G1 X104.997 Y96.959 E0.39702
G1 X104.997 Y97.495 E0.01589
G1 X114.470 Y106.968 E0.39702
G1 X114.470 Y107.505 E0.01589
G1 X104.997 Y98.031 E0.39702
G1 X104.997 Y98.567 E0.01589
G1 X114.470 Y108.041 E0.39702
M73 Q1 S86
M73 P1 R86
G1 X114.470 Y108.577 E0.01589
G1 X104.997 Y99.103 E0.39702
G1 X104.997 Y99.639 E0.01589
G1 X114.470 Y109.113 E0.39702
G1 X114.470 Y109.649 E0.01589
G1 X104.997 Y100.176 E0.39702
G1 X104.997 Y100.712 E0.01589
G1 X114.470 Y110.185 E0.39702
G1 X114.470 Y110.722 E0.01589
G1 X104.997 Y101.248 E0.39702
G1 X104.997 Y101.784 E0.01589
G1 X114.470 Y111.258 E0.39702
G1 X114.470 Y111.794 E0.01589
G1 X104.997 Y102.320 E0.39702
G1 X104.997 Y102.856 E0.01589
G1 X114.470 Y112.330 E0.39702
G1 X114.470 Y112.866 E0.01589
G1 X104.997 Y103.393 E0.39702
G1 X104.997 Y103.929 E0.01589
G1 X114.470 Y113.402 E0.39702
G1 X114.470 Y113.939 E0.01589
G1 X104.997 Y104.465 E0.39702
G1 X104.997 Y105.001 E0.01589
G1 X114.640 Y114.644 E0.40413
G1 F8640
G1 X112.313 Y112.317 E-0.76000
G1 E-0.04000 F2100.00000
G1 Z0.800 F10800.000
G1 X104.827 Y120.380
G1 Z0.200
G1 E0.80000 F2100.00000
G1 F1200
G1 X105.424 Y120.977 E0.02501
G1 X105.960 Y120.977 E0.01589
G1 X104.997 Y120.014 E0.04037
G1 X104.997 Y119.477 E0.01589
G1 X106.496 Y120.977 E0.06284
G1 X107.032 Y120.977 E0.01589
G1 X104.997 Y118.941 E0.08531
G1 X104.997 Y118.405 E0.01589
G1 X107.568 Y120.977 E0.10778
G1 X108.104 Y120.977 E0.01589
G1 X104.997 Y117.869 E0.13025
G1 X104.997 Y117.333 E0.01589
G1 X108.641 Y120.977 E0.15271
G1 X109.177 Y120.977 E0.01589
G1 X104.997 Y116.797 E0.17518
G1 X104.997 Y116.260 E0.01589
G1 X109.713 Y120.977 E0.19765
G1 X110.249 Y120.977 E0.01589
G1 X104.997 Y115.724 E0.22012
G1 X104.997 Y115.188 E0.01589
G1 X110.785 Y120.977 E0.24259
G1 X111.321 Y120.977 E0.01589
G1 X104.997 Y114.652 E0.26506
G1 X104.997 Y114.116 E0.01589
G1 X111.858 Y120.977 E0.28753
G1 X112.394 Y120.977 E0.01589
G1 X104.997 Y113.580 E0.31000
G1 X104.997 Y113.043 E0.01589
G1 X112.930 Y120.977 E0.33247
G1 X113.466 Y120.977 E0.01589
G1 X104.997 Y112.507 E0.35494
G1 X104.997 Y111.971 E0.01589
G1 X114.002 Y120.977 E0.37741
G1 X114.538 Y120.977 E0.01589
G1 X104.997 Y111.435 E0.39988
G1 X104.997 Y110.899 E0.01589
G1 X115.075 Y120.977 E0.42235
G1 X115.611 Y120.977 E0.01589
G1 X104.997 Y110.363 E0.44482
G1 X104.997 Y109.826 E0.01589
G1 X116.147 Y120.977 E0.46728
G1 X116.683 Y120.977 E0.01589
G1 X104.997 Y109.290 E0.48975
G1 X104.997 Y108.754 E0.01589
G1 X117.219 Y120.977 E0.51222
G1 X117.755 Y120.977 E0.01589
G1 X104.997 Y108.218 E0.53469
G1 X104.997 Y107.682 E0.01589
G1 X118.292 Y120.977 E0.55716
G1 X118.828 Y120.977 E0.01589
G1 X104.997 Y107.146 E0.57963
G1 X104.997 Y106.610 E0.01589
G1 X119.364 Y120.977 E0.60210
G1 X119.900 Y120.977 E0.01589
G1 X104.997 Y106.073 E0.62457
G1 X104.997 Y105.537 E0.01589
G1 X120.436 Y120.977 E0.64704
G1 X120.972 Y120.977 E0.01589
G1 X115.741 Y115.745 E0.21924
G1 X116.330 Y115.798 E0.01752
G1 X121.509 Y120.977 E0.21704
G1 X122.045 Y120.977 E0.01589
G1 X116.888 Y115.820 E0.21611
G1 X117.424 Y115.820 E0.01589
G1 X122.581 Y120.977 E0.21611
G1 X123.117 Y120.977 E0.01589
G1 X117.960 Y115.820 E0.21611
G1 X118.496 Y115.820 E0.01589
G1 X123.653 Y120.977 E0.21611
G1 X124.189 Y120.977 E0.01589
G1 X119.033 Y115.820 E0.21611
G1 X119.569 Y115.820 E0.01589
G1 X124.726 Y120.977 E0.21611
G1 X125.262 Y120.977 E0.01589
G1 X120.105 Y115.820 E0.21611
G1 X120.641 Y115.820 E0.01589
G1 X125.798 Y120.977 E0.21611
G1 X126.334 Y120.977 E0.01589
G1 X121.177 Y115.820 E0.21611
G1 X121.713 Y115.820 E0.01589
G1 X126.870 Y120.977 E0.21611
G1 X127.406 Y120.977 E0.01589
G1 X122.250 Y115.820 E0.21611
G1 X122.786 Y115.820 E0.01589
G1 X127.943 Y120.977 E0.21611
G1 X128.479 Y120.977 E0.01589
G1 X123.322 Y115.820 E0.21611
G1 X123.858 Y115.820 E0.01589
G1 X129.015 Y120.977 E0.21611
G1 X129.551 Y120.977 E0.01589
G1 X124.394 Y115.820 E0.21611
G1 X124.930 Y115.820 E0.01589
G1 X130.087 Y120.977 E0.21611
G1 X130.623 Y120.977 E0.01589
G1 X125.467 Y115.820 E0.21611
G1 X126.003 Y115.820 E0.01589
G1 X131.160 Y120.977 E0.21611
G1 X131.696 Y120.977 E0.01589
G1 X126.539 Y115.820 E0.21611
G1 X127.075 Y115.820 E0.01589
G1 X131.972 Y120.717 E0.20524
G1 F8640
G1 X129.645 Y118.390 E-0.76000
G1 E-0.04000 F2100.00000
G1 Z0.800 F10800.000
G1 X131.266 Y119.475
G1 Z0.200
G1 E0.80000 F2100.00000
G1 F1200
G1 X127.611 Y115.820 E0.15316
G1 X128.147 Y115.820 E0.01589
G1 X130.993 Y118.666 E0.11926
G1 X131.237 Y118.374 E0.01128
G1 X128.684 Y115.820 E0.10702
G1 X129.220 Y115.820 E0.01589
G1 X130.840 Y117.440 E0.06788
G1 X131.065 Y117.129 E0.01138
G1 X129.756 Y115.820 E0.05484
G1 X130.292 Y115.820 E0.01589
G1 X131.060 Y116.588 E0.03217
;BEFORE_LAYER_CHANGE
G92 E0.0
;0.4


G1 F8640
G1 X130.292 Y115.820 E-0.25064
G1 X129.756 Y115.820 E-0.12380
G1 X130.937 Y117.001 E-0.38556
G1 E-0.04000 F2100.00000
G1 Z0.800 F10800.000
;AFTER_LAYER_CHANGE
;0.4
M104 S235 ; set temperature
M140 S110 ; set bed temperature
G1 X134.734 Y122.581
G1 Z0.400
G1 E0.80000 F2100.00000
G1 F3000
G1 X134.386 Y123.208 E0.02113
G1 X134.044 Y123.552 E0.01430
G1 X133.635 Y123.812 E0.01430
G1 X133.178 Y123.976 E0.01430
G1 X132.697 Y124.035 E0.01430
G1 X104.094 Y124.035 E0.84302
G1 X103.392 Y123.908 E0.02102
G1 X102.765 Y123.560 E0.02113
G1 X102.421 Y123.218 E0.01430
G1 X102.161 Y122.809 E0.01430
G1 X101.997 Y122.352 E0.01430
G1 X101.938 Y121.867 E0.01440
G1 X101.938 Y88.124 E0.99452
G1 X102.065 Y87.418 E0.02113
G1 X102.413 Y86.792 E0.02113
G1 X102.746 Y86.455 E0.01398
G1 X103.148 Y86.196 E0.01408
G1 X103.596 Y86.030 E0.01408
G1 X104.066 Y85.965 E0.01398
G1 X132.676 Y85.965 E0.84323
G1 X133.489 Y86.123 E0.02441
G1 X134.185 Y86.572 E0.02441
G1 X134.665 Y87.247 E0.02441
G1 X134.859 Y88.052 E0.02441
G1 X134.861 Y121.876 E0.99689
G1 X134.745 Y122.522 E0.01936
; PURGING FINISHED
G1 F8640
G1 X134.386 Y123.208 E-0.17867
G1 X134.044 Y123.552 E-0.11201
G1 X133.635 Y123.812 E-0.11201
G1 X133.178 Y123.976 E-0.11201
G1 X132.697 Y124.035 E-0.11201
G1 X132.120 Y124.035 E-0.13329
G1 E-0.04000 F2100.00000
G1 Z1.000 F10800.000
G1 X132.041 Y121.215
G1 Z0.400
G1 E0.80000 F2100.00000
M204 S800
G1 F2700
G1 X104.759 Y121.215 E0.86805
G1 X104.759 Y88.785 E1.03184
G1 X132.041 Y88.785 E0.86805
G1 X132.041 Y91.280 E0.07937
G1 X131.838 Y91.452 E0.00846
G1 X131.140 Y92.280 E0.03446
G1 X131.534 Y92.992 E0.02590
G1 X131.534 Y93.165 E0.00551
G1 X131.161 Y93.792 E0.02320
G1 X131.609 Y94.469 E0.02582
G1 X131.636 Y94.667 E0.00637
G1 X115.156 Y94.667 E0.52434
G1 X114.708 Y95.347 E0.02591
G1 X114.708 Y97.677 E0.07414
G1 X114.708 Y115.033 E0.55223
G1 X115.356 Y115.480 E0.02506
G1 X116.495 Y115.582 E0.03638
G1 X131.662 Y115.582 E0.48257
G1 X131.623 Y115.795 E0.00687
G1 X131.166 Y116.138 E0.01817
G1 X131.704 Y116.962 E0.03132
G1 X131.796 Y117.322 E0.01182
G1 X131.544 Y117.670 E0.01366
G1 X131.889 Y118.080 E0.01704
G1 X131.927 Y118.711 E0.02012
G1 X131.650 Y119.043 E0.01378
G1 X132.041 Y119.505 E0.01925
G1 X132.041 Y121.155 E0.05249
M204 S1000
G1 F8640
G1 X128.749 Y121.162 E-0.76000
G1 E-0.04000 F2100.00000
G1 Z1.000 F10800.000
G1 X115.376 Y95.074
G1 Z0.400
G1 E0.80000 F2100.00000
M204 S800
G1 X115.115 Y95.469 E0.01505
G1 X115.115 Y114.819 E0.61568
G1 X115.499 Y115.084 E0.01485
G1 X116.513 Y115.175 E0.03239
G1 X132.044 Y115.175 E0.49416
G1 X132.099 Y115.457 E0.00912
G1 X132.055 Y115.698 E0.00781
G1 X132.137 Y115.918 E0.00748
G1 X131.716 Y116.234 E0.01676
G1 X132.082 Y116.796 E0.02135
G1 X132.223 Y117.352 E0.01825
G1 F1800
G1 X132.237 Y117.406 E0.00261
G1 X132.060 Y117.651 E0.01407
G1 X132.289 Y117.941 E0.01722
G1 F2100
G1 X132.336 Y118.727 E0.02506
G1 F1800
G1 X132.343 Y118.847 E0.00563
G1 X132.181 Y119.041 E0.01177
G1 X132.448 Y119.356 E0.01922
G1 X132.448 Y119.478 E0.00571
G1 F2100
G1 X132.448 Y121.622 E0.06821
