; generated by Slic3r Prusa Edition 1.41.2+ on 2018-11-29 at 23:17:17

; Slow down perimeters to see if it will stop the hull bulging

; external perimeters extrusion width = 0.45mm
; perimeters extrusion width = 0.45mm
; infill extrusion width = 0.45mm
; solid infill extrusion width = 0.45mm
; top infill extrusion width = 0.40mm
; first layer extrusion width = 0.42mm

M73 P0 R132
M73 Q0 S132
M201 X1000 Y1000 Z1000 E5000 ; sets maximum accelerations, mm/sec^2
M203 X200 Y200 Z12 E120 ; sets maximum feedrates, mm/sec
M204 P1250 R1250 T1250 ; sets acceleration (P, T) and retract acceleration (R), mm/sec^2
M205 X8.00 Y8.00 Z0.40 E1.50 ; sets the jerk limits, mm/sec
M205 S0 T0 ; sets the minimum extruding and travel feed rate, mm/sec
M107
M115 U3.4.1 ; tell printer latest fw version
M83  ; extruder relative mode
M104 S250 ; set extruder temp
M140 S100 ; set bed temp
M190 S100 ; wait for bed temp
M109 S250 ; wait for extruder temp
G28 W ; home all without mesh bed level
G80 ; mesh bed leveling
G1 Y-3.0 F1000.0 ; go outside print area
G92 E0.0
G1 X60.0 E9.0  F1000.0 ; intro line
M73 Q0 S132
M73 P0 R132
G1 X100.0 E12.5  F1000.0 ; intro line
G92 E0.0
M221 S95
M900 K30; Filament gcode
G21 ; set units to millimeters
G90 ; use absolute coordinates
M83 ; use relative distances for extrusion
;BEFORE_LAYER_CHANGE
G92 E0.0
;0.2


G1 E-0.80000 F2100.00000
G1 Z0.600 F10800.000
;AFTER_LAYER_CHANGE
;0.2
G1 X105.190 Y88.919
G1 Z0.200
G1 E0.80000 F2100.00000
M204 S1000
G1 F1200
G1 X106.232 Y88.761 E0.03307
G1 X147.484 Y88.731 E1.29340
G1 X148.645 Y88.896 E0.03677
G1 X149.569 Y89.390 E0.03287
G1 X149.949 Y89.771 E0.01687
G1 X150.234 Y90.208 E0.01637
G1 X150.428 Y90.705 E0.01671
G1 X150.515 Y91.226 E0.01657
G1 X150.535 Y118.658 E0.86012
G1 X150.449 Y119.255 E0.01891
G1 X150.228 Y119.816 E0.01891
G1 X149.896 Y120.295 E0.01827
G1 X149.470 Y120.683 E0.01807
G1 X148.610 Y121.104 E0.03001
G1 X147.590 Y121.253 E0.03232
G1 X106.254 Y121.268 E1.29606
G1 X105.486 Y121.185 E0.02423
G1 X104.838 Y120.971 E0.02139
G1 X104.270 Y120.619 E0.02095
G1 X103.794 Y120.120 E0.02161
G1 X103.443 Y119.438 E0.02405
G1 X103.307 Y118.642 E0.02532
G1 X103.292 Y91.391 E0.85445
G1 X103.369 Y90.793 E0.01892
G1 X103.573 Y90.249 E0.01818
G1 X103.916 Y89.737 E0.01933
G1 X104.359 Y89.331 E0.01887
G1 X105.136 Y88.945 E0.02717
; PURGING FINISHED
G1 F8640
G1 X106.232 Y88.761 E-0.25676
G1 X108.412 Y88.760 E-0.50324
G1 E-0.04000 F2100.00000
G1 Z0.800 F10800.000
G1 X113.248 Y103.317
G1 Z0.200
G1 E0.80000 F2100.00000
G1 F1200
G1 X114.107 Y102.848 E0.03068
G1 X114.516 Y102.698 E0.01366
G1 X114.958 Y102.599 E0.01422
G1 X115.262 Y102.571 E0.00956
G1 X115.712 Y102.578 E0.01410
G1 X116.097 Y102.640 E0.01223
G1 X116.591 Y102.824 E0.01654
G1 X116.848 Y102.986 E0.00954
G1 X117.022 Y103.130 E0.00707
G1 X117.539 Y102.848 E0.01848
G1 X117.948 Y102.698 E0.01366
G1 X118.390 Y102.599 E0.01422
G1 X118.694 Y102.571 E0.00956
G1 X119.144 Y102.578 E0.01410
G1 X119.529 Y102.640 E0.01223
G1 X120.023 Y102.824 E0.01654
G1 X120.101 Y102.873 E0.00290
G1 X120.946 Y102.603 E0.02782
G1 X121.385 Y102.563 E0.01382
G1 X121.799 Y102.605 E0.01302
G1 X122.048 Y102.677 E0.00813
G1 X122.263 Y102.783 E0.00754
G1 X122.543 Y102.963 E0.01041
G1 X122.799 Y103.291 E0.01306
G1 X122.908 Y103.145 E0.00569
G1 X123.483 Y102.772 E0.02149
G1 X123.924 Y102.624 E0.01460
G1 X124.399 Y102.571 E0.01497
G1 X124.772 Y102.574 E0.01172
G1 X125.289 Y102.647 E0.01637
G1 X125.629 Y102.773 E0.01135
G1 X125.963 Y102.969 E0.01215
G1 X125.963 Y102.684 E0.00893
G1 X131.569 Y102.684 E0.17579
G1 X131.763 Y102.624 E0.00635
G1 X132.081 Y102.574 E0.01011
G1 X132.533 Y102.582 E0.01416
G1 X132.882 Y102.667 E0.01128
G1 X133.157 Y102.796 E0.00950
G1 X133.157 Y102.684 E0.00351
G1 X135.073 Y102.684 E0.06010
G1 X135.267 Y102.624 E0.00635
G1 X135.585 Y102.574 E0.01011
G1 X136.037 Y102.582 E0.01416
G1 X136.386 Y102.667 E0.01128
G1 X136.819 Y102.871 E0.01498
G1 X136.878 Y102.662 E0.00680
G1 X136.997 Y102.425 E0.00830
G1 X137.187 Y102.165 E0.01010
G1 X137.431 Y101.893 E0.01147
G1 X137.937 Y101.598 E0.01834
G1 X138.255 Y101.473 E0.01073
G1 X138.588 Y101.403 E0.01066
G1 X138.956 Y101.371 E0.01158
G1 X139.456 Y101.379 E0.01569
G1 X140.023 Y101.485 E0.01810
G1 X140.430 Y101.630 E0.01354
G1 X141.276 Y102.081 E0.03007
G1 X140.691 Y103.243 E0.04079
G1 X141.003 Y103.748 E0.01861
G1 X141.142 Y104.172 E0.01400
G1 X141.196 Y104.467 E0.00939
G1 X141.219 Y104.865 E0.01250
G1 X141.205 Y105.374 E0.01599
G1 X141.164 Y105.659 E0.00901
G1 X141.082 Y105.926 E0.00877
G1 X140.974 Y106.189 E0.00890
G1 X140.832 Y106.423 E0.00860
G1 X140.592 Y106.715 E0.01185
G1 X140.269 Y106.974 E0.01298
G1 X139.805 Y107.183 E0.01595
G1 X139.297 Y107.254 E0.01607
G1 X138.831 Y107.195 E0.01472
G1 X138.648 Y107.129 E0.00611
G1 X136.725 Y107.129 E0.06028
G1 X136.726 Y106.942 E0.00586
G1 X136.194 Y107.130 E0.01768
G1 X135.734 Y107.221 E0.01471
G1 X135.106 Y107.244 E0.01971
G1 X134.808 Y107.222 E0.00938
G1 X134.499 Y107.163 E0.00985
G1 X134.193 Y107.044 E0.01031
G1 X133.723 Y106.764 E0.01715
G1 X133.678 Y106.706 E0.00231
G1 X133.224 Y106.941 E0.01603
G1 X132.690 Y107.130 E0.01773
G1 X132.230 Y107.221 E0.01471
G1 X131.602 Y107.244 E0.01971
G1 X131.304 Y107.222 E0.00938
G1 X130.995 Y107.163 E0.00985
G1 X130.689 Y107.044 E0.01031
G1 X130.335 Y106.833 E0.01291
G1 X130.335 Y108.059 E0.03842
G1 X126.017 Y108.059 E0.13539
G1 X126.017 Y106.794 E0.03964
G1 X125.648 Y107.032 E0.01377
G1 X125.401 Y107.133 E0.00835
G1 X125.071 Y107.209 E0.01061
G1 X124.561 Y107.250 E0.01605
G1 X124.138 Y107.221 E0.01330
G1 X123.712 Y107.134 E0.01364
G1 X123.382 Y106.987 E0.01133
G1 X123.039 Y106.757 E0.01295
G1 X123.039 Y108.299 E0.04835
G1 X120.557 Y108.299 E0.07782
G1 X120.556 Y106.626 E0.05243
G1 X120.204 Y106.906 E0.01410
G1 X119.814 Y107.101 E0.01368
G1 X119.393 Y107.217 E0.01368
G1 X118.968 Y107.250 E0.01338
G1 X118.469 Y107.214 E0.01566
G1 X118.049 Y107.104 E0.01363
G1 X117.746 Y106.940 E0.01080
G1 X117.365 Y106.659 E0.01485
G1 X117.241 Y106.459 E0.00737
G1 X117.115 Y106.633 E0.00675
G1 X116.772 Y106.906 E0.01374
G1 X116.382 Y107.101 E0.01368
G1 X115.961 Y107.217 E0.01368
G1 X115.536 Y107.250 E0.01338
G1 X115.037 Y107.214 E0.01566
G1 X114.617 Y107.104 E0.01362
G1 X114.314 Y106.940 E0.01080
G1 X113.933 Y106.659 E0.01485
G1 X113.771 Y106.396 E0.00968
G1 X113.574 Y106.018 E0.01336
G1 X113.455 Y105.576 E0.01434
G1 X113.415 Y104.959 E0.01939
G1 X113.491 Y103.998 E0.03022
G1 X113.612 Y103.998 E0.00377
G1 X113.276 Y103.370 E0.02234
G1 X113.757 Y103.469 F10800.000
G1 F1200
G1 X114.263 Y103.192 E0.01809
G1 X114.622 Y103.061 E0.01200
G1 X115.017 Y102.972 E0.01268
G1 X115.276 Y102.948 E0.00816
G1 X115.678 Y102.954 E0.01262
G1 X116.000 Y103.006 E0.01021
G1 X116.422 Y103.163 E0.01414
G1 X116.626 Y103.292 E0.00754
G1 X116.849 Y103.477 E0.00909
G1 X117.094 Y103.801 E0.01274
G1 X117.235 Y104.132 E0.01128
G1 X117.295 Y104.376 E0.00785
G1 X117.673 Y104.376 E0.01185
G1 X117.189 Y103.469 E0.03222
G1 X117.695 Y103.192 E0.01809
G1 X118.054 Y103.061 E0.01200
G1 X118.449 Y102.972 E0.01268
G1 X118.708 Y102.948 E0.00816
G1 X119.110 Y102.954 E0.01262
G1 X119.432 Y103.006 E0.01021
G1 X119.855 Y103.163 E0.01414
G1 X120.058 Y103.292 E0.00754
G1 X120.281 Y103.477 E0.00909
G1 X120.448 Y103.699 E0.00871
G1 X120.608 Y103.637 E0.00536
G1 X120.559 Y103.123 E0.01618
G1 X121.027 Y102.974 E0.01540
G1 X121.377 Y102.941 E0.01102
G1 X121.726 Y102.977 E0.01103
G1 X121.911 Y103.030 E0.00601
G1 X122.292 Y103.250 E0.01379
G1 X122.528 Y103.559 E0.01221
G1 X122.608 Y103.748 E0.00643
G1 X122.637 Y103.972 E0.00707
G1 X122.801 Y104.001 E0.00520
G1 X122.943 Y103.729 E0.00963
G1 X123.170 Y103.425 E0.01189
G1 X123.648 Y103.114 E0.01788
G1 X124.006 Y102.994 E0.01184
G1 X124.418 Y102.948 E0.01301
G1 X124.745 Y102.951 E0.01023
G1 X125.196 Y103.014 E0.01431
G1 X125.466 Y103.114 E0.00902
G1 X125.706 Y103.256 E0.00873
G1 X125.948 Y103.429 E0.00933
G1 X126.185 Y103.745 E0.01239
G1 X126.340 Y103.694 E0.00512
G1 X126.340 Y103.062 E0.01983
G1 X131.325 Y103.062 E0.15631
G1 X131.379 Y103.200 E0.00465
G1 X131.631 Y103.060 E0.00904
G1 X131.848 Y102.992 E0.00713
G1 X132.107 Y102.952 E0.00821
G1 X132.484 Y102.959 E0.01183
G1 X132.756 Y103.025 E0.00878
G1 X133.071 Y103.173 E0.01091
G1 X133.315 Y103.386 E0.01015
G1 X133.380 Y103.471 E0.00336
G1 X133.534 Y103.419 E0.00508
G1 X133.534 Y103.062 E0.01120
G1 X134.829 Y103.062 E0.04061
G1 X134.883 Y103.200 E0.00465
G1 X135.135 Y103.060 E0.00904
G1 X135.352 Y102.992 E0.00713
G1 X135.611 Y102.952 E0.00821
G1 X135.988 Y102.959 E0.01183
G1 X136.260 Y103.025 E0.00878
G1 X136.575 Y103.173 E0.01091
G1 X136.819 Y103.386 E0.01015
G1 X137.087 Y103.735 E0.01381
G1 X137.155 Y103.068 E0.02102
G1 X137.231 Y102.799 E0.00877
G1 X137.320 Y102.623 E0.00618
G1 X137.480 Y102.403 E0.00855
G1 X137.676 Y102.185 E0.00917
G1 X138.098 Y101.940 E0.01529
G1 X138.364 Y101.835 E0.00897
G1 X138.643 Y101.777 E0.00896
G1 X138.969 Y101.748 E0.01026
G1 X139.418 Y101.756 E0.01408
G1 X139.925 Y101.850 E0.01616
G1 X140.277 Y101.976 E0.01173
G1 X140.774 Y102.241 E0.01764
G1 X140.212 Y103.354 E0.03911
G1 X140.440 Y103.554 E0.00950
G1 X140.658 Y103.908 E0.01304
G1 X140.776 Y104.265 E0.01179
G1 X140.821 Y104.512 E0.00785
G1 X140.842 Y104.870 E0.01127
G1 X140.829 Y105.342 E0.01479
G1 X140.795 Y105.576 E0.00742
G1 X140.727 Y105.799 E0.00733
G1 X140.637 Y106.018 E0.00742
G1 X140.523 Y106.205 E0.00683
G1 X140.326 Y106.446 E0.00978
G1 X140.070 Y106.650 E0.01025
G1 X139.699 Y106.817 E0.01276
G1 X139.295 Y106.873 E0.01280
G1 X138.920 Y106.826 E0.01185
G1 X138.694 Y106.744 E0.00753
G1 X138.486 Y106.622 E0.00758
G1 X138.436 Y106.752 E0.00436
G1 X137.103 Y106.752 E0.04177
G1 X137.104 Y106.321 E0.01350
G1 X136.572 Y106.597 E0.01879
G1 X136.102 Y106.763 E0.01563
G1 X135.690 Y106.845 E0.01317
G1 X135.113 Y106.867 E0.01811
G1 X134.857 Y106.847 E0.00804
G1 X134.603 Y106.799 E0.00811
G1 X134.358 Y106.704 E0.00824
G1 X133.977 Y106.477 E0.01392
G1 X133.737 Y106.166 E0.01230
G1 X133.608 Y105.893 E0.00947
G1 X133.560 Y105.668 E0.00724
G1 X133.534 Y105.381 E0.00902
G1 X133.534 Y104.826 E0.01741
G1 X133.256 Y105.144 E0.01322
G1 X133.145 Y105.245 E0.00473
G1 X132.975 Y105.325 E0.00587
G1 X133.510 Y106.368 E0.03674
G1 X133.068 Y106.597 E0.01561
G1 X132.598 Y106.763 E0.01563
G1 X132.186 Y106.845 E0.01317
G1 X131.609 Y106.867 E0.01811
G1 X131.353 Y106.847 E0.00804
G1 X131.099 Y106.799 E0.00811
G1 X130.854 Y106.704 E0.00824
G1 X130.473 Y106.477 E0.01392
G1 X130.233 Y106.166 E0.01230
G1 X130.104 Y105.893 E0.00947
G1 X130.056 Y105.668 E0.00724
G1 X130.030 Y105.381 E0.00902
G1 X130.030 Y104.567 E0.02552
G1 X129.878 Y104.514 E0.00504
G1 X128.442 Y106.326 E0.07247
G1 X129.958 Y106.326 E0.04752
G1 X129.958 Y107.682 E0.04252
G1 X126.394 Y107.682 E0.11175
G1 X126.394 Y106.494 E0.03725
G1 X127.951 Y104.489 E0.07957
G1 X126.423 Y104.489 E0.04789
G1 X126.448 Y104.746 E0.00807
G1 X126.437 Y105.240 E0.01550
G1 X126.389 Y105.594 E0.01119
G1 X126.265 Y105.936 E0.01141
G1 X125.948 Y106.390 E0.01735
G1 X125.473 Y106.696 E0.01775
G1 X125.287 Y106.772 E0.00630
G1 X125.014 Y106.835 E0.00879
G1 X124.559 Y106.872 E0.01430
G1 X124.189 Y106.847 E0.01163
G1 X123.828 Y106.773 E0.01156
G1 X123.565 Y106.655 E0.00902
G1 X123.171 Y106.391 E0.01488
G1 X123.043 Y106.227 E0.00654
G1 X122.826 Y105.879 E0.01286
G1 X122.662 Y105.926 E0.00535
G1 X122.662 Y107.922 E0.06258
G1 X120.934 Y107.922 E0.05418
G1 X120.933 Y105.391 E0.07934
G1 X120.727 Y105.372 E0.00647
G1 X120.674 Y105.656 E0.00904
G1 X120.537 Y106.004 E0.01174
G1 X120.272 Y106.370 E0.01418
G1 X120.000 Y106.586 E0.01089
G1 X119.678 Y106.747 E0.01129
G1 X119.328 Y106.844 E0.01139
G1 X118.966 Y106.872 E0.01137
G1 X118.531 Y106.841 E0.01368
G1 X118.189 Y106.751 E0.01110
G1 X117.949 Y106.621 E0.00855
G1 X117.647 Y106.398 E0.01175
G1 X117.243 Y105.655 E0.02655
G1 X117.105 Y106.004 E0.01177
G1 X116.840 Y106.370 E0.01418
G1 X116.568 Y106.586 E0.01089
G1 X116.246 Y106.747 E0.01129
G1 X115.896 Y106.844 E0.01139
G1 X115.534 Y106.872 E0.01137
G1 X115.099 Y106.841 E0.01368
G1 X114.757 Y106.751 E0.01110
G1 X114.517 Y106.621 E0.00855
G1 X114.215 Y106.398 E0.01175
G1 X113.928 Y105.881 E0.01858
G1 X113.829 Y105.514 E0.01189
G1 X113.793 Y104.962 E0.01736
G1 X113.840 Y104.376 E0.01845
G1 X114.241 Y104.376 E0.01257
G1 X113.785 Y103.522 E0.03034
G1 X113.614 Y103.095 F10800.000
G1 F8640
G1 X114.263 Y103.192 E-0.13407
G1 X114.622 Y103.061 E-0.08840
G1 X115.017 Y102.972 E-0.09338
G1 X115.276 Y102.948 E-0.06011
G1 X115.678 Y102.954 E-0.09292
G1 X116.000 Y103.006 E-0.07517
G1 X116.422 Y103.163 E-0.10411
G1 X116.626 Y103.292 E-0.05555
G1 X116.813 Y103.448 E-0.05629
G1 E-0.04000 F2100.00000
G1 Z0.800 F10800.000
G1 X111.978 Y105.012
G1 Z0.200
G1 E0.80000 F2100.00000
G1 F1200
G1 X110.799 Y103.874 E0.05139
G1 X110.429 Y103.470 E0.01716
G1 X110.102 Y103.075 E0.01608
G1 X109.822 Y102.691 E0.01492
G1 X109.586 Y102.318 E0.01382
G1 X109.393 Y101.958 E0.01281
G1 X109.241 Y101.609 E0.01192
G1 X109.128 Y101.270 E0.01120
G1 X109.049 Y100.939 E0.01068
G1 X109.001 Y100.612 E0.01038
G1 X108.980 Y100.284 E0.01029
G1 X108.984 Y99.956 E0.01029
G1 X109.022 Y99.506 E0.01415
G1 X109.212 Y98.279 E0.03892
G1 X109.286 Y97.591 E0.02171
G1 X109.272 Y96.975 E0.01933
G1 X109.154 Y96.335 E0.02040
G1 X109.043 Y95.984 E0.01153
G1 X108.834 Y95.489 E0.01685
G1 X108.655 Y95.144 E0.01217
G1 X108.349 Y94.641 E0.01847
G1 X107.764 Y93.820 E0.03161
G1 X106.581 Y92.313 E0.06005
G1 X106.322 Y91.947 E0.01406
G1 X106.077 Y91.538 E0.01497
G1 X106.430 Y91.541 E0.01106
G1 X106.976 Y91.612 E0.01727
G1 X107.594 Y91.769 E0.02001
G1 X108.232 Y92.001 E0.02128
G1 X108.677 Y92.208 E0.01540
G1 X109.223 Y92.526 E0.01981
G1 X109.687 Y92.874 E0.01819
G1 X109.975 Y93.144 E0.01236
G1 X110.223 Y93.426 E0.01178
G1 X110.434 Y93.714 E0.01122
G1 X110.610 Y94.004 E0.01061
G1 X110.853 Y94.512 E0.01767
G1 X111.308 Y95.788 E0.04248
G1 X111.562 Y96.416 E0.02124
G1 X111.872 Y97.014 E0.02110
G1 X112.233 Y97.562 E0.02059
G1 X112.511 Y97.910 E0.01396
G1 X112.818 Y98.239 E0.01413
G1 X113.333 Y98.685 E0.02134
G1 X113.945 Y99.085 E0.02292
G1 X114.668 Y99.433 E0.02517
G1 X115.526 Y99.729 E0.02846
G1 X116.547 Y99.977 E0.03295
G1 X117.764 Y100.180 E0.03867
G1 X119.210 Y100.341 E0.04560
G1 X120.915 Y100.462 E0.05360
G1 X122.906 Y100.543 E0.06248
G1 X124.800 Y100.582 E0.05940
G1 X127.353 Y100.592 E0.08006
G1 X129.423 Y100.572 E0.06491
G1 X131.617 Y100.514 E0.06881
G1 X133.510 Y100.416 E0.05945
G1 X135.126 Y100.280 E0.05083
G1 X136.491 Y100.103 E0.04317
G1 X137.639 Y99.884 E0.03663
G1 X138.602 Y99.619 E0.03132
G1 X139.409 Y99.305 E0.02714
G1 X139.991 Y99.001 E0.02062
G1 X140.575 Y98.598 E0.02223
G1 X140.848 Y98.367 E0.01122
G1 X141.168 Y98.050 E0.01413
G1 X141.586 Y97.545 E0.02054
G1 X141.949 Y96.991 E0.02077
G1 X142.258 Y96.393 E0.02110
G1 X142.512 Y95.765 E0.02124
G1 X142.965 Y94.488 E0.04249
G1 X143.207 Y93.979 E0.01767
G1 X143.383 Y93.689 E0.01061
G1 X143.593 Y93.400 E0.01122
G1 X144.024 Y92.941 E0.01974
G1 X144.474 Y92.581 E0.01807
G1 X144.854 Y92.336 E0.01419
G1 X145.282 Y92.109 E0.01520
G1 X145.744 Y91.908 E0.01580
G1 X146.222 Y91.741 E0.01587
G1 X146.692 Y91.614 E0.01524
G1 X147.120 Y91.536 E0.01366
G1 X147.724 Y91.497 E0.01899
G1 X147.556 Y91.815 E0.01130
G1 X147.326 Y92.157 E0.01293
G1 X145.926 Y93.960 E0.07155
G1 X145.359 Y94.786 E0.03142
G1 X145.070 Y95.291 E0.01824
G1 X144.907 Y95.631 E0.01184
G1 X144.771 Y95.973 E0.01154
G1 X144.625 Y96.474 E0.01634
G1 X144.536 Y97.111 E0.02019
G1 X144.545 Y97.713 E0.01886
G1 X144.611 Y98.261 E0.01731
G1 X144.802 Y99.478 E0.03863
G1 X144.846 Y100.161 E0.02144
G1 X144.834 Y100.480 E0.01003
G1 X144.796 Y100.808 E0.01033
G1 X144.728 Y101.138 E0.01056
G1 X144.626 Y101.474 E0.01101
G1 X144.488 Y101.819 E0.01167
G1 X144.309 Y102.176 E0.01251
G1 X144.088 Y102.545 E0.01349
G1 X143.822 Y102.926 E0.01456
G1 X143.511 Y103.318 E0.01570
G1 X143.154 Y103.722 E0.01690
G1 X142.750 Y104.136 E0.01814
G1 X141.842 Y104.990 E0.03908
G1 X143.028 Y106.134 E0.05169
G1 X143.399 Y106.538 E0.01717
G1 X143.726 Y106.934 E0.01610
G1 X144.007 Y107.318 E0.01493
G1 X144.243 Y107.691 E0.01384
G1 X144.436 Y108.051 E0.01283
G1 X144.588 Y108.400 E0.01194
