; generated by Slic3r Prusa Edition 1.41.2+ on 2018-12-01 at 22:11:53

; Slow down perimeters to see if it will stop the hull bulging

; external perimeters extrusion width = 0.45mm
; perimeters extrusion width = 0.45mm
; infill extrusion width = 0.45mm
; solid infill extrusion width = 0.45mm
; top infill extrusion width = 0.40mm
; first layer extrusion width = 0.42mm

M73 P0 R33
M73 Q0 S33
M201 X1000 Y1000 Z1000 E5000 ; sets maximum accelerations, mm/sec^2
M203 X200 Y200 Z12 E120 ; sets maximum feedrates, mm/sec
M204 P1250 R1250 T1250 ; sets acceleration (P, T) and retract acceleration (R), mm/sec^2
M205 X8.00 Y8.00 Z0.40 E1.50 ; sets the jerk limits, mm/sec
M205 S0 T0 ; sets the minimum extruding and travel feed rate, mm/sec
M107
M115 U3.4.1 ; tell printer latest fw version
M83  ; extruder relative mode
M104 S235 ; set extruder temp
M140 S100 ; set bed temp
M190 S100 ; wait for bed temp
M109 S235 ; wait for extruder temp
G28 W ; home all without mesh bed level
G80 ; mesh bed leveling
G1 Y-3.0 F1000.0 ; go outside print area
G92 E0.0
G1 X60.0 E9.0  F1000.0 ; intro line
M73 Q0 S33
M73 P0 R33
G1 X100.0 E12.5  F1000.0 ; intro line
G92 E0.0
M221 S95
M900 K30; Filament gcode
G21 ; set units to millimeters
G90 ; use absolute coordinates
M83 ; use relative distances for extrusion
;BEFORE_LAYER_CHANGE
G92 E0.0
;0.2


G1 E-0.80000 F2100.00000
G1 Z0.600 F10800.000
;AFTER_LAYER_CHANGE
;0.2
G1 X97.469 Y96.928
G1 Z0.200
G1 E0.80000 F2100.00000
M204 S1000
G1 F1200
G1 X98.309 Y95.991 E0.03710
G1 X116.197 Y78.123 E0.74518
G1 X116.953 Y77.445 E0.02991
G1 X118.498 Y76.396 E0.05508
G1 X120.881 Y75.268 E0.07770
G1 X122.807 Y74.775 E0.05859
G1 X124.682 Y74.634 E0.05541
G1 X127.259 Y74.810 E0.07613
G1 X128.513 Y75.092 E0.03790
G1 X129.571 Y75.449 E0.03290
G1 X130.548 Y75.903 E0.03175
G1 X132.284 Y76.893 E0.05890
G1 X133.207 Y77.574 E0.03382
G1 X134.117 Y78.416 E0.03655
G1 X151.506 Y95.817 E0.72502
G1 X152.741 Y97.196 E0.05458
G1 X153.847 Y98.872 E0.05918
G1 X154.665 Y100.741 E0.06012
G1 X155.223 Y102.848 E0.06426
G1 X155.408 Y105.075 E0.06586
G1 X155.347 Y106.307 E0.03634
G1 X155.110 Y107.746 E0.04299
G1 X154.848 Y108.759 E0.03083
G1 X154.420 Y109.939 E0.03700
G1 X153.474 Y111.679 E0.05837
G1 X152.453 Y113.108 E0.05176
G1 X151.629 Y114.038 E0.03663
G1 X133.073 Y132.534 E0.77219
G1 X131.532 Y133.587 E0.05500
G1 X129.192 Y134.705 E0.07644
G1 X127.293 Y135.208 E0.05790
G1 X125.459 Y135.365 E0.05426
G1 X122.818 Y135.203 E0.07797
G1 X121.547 Y134.924 E0.03836
G1 X120.487 Y134.574 E0.03290
G1 X119.473 Y134.108 E0.03290
G1 X117.739 Y133.121 E0.05879
G1 X116.808 Y132.438 E0.03405
G1 X115.902 Y131.603 E0.03632
G1 X98.242 Y113.896 E0.73705
G1 X97.257 Y112.802 E0.04340
G1 X96.153 Y111.127 E0.05913
G1 X95.336 Y109.260 E0.06005
G1 X94.778 Y107.153 E0.06425
G1 X94.592 Y104.927 E0.06585
G1 X94.652 Y103.703 E0.03611
G1 X94.885 Y102.277 E0.04259
G1 X95.142 Y101.271 E0.03060
G1 X95.562 Y100.104 E0.03654
G1 X95.999 Y99.188 E0.02991
G1 X96.682 Y98.035 E0.03951
G1 X97.434 Y96.977 E0.03825
G1 F8640
G1 X98.309 Y95.991 E-0.30443
G1 X99.705 Y94.597 E-0.45557
G1 E-0.04000 F2100.00000
G1 Z0.800 F10800.000
G1 X136.628 Y93.365
G1 Z0.200
G1 E0.80000 F2100.00000
G1 F1200
G1 X141.945 Y93.410 E0.15671
G1 X143.357 Y93.376 E0.04164
G1 X145.201 Y93.638 E0.05490
G1 X145.715 Y93.795 E0.01583
G1 X146.288 Y93.936 E0.01740
G1 X147.561 Y94.410 E0.04005
G1 X149.667 Y95.666 E0.07225
G1 X152.025 Y98.168 E0.10132
G1 X153.853 Y101.974 E0.12447
G1 X154.190 Y103.835 E0.05572
G1 X154.224 Y105.562 E0.05093
G1 X153.638 Y108.736 E0.09513
G1 X152.373 Y111.322 E0.08484
G1 X151.385 Y112.653 E0.04885
G1 X150.262 Y113.805 E0.04742
G1 X148.541 Y115.060 E0.06275
G1 X146.892 Y115.811 E0.05341
G1 X146.153 Y116.044 E0.02284
G1 X145.528 Y116.276 E0.01965
G1 X143.408 Y116.643 E0.06342
G1 X136.620 Y116.518 E0.20009
G1 X136.652 Y121.041 E0.13332
G1 X136.623 Y123.378 E0.06888
G1 X136.447 Y124.822 E0.04286
G1 X136.108 Y126.194 E0.04167
G1 X135.244 Y128.228 E0.06512
G1 X133.882 Y130.196 E0.07055
G1 X132.376 Y131.649 E0.06168
G1 X130.713 Y132.784 E0.05935
G1 X129.304 Y133.435 E0.04574
G1 X127.583 Y133.921 E0.05271
G1 X126.037 Y134.178 E0.04618
G1 X124.053 Y134.234 E0.05849
G1 X121.812 Y133.903 E0.06677
G1 X119.758 Y133.067 E0.06538
G1 X116.871 Y130.963 E0.10527
G1 X115.702 Y129.639 E0.05207
G1 X114.731 Y128.161 E0.05212
G1 X113.828 Y125.875 E0.07243
G1 X113.451 Y123.535 E0.06985
G1 X113.369 Y120.190 E0.09864
G1 X113.373 Y116.574 E0.10655
G1 X111.367 Y116.562 E0.05913
G1 X108.822 Y116.632 E0.07502
G1 X105.459 Y116.501 E0.09921
G1 X101.692 Y115.194 E0.11750
G1 X99.532 Y113.663 E0.07803
G1 X98.380 Y112.447 E0.04936
G1 X97.458 Y111.069 E0.04887
G1 X96.401 Y108.801 E0.07375
G1 X95.950 Y107.080 E0.05245
G1 X95.717 Y104.747 E0.06909
G1 X95.931 Y102.852 E0.05621
G1 X96.405 Y101.033 E0.05541
G1 X97.827 Y98.382 E0.08865
G1 X99.696 Y96.269 E0.08316
G1 X101.227 Y95.107 E0.05665
G1 X102.792 Y94.301 E0.05189
G1 X104.476 Y93.730 E0.05240
G1 X106.336 Y93.413 E0.05561
G1 X113.407 Y93.362 E0.20842
G1 X113.347 Y88.832 E0.13353
G1 X113.378 Y86.597 E0.06588
G1 X113.530 Y85.306 E0.03832
G1 X113.823 Y84.026 E0.03870
G1 X114.773 Y81.743 E0.07287
G1 X116.128 Y79.793 E0.06998
G1 X117.619 Y78.356 E0.06105
G1 X119.328 Y77.193 E0.06093
G1 X120.811 Y76.525 E0.04792
G1 X122.449 Y76.072 E0.05009
G1 X124.060 Y75.812 E0.04811
G1 X125.237 Y75.778 E0.03470
G1 X126.379 Y75.790 E0.03366
G1 X128.421 Y76.163 E0.06118
G1 X130.299 Y76.965 E0.06020
G1 X133.239 Y79.143 E0.10782
G1 X134.341 Y80.420 E0.04973
G1 X135.268 Y81.837 E0.04992
G1 X136.172 Y84.123 E0.07243
G1 X136.550 Y86.462 E0.06984
G1 X136.632 Y89.803 E0.09850
G1 X136.628 Y93.305 E0.10322
G1 X136.251 Y93.739 F10800.000
G1 F1200
G1 X141.948 Y93.787 E0.16792
G1 X143.350 Y93.754 E0.04135
G1 X145.132 Y94.009 E0.05306
G1 X145.614 Y94.159 E0.01487
G1 X146.167 Y94.293 E0.01678
G1 X147.414 Y94.757 E0.03920
G1 X149.451 Y95.976 E0.06997
G1 X151.698 Y98.357 E0.09648
G1 X153.502 Y102.114 E0.12284
G1 X153.816 Y103.886 E0.05302
G1 X153.847 Y105.550 E0.04907
G1 X153.272 Y108.642 E0.09269
G1 X152.042 Y111.140 E0.08206
G1 X151.090 Y112.417 E0.04696
G1 X150.003 Y113.530 E0.04585
G1 X148.335 Y114.743 E0.06078
G1 X146.748 Y115.463 E0.05138
G1 X146.032 Y115.687 E0.02211
G1 X145.414 Y115.916 E0.01942
G1 X143.362 Y116.269 E0.06136
G1 X136.240 Y116.133 E0.20993
G1 X136.275 Y121.042 E0.14468
G1 X136.246 Y123.363 E0.06841
G1 X136.078 Y124.743 E0.04096
G1 X135.755 Y126.061 E0.04000
G1 X134.904 Y128.062 E0.06410
G1 X133.583 Y129.966 E0.06829
G1 X132.150 Y131.347 E0.05864
G1 X130.514 Y132.464 E0.05841
G1 X129.160 Y133.086 E0.04390
G1 X127.491 Y133.555 E0.05111
G1 X125.989 Y133.804 E0.04488
G1 X124.060 Y133.856 E0.05688
G1 X121.932 Y133.545 E0.06337
G1 X119.960 Y132.748 E0.06268
G1 X117.140 Y130.698 E0.10277
G1 X115.993 Y129.399 E0.05106
G1 X115.057 Y127.970 E0.05035
G1 X114.186 Y125.756 E0.07012
G1 X113.825 Y123.489 E0.06768
G1 X113.746 Y120.183 E0.09746
G1 X113.750 Y116.200 E0.11740
G1 X111.363 Y116.185 E0.07037
G1 X108.831 Y116.254 E0.07466
G1 X105.501 Y116.125 E0.09820
G1 X101.888 Y114.871 E0.11272
G1 X99.792 Y113.390 E0.07563
G1 X98.685 Y112.224 E0.04740
G1 X97.780 Y110.871 E0.04797
G1 X96.761 Y108.688 E0.07099
G1 X96.323 Y107.027 E0.05065
G1 X96.094 Y104.769 E0.06689
G1 X96.299 Y102.934 E0.05442
G1 X96.764 Y101.150 E0.05434
G1 X98.148 Y98.581 E0.08601
G1 X99.965 Y96.533 E0.08069
G1 X101.441 Y95.418 E0.05452
G1 X102.952 Y94.643 E0.05004
G1 X104.582 Y94.092 E0.05072
G1 X106.384 Y93.787 E0.05385
G1 X113.789 Y93.737 E0.21827
G1 X113.724 Y88.830 E0.14465
G1 X113.755 Y86.612 E0.06536
G1 X113.903 Y85.360 E0.03716
G1 X114.187 Y84.126 E0.03734
G1 X115.094 Y81.941 E0.06970
G1 X116.426 Y80.024 E0.06883
G1 X117.869 Y78.639 E0.05892
G1 X119.526 Y77.515 E0.05904
G1 X120.925 Y76.884 E0.04521
G1 X122.539 Y76.438 E0.04935
G1 X124.107 Y76.186 E0.04682
G1 X125.243 Y76.155 E0.03350
G1 X126.359 Y76.167 E0.03288
G1 X128.293 Y76.518 E0.05794
G1 X130.093 Y77.281 E0.05763
G1 X132.967 Y79.405 E0.10531
G1 X134.048 Y80.656 E0.04873
G1 X134.942 Y82.027 E0.04823
G1 X135.813 Y84.242 E0.07014
G1 X136.176 Y86.509 E0.06767
G1 X136.255 Y89.810 E0.09732
G1 X136.251 Y93.679 E0.11404
G1 X135.873 Y94.113 F10800.000
G1 F1200
G1 X141.951 Y94.164 E0.17913
G1 X143.343 Y94.131 E0.04106
G1 X145.063 Y94.380 E0.05120
G1 X145.513 Y94.522 E0.01391
G1 X146.046 Y94.651 E0.01618
G1 X147.266 Y95.105 E0.03834
G1 X149.235 Y96.286 E0.06768
G1 X151.370 Y98.547 E0.09166
G1 X153.151 Y102.254 E0.12120
G1 X153.442 Y103.935 E0.05029
G1 X153.469 Y105.537 E0.04723
G1 X152.906 Y108.547 E0.09023
G1 X151.712 Y110.957 E0.07927
G1 X150.796 Y112.181 E0.04508
G1 X149.745 Y113.255 E0.04428
G1 X148.130 Y114.426 E0.05881
G1 X146.603 Y115.114 E0.04935
G1 X145.910 Y115.330 E0.02139
G1 X145.300 Y115.556 E0.01919
G1 X143.316 Y115.894 E0.05930
G1 X135.860 Y115.749 E0.21979
G1 X135.898 Y121.043 E0.15604
G1 X135.869 Y123.348 E0.06795
G1 X135.709 Y124.664 E0.03908
G1 X135.401 Y125.927 E0.03832
G1 X134.565 Y127.897 E0.06306
G1 X133.285 Y129.735 E0.06603
G1 X131.925 Y131.044 E0.05562
G1 X130.314 Y132.143 E0.05747
G1 X129.019 Y132.736 E0.04198
G1 X128.065 Y132.990 E0.02910
G1 X127.416 Y133.185 E0.01999
G1 X125.940 Y133.430 E0.04409
G1 X124.066 Y133.479 E0.05526
G1 X122.051 Y133.186 E0.05999
G1 X120.163 Y132.429 E0.05998
G1 X117.409 Y130.432 E0.10026
G1 X116.301 Y129.181 E0.04924
G1 X115.383 Y127.780 E0.04936
G1 X114.545 Y125.638 E0.06779
G1 X114.199 Y123.443 E0.06551
G1 X114.123 Y120.181 E0.09615
G1 X114.128 Y115.825 E0.12839
G1 X111.359 Y115.808 E0.08162
G1 X108.839 Y115.877 E0.07429
G1 X105.544 Y115.749 E0.09719
G1 X102.083 Y114.548 E0.10796
G1 X100.053 Y113.117 E0.07321
G1 X98.969 Y111.976 E0.04636
G1 X98.101 Y110.674 E0.04612
G1 X97.122 Y108.576 E0.06827
G1 X96.697 Y106.973 E0.04887
G1 X96.471 Y104.790 E0.06468
G1 X96.667 Y103.016 E0.05261
G1 X97.123 Y101.267 E0.05326
G1 X98.469 Y98.780 E0.08336
G1 X100.234 Y96.798 E0.07821
G1 X101.655 Y95.729 E0.05239
G1 X103.111 Y94.985 E0.04820
G1 X104.688 Y94.454 E0.04905
G1 X106.431 Y94.161 E0.05210
G1 X114.171 Y94.112 E0.22813
G1 X114.101 Y88.827 E0.15576
G1 X114.132 Y86.627 E0.06484
G1 X114.276 Y85.415 E0.03598
G1 X114.551 Y84.226 E0.03598
G1 X115.415 Y82.140 E0.06654
G1 X116.725 Y80.254 E0.06767
G1 X118.117 Y78.923 E0.05678
G1 X119.724 Y77.836 E0.05717
G1 X121.039 Y77.244 E0.04251
G1 X122.629 Y76.804 E0.04862
G1 X124.154 Y76.561 E0.04552
G1 X125.250 Y76.532 E0.03229
G1 X126.339 Y76.543 E0.03211
G1 X128.205 Y76.885 E0.05590
G1 X129.888 Y77.598 E0.05387
G1 X132.696 Y79.668 E0.10281
G1 X133.739 Y80.873 E0.04698
G1 X134.615 Y82.217 E0.04728
G1 X135.455 Y84.360 E0.06783
G1 X135.801 Y86.555 E0.06551
G1 X135.878 Y89.812 E0.09601
G1 X135.873 Y94.053 E0.12501
G1 X135.496 Y94.487 F10800.000
G1 F1200
G1 X141.953 Y94.541 E0.19034
G1 X143.336 Y94.508 E0.04076
G1 X144.992 Y94.751 E0.04931
G1 X145.411 Y94.886 E0.01297
G1 X145.926 Y95.008 E0.01561
G1 X147.117 Y95.452 E0.03747
G1 X149.019 Y96.596 E0.06539
G1 X151.043 Y98.736 E0.08684
G1 X152.799 Y102.393 E0.11954
G1 X153.067 Y103.983 E0.04754
G1 X153.092 Y105.524 E0.04542
G1 X152.540 Y108.451 E0.08778
G1 X151.383 Y110.773 E0.07647
G1 X150.502 Y111.945 E0.04320
G1 X149.487 Y112.979 E0.04271
G1 X147.925 Y114.109 E0.05684
G1 X146.460 Y114.766 E0.04730
G1 X145.789 Y114.973 E0.02069
G1 X145.186 Y115.196 E0.01898
G1 X143.274 Y115.519 E0.05714
G1 X142.313 Y115.485 E0.02833
G1 X140.237 Y115.463 E0.06121
G1 X135.481 Y115.363 E0.14020
G1 X135.521 Y121.044 E0.16743
G1 X135.494 Y123.313 E0.06689
G1 X135.340 Y124.586 E0.03778
G1 X135.039 Y125.823 E0.03753
G1 X134.244 Y127.698 E0.06001
G1 X133.009 Y129.477 E0.06383
G1 X131.699 Y130.742 E0.05368
G1 X130.142 Y131.808 E0.05560
G1 X128.906 Y132.376 E0.04009
G1 X127.962 Y132.628 E0.02882
G1 X127.341 Y132.816 E0.01910
G1 X125.917 Y133.053 E0.04257
G1 X124.072 Y133.101 E0.05439
G1 X122.128 Y132.817 E0.05791
G1 X120.365 Y132.110 E0.05599
G1 X117.677 Y130.166 E0.09775
G1 X116.593 Y128.942 E0.04822
G1 X115.710 Y127.591 E0.04757
G1 X114.904 Y125.521 E0.06546
G1 X114.574 Y123.397 E0.06334
G1 X114.500 Y120.179 E0.09487
G1 X114.505 Y115.450 E0.13938
G1 X111.355 Y115.431 E0.09286
G1 X108.847 Y115.500 E0.07392
G1 X105.586 Y115.373 E0.09618
G1 X102.279 Y114.224 E0.10321
G1 X100.313 Y112.843 E0.07080
G1 X99.274 Y111.753 E0.04437
G1 X98.423 Y110.477 E0.04522
G1 X97.482 Y108.462 E0.06554
G1 X97.070 Y106.918 E0.04709
G1 X96.848 Y104.811 E0.06246
G1 X97.040 Y103.071 E0.05160
G1 X97.482 Y101.385 E0.05136
G1 X98.790 Y98.979 E0.08070
G1 X100.503 Y97.063 E0.07575
G1 X101.841 Y96.058 E0.04933
G1 X103.270 Y95.327 E0.04730
G1 X104.794 Y94.817 E0.04736
G1 X106.478 Y94.536 E0.05034
G1 X114.553 Y94.486 E0.23800
G1 X114.478 Y88.830 E0.16673
G1 X114.509 Y86.642 E0.06447
G1 X114.646 Y85.489 E0.03424
G1 X114.905 Y84.355 E0.03428
G1 X115.756 Y82.303 E0.06546
G1 X117.024 Y80.486 E0.06532
G1 X118.342 Y79.226 E0.05374
G1 X119.922 Y78.158 E0.05621
G1 X121.178 Y77.595 E0.04056
G1 X122.066 Y77.364 E0.02705
G1 X122.703 Y77.175 E0.01958
G1 X124.201 Y76.935 E0.04472
G1 X125.255 Y76.910 E0.03108
G1 X126.319 Y76.920 E0.03136
G1 X128.078 Y77.241 E0.05269
G1 X129.683 Y77.915 E0.05130
G1 X132.425 Y79.931 E0.10029
G1 X133.445 Y81.110 E0.04598
G1 X134.288 Y82.406 E0.04557
G1 X135.096 Y84.477 E0.06552
G1 X135.427 Y86.601 E0.06334
G1 X135.500 Y89.814 E0.09472
G1 X135.496 Y94.427 E0.13598
G1 X135.118 Y94.861 F10800.000
G1 F1200
G1 X141.956 Y94.918 E0.20155
G1 X143.329 Y94.886 E0.04046
G1 X144.920 Y95.121 E0.04740
G1 X145.308 Y95.249 E0.01205
G1 X145.806 Y95.366 E0.01507
G1 X146.969 Y95.799 E0.03659
G1 X148.802 Y96.905 E0.06309
G1 X150.716 Y98.926 E0.08203
G1 X152.447 Y102.531 E0.11787
G1 X152.693 Y104.030 E0.04476
G1 X152.715 Y105.510 E0.04364
G1 X152.175 Y108.354 E0.08532
G1 X151.054 Y110.588 E0.07366
G1 X150.209 Y111.707 E0.04134
G1 X149.229 Y112.703 E0.04117
G1 X147.753 Y113.773 E0.05374
G1 X146.317 Y114.417 E0.04638
G1 X145.669 Y114.616 E0.01997
G1 X145.072 Y114.836 E0.01876
G1 X143.231 Y115.143 E0.05499
G1 X142.323 Y115.108 E0.02679
G1 X140.244 Y115.086 E0.06129
G1 X135.101 Y114.978 E0.15161
G1 X135.144 Y121.045 E0.17881
G1 X135.118 Y123.279 E0.06585
G1 X134.971 Y124.508 E0.03648
G1 X134.676 Y125.719 E0.03675
G1 X133.923 Y127.499 E0.05697
G1 X132.733 Y129.219 E0.06162
G1 X131.472 Y130.440 E0.05175
G1 X129.970 Y131.472 E0.05370
G1 X128.764 Y132.026 E0.03912
G1 X127.859 Y132.265 E0.02760
G1 X127.266 Y132.446 E0.01825
G1 X125.894 Y132.677 E0.04103
G1 X124.078 Y132.724 E0.05352
G1 X122.247 Y132.458 E0.05456
G1 X120.566 Y131.790 E0.05330
G1 X117.945 Y129.900 E0.09523
G1 X116.901 Y128.724 E0.04638
G1 X116.036 Y127.401 E0.04657
G1 X115.263 Y125.404 E0.06311
G1 X114.949 Y123.352 E0.06118
G1 X114.878 Y120.177 E0.09360
G1 X114.883 Y115.075 E0.15037
G1 X111.350 Y115.054 E0.10411
G1 X108.856 Y115.123 E0.07355
G1 X105.629 Y114.998 E0.09517
G1 X102.473 Y113.900 E0.09847
G1 X100.573 Y112.569 E0.06839
G1 X99.559 Y111.505 E0.04332
G1 X98.745 Y110.280 E0.04335
G1 X97.842 Y108.348 E0.06285
G1 X97.444 Y106.863 E0.04532
G1 X97.225 Y104.831 E0.06023
G1 X97.409 Y103.153 E0.04977
G1 X97.841 Y101.503 E0.05027
G1 X99.110 Y99.180 E0.07803
G1 X100.771 Y97.329 E0.07329
G1 X102.027 Y96.386 E0.04629
G1 X103.429 Y95.669 E0.04640
G1 X104.898 Y95.179 E0.04566
G1 X106.525 Y94.910 E0.04859
G1 X114.935 Y94.861 E0.24789
G1 X114.855 Y88.827 E0.17786
G1 X114.884 Y86.677 E0.06339
G1 X115.016 Y85.563 E0.03305
G1 X115.269 Y84.454 E0.03352
G1 X116.077 Y82.502 E0.06228
G1 X117.298 Y80.745 E0.06306
G1 X118.567 Y79.529 E0.05178
G1 X120.091 Y78.495 E0.05429
M73 Q3 S32
G1 X121.317 Y77.946 E0.03959
G1 X122.167 Y77.728 E0.02587
G1 X122.775 Y77.545 E0.01872
G1 X124.223 Y77.312 E0.04322
G1 X125.261 Y77.287 E0.03060
G1 X126.299 Y77.297 E0.03060
G1 X127.952 Y77.597 E0.04950
G1 X129.478 Y78.233 E0.04873
M73 P3 R32
G1 X132.154 Y80.194 E0.09777
G1 X133.136 Y81.327 E0.04420
G1 X133.962 Y82.595 E0.04460
G1 X134.737 Y84.594 E0.06319
G1 X135.052 Y86.646 E0.06118
G1 X135.123 Y89.815 E0.09344
G1 X135.118 Y94.801 E0.14694
G1 X134.741 Y95.235 F10800.000
G1 F1200
G1 X141.959 Y95.296 E0.21276
G1 X143.321 Y95.263 E0.04016
G1 X144.847 Y95.491 E0.04545
